P3
# Original Fio oil-drum texture atlas, designed from common painted steel-drum references.
# CC0/public-domain reference imagery informed the colour/wear treatment; no source photograph is embedded.
256 256
255
22 26 27 22 26 27 22 26 27 78 82 82 83 87 87 89 93 93 22 26 27 92 96 96 76 80 80 83 87 87 89 93 93 22 26 27 80 84 84 90 94 94 81 85 85 89 93 93
22 26 27 22 26 27 22 26 27 22 26 27 22 26 27 22 26 27 22 26 27 22 26 27 22 26 27 22 26 27 22 26 27 22 26 27 22 26 27 22 26 27 22 26 27 22 26 27
22 26 27 22 26 27 22 26 27 22 26 27 22 26 27 22 26 27 22 26 27 22 26 27 22 26 27 22 26 27 22 26 27 22 26 27 22 26 27 22 26 27 22 26 27 22 26 27
22 26 27 22 26 27 22 26 27 22 26 27 22 26 27 22 26 27 22 26 27 22 26 27 22 26 27 22 26 27 22 26 27 22 26 27 22 26 27 22 26 27 22 26 27 22 26 27
22 26 27 22 26 27 22 26 27 22 26 27 22 26 27 22 26 27 22 26 27 22 26 27 22 26 27 22 26 27 22 26 27 22 26 27 22 26 27 22 26 27 22 26 27 22 26 27
22 26 27 22 26 27 22 26 27 22 26 27 22 26 27 22 26 27 22 26 27 22 26 27 22 26 27 22 26 27 22 26 27 22 26 27 22 26 27 22 26 27 22 26 27 22 26 27
22 26 27 22 26 27 22 26 27 22 26 27 22 26 27 22 26 27 22 26 27 22 26 27 22 26 27 22 26 27 22 26 27 22 26 27 22 26 27 22 26 27 22 26 27 22 26 27
22 26 27 22 26 27 22 26 27 22 26 27 22 26 27 22 26 27 22 26 27 22 26 27 22 26 27 22 26 27 22 26 27 22 26 27 22 26 27 22 26 27 22 26 27 22 26 27
22 26 27 22 26 27 22 26 27 22 26 27 22 26 27 22 26 27 22 26 27 22 26 27 22 26 27 22 26 27 22 26 27 22 26 27 22 26 27 22 26 27 22 26 27 22 26 27
22 26 27 22 26 27 22 26 27 22 26 27 22 26 27 22 26 27 22 26 27 22 26 27 22 26 27 22 26 27 22 26 27 22 26 27 22 26 27 22 26 27 22 26 27 22 26 27
22 26 27 22 26 27 22 26 27 22 26 27 22 26 27 22 26 27 22 26 27 22 26 27 22 26 27 22 26 27 22 26 27 22 26 27 22 26 27 22 26 27 22 26 27 22 26 27
22 26 27 22 26 27 22 26 27 22 26 27 22 26 27 22 26 27 22 26 27 22 26 27 22 26 27 22 26 27 22 26 27 22 26 27 22 26 27 22 26 27 22 26 27 22 26 27
22 26 27 22 26 27 22 26 27 22 26 27 22 26 27 22 26 27 22 26 27 22 26 27 22 26 27 22 26 27 22 26 27 22 26 27 22 26 27 22 26 27 22 26 27 22 26 27
22 26 27 22 26 27 22 26 27 22 26 27 22 26 27 22 26 27 22 26 27 22 26 27 22 26 27 22 26 27 22 26 27 22 26 27 22 26 27 22 26 27 22 26 27 22 26 27
22 26 27 22 26 27 22 26 27 22 26 27 22 26 27 22 26 27 22 26 27 22 26 27 22 26 27 22 26 27 22 26 27 22 26 27 22 26 27 22 26 27 22 26 27 22 26 27
22 26 27 22 26 27 22 26 27 22 26 27 22 26 27 22 26 27 22 26 27 22 26 27 22 26 27 22 26 27 22 26 27 22 26 27 22 26 27 22 26 27 22 26 27 22 26 27
22 26 27 22 26 27 22 26 27 74 78 78 86 90 90 78 82 82 22 26 27 71 75 75 93 97 97 74 78 78 79 83 83 22 26 27 92 96 96 69 73 73 71 75 75 69 73 73
22 26 27 22 26 27 22 26 27 22 26 27 22 26 27 22 26 27 22 26 27 22 26 27 22 26 27 22 26 27 22 26 27 22 26 27 22 26 27 22 26 27 22 26 27 22 26 27
22 26 27 22 26 27 22 26 27 22 26 27 22 26 27 22 26 27 22 26 27 22 26 27 22 26 27 22 26 27 22 26 27 22 26 27 22 26 27 22 26 27 22 26 27 22 26 27
22 26 27 22 26 27 22 26 27 22 26 27 22 26 27 22 26 27 22 26 27 22 26 27 22 26 27 22 26 27 22 26 27 22 26 27 22 26 27 22 26 27 22 26 27 22 26 27
22 26 27 22 26 27 22 26 27 22 26 27 22 26 27 22 26 27 22 26 27 22 26 27 22 26 27 22 26 27 22 26 27 22 26 27 22 26 27 22 26 27 22 26 27 22 26 27
22 26 27 22 26 27 22 26 27 22 26 27 22 26 27 22 26 27 22 26 27 22 26 27 22 26 27 22 26 27 22 26 27 22 26 27 22 26 27 22 26 27 22 26 27 22 26 27
22 26 27 22 26 27 22 26 27 22 26 27 22 26 27 22 26 27 22 26 27 22 26 27 22 26 27 22 26 27 22 26 27 22 26 27 22 26 27 22 26 27 22 26 27 22 26 27
22 26 27 22 26 27 22 26 27 22 26 27 22 26 27 22 26 27 22 26 27 22 26 27 22 26 27 22 26 27 22 26 27 22 26 27 22 26 27 22 26 27 22 26 27 22 26 27
22 26 27 22 26 27 22 26 27 22 26 27 22 26 27 22 26 27 22 26 27 22 26 27 22 26 27 22 26 27 22 26 27 22 26 27 22 26 27 22 26 27 22 26 27 22 26 27
22 26 27 22 26 27 22 26 27 22 26 27 22 26 27 22 26 27 22 26 27 22 26 27 22 26 27 22 26 27 22 26 27 22 26 27 22 26 27 22 26 27 22 26 27 22 26 27
22 26 27 22 26 27 22 26 27 22 26 27 22 26 27 22 26 27 22 26 27 22 26 27 22 26 27 22 26 27 22 26 27 22 26 27 22 26 27 22 26 27 22 26 27 22 26 27
22 26 27 22 26 27 22 26 27 22 26 27 22 26 27 22 26 27 22 26 27 22 26 27 22 26 27 22 26 27 22 26 27 22 26 27 22 26 27 22 26 27 22 26 27 22 26 27
22 26 27 22 26 27 22 26 27 22 26 27 22 26 27 22 26 27 22 26 27 22 26 27 22 26 27 22 26 27 22 26 27 22 26 27 22 26 27 22 26 27 22 26 27 22 26 27
22 26 27 22 26 27 22 26 27 22 26 27 22 26 27 22 26 27 22 26 27 22 26 27 22 26 27 22 26 27 22 26 27 22 26 27 22 26 27 22 26 27 22 26 27 22 26 27
22 26 27 22 26 27 22 26 27 22 26 27 22 26 27 22 26 27 22 26 27 22 26 27 22 26 27 22 26 27 22 26 27 22 26 27 22 26 27 22 26 27 22 26 27 22 26 27
22 26 27 22 26 27 22 26 27 22 26 27 22 26 27 22 26 27 22 26 27 22 26 27 22 26 27 22 26 27 22 26 27 22 26 27 22 26 27 22 26 27 22 26 27 22 26 27
22 26 27 22 26 27 22 26 27 87 91 91 76 80 80 72 76 76 22 26 27 75 79 79 87 91 91 76 80 80 81 85 85 22 26 27 91 95 95 74 78 78 78 82 82 89 93 93
22 26 27 22 26 27 22 26 27 22 26 27 22 26 27 22 26 27 22 26 27 22 26 27 22 26 27 22 26 27 22 26 27 22 26 27 22 26 27 22 26 27 22 26 27 22 26 27
22 26 27 22 26 27 22 26 27 22 26 27 22 26 27 22 26 27 22 26 27 22 26 27 22 26 27 22 26 27 22 26 27 22 26 27 22 26 27 22 26 27 22 26 27 22 26 27
22 26 27 22 26 27 22 26 27 22 26 27 22 26 27 22 26 27 22 26 27 22 26 27 22 26 27 22 26 27 22 26 27 22 26 27 22 26 27 22 26 27 22 26 27 22 26 27
22 26 27 22 26 27 22 26 27 22 26 27 22 26 27 22 26 27 22 26 27 22 26 27 22 26 27 22 26 27 22 26 27 22 26 27 22 26 27 22 26 27 22 26 27 22 26 27
22 26 27 22 26 27 22 26 27 22 26 27 22 26 27 22 26 27 22 26 27 22 26 27 22 26 27 22 26 27 22 26 27 22 26 27 22 26 27 22 26 27 22 26 27 22 26 27
22 26 27 22 26 27 22 26 27 22 26 27 22 26 27 22 26 27 22 26 27 22 26 27 22 26 27 22 26 27 22 26 27 22 26 27 22 26 27 22 26 27 22 26 27 22 26 27
22 26 27 22 26 27 22 26 27 22 26 27 22 26 27 22 26 27 22 26 27 22 26 27 22 26 27 22 26 27 22 26 27 22 26 27 22 26 27 22 26 27 22 26 27 22 26 27
22 26 27 22 26 27 22 26 27 22 26 27 22 26 27 22 26 27 22 26 27 22 26 27 22 26 27 22 26 27 22 26 27 22 26 27 22 26 27 22 26 27 22 26 27 22 26 27
22 26 27 22 26 27 22 26 27 22 26 27 22 26 27 22 26 27 22 26 27 22 26 27 22 26 27 22 26 27 22 26 27 22 26 27 22 26 27 22 26 27 22 26 27 22 26 27
22 26 27 22 26 27 22 26 27 22 26 27 22 26 27 22 26 27 22 26 27 22 26 27 22 26 27 22 26 27 22 26 27 22 26 27 22 26 27 22 26 27 22 26 27 22 26 27
22 26 27 22 26 27 22 26 27 22 26 27 22 26 27 22 26 27 22 26 27 22 26 27 22 26 27 22 26 27 22 26 27 22 26 27 22 26 27 22 26 27 22 26 27 22 26 27
22 26 27 22 26 27 22 26 27 22 26 27 22 26 27 22 26 27 22 26 27 22 26 27 22 26 27 22 26 27 22 26 27 22 26 27 22 26 27 22 26 27 22 26 27 22 26 27
22 26 27 22 26 27 22 26 27 22 26 27 22 26 27 22 26 27 22 26 27 22 26 27 22 26 27 22 26 27 22 26 27 22 26 27 22 26 27 22 26 27 22 26 27 22 26 27
22 26 27 22 26 27 22 26 27 22 26 27 22 26 27 22 26 27 22 26 27 22 26 27 22 26 27 22 26 27 22 26 27 22 26 27 22 26 27 22 26 27 22 26 27 22 26 27
22 26 27 22 26 27 22 26 27 22 26 27 22 26 27 22 26 27 22 26 27 22 26 27 22 26 27 22 26 27 22 26 27 22 26 27 22 26 27 22 26 27 22 26 27 22 26 27
22 26 27 22 26 27 22 26 27 70 74 74 79 83 83 75 79 79 22 26 27 79 83 83 76 80 80 90 94 94 77 81 81 22 26 27 77 81 81 83 87 87 72 76 76 77 81 81
22 26 27 22 26 27 22 26 27 22 26 27 22 26 27 22 26 27 22 26 27 22 26 27 22 26 27 22 26 27 22 26 27 22 26 27 22 26 27 22 26 27 22 26 27 22 26 27
22 26 27 22 26 27 22 26 27 22 26 27 22 26 27 22 26 27 22 26 27 22 26 27 22 26 27 22 26 27 22 26 27 22 26 27 22 26 27 22 26 27 22 26 27 22 26 27
22 26 27 22 26 27 22 26 27 22 26 27 22 26 27 22 26 27 22 26 27 22 26 27 22 26 27 22 26 27 22 26 27 22 26 27 22 26 27 22 26 27 22 26 27 22 26 27
22 26 27 22 26 27 22 26 27 22 26 27 22 26 27 22 26 27 22 26 27 22 26 27 22 26 27 22 26 27 22 26 27 22 26 27 22 26 27 22 26 27 22 26 27 22 26 27
22 26 27 22 26 27 22 26 27 22 26 27 22 26 27 22 26 27 22 26 27 22 26 27 22 26 27 22 26 27 22 26 27 22 26 27 22 26 27 22 26 27 22 26 27 22 26 27
22 26 27 22 26 27 22 26 27 22 26 27 22 26 27 22 26 27 22 26 27 22 26 27 22 26 27 22 26 27 22 26 27 22 26 27 22 26 27 22 26 27 22 26 27 22 26 27
22 26 27 22 26 27 22 26 27 22 26 27 22 26 27 22 26 27 22 26 27 22 26 27 22 26 27 22 26 27 22 26 27 22 26 27 22 26 27 22 26 27 22 26 27 22 26 27
22 26 27 22 26 27 22 26 27 22 26 27 22 26 27 22 26 27 99 100 93 96 98 91 109 110 101 105 106 98 99 101 93 93 95 89 89 91 85 103 104 96 97 99 92 95 97 90
84 87 81 106 107 99 84 86 81 100 101 94 22 26 27 22 26 27 22 26 27 22 26 27 22 26 27 22 26 27 22 26 27 22 26 27 22 26 27 22 26 27 22 26 27 22 26 27
22 26 27 22 26 27 22 26 27 22 26 27 22 26 27 22 26 27 22 26 27 22 26 27 22 26 27 22 26 27 22 26 27 22 26 27 22 26 27 22 26 27 22 26 27 22 26 27
22 26 27 22 26 27 22 26 27 22 26 27 22 26 27 22 26 27 22 26 27 22 26 27 22 26 27 22 26 27 22 26 27 22 26 27 22 26 27 22 26 27 22 26 27 22 26 27
22 26 27 22 26 27 22 26 27 22 26 27 22 26 27 22 26 27 22 26 27 22 26 27 22 26 27 22 26 27 22 26 27 22 26 27 22 26 27 22 26 27 22 26 27 22 26 27
22 26 27 22 26 27 22 26 27 22 26 27 22 26 27 22 26 27 22 26 27 22 26 27 22 26 27 22 26 27 22 26 27 22 26 27 22 26 27 22 26 27 22 26 27 22 26 27
22 26 27 22 26 27 22 26 27 22 26 27 22 26 27 22 26 27 22 26 27 22 26 27 22 26 27 22 26 27 22 26 27 22 26 27 22 26 27 22 26 27 22 26 27 22 26 27
22 26 27 22 26 27 22 26 27 22 26 27 22 26 27 22 26 27 22 26 27 22 26 27 22 26 27 22 26 27 22 26 27 22 26 27 22 26 27 22 26 27 22 26 27 22 26 27
22 26 27 22 26 27 22 26 27 85 89 89 88 92 92 91 95 95 22 26 27 70 74 74 87 91 91 71 75 75 93 97 97 22 26 27 84 88 88 76 80 80 90 94 94 75 79 79
22 26 27 22 26 27 22 26 27 22 26 27 22 26 27 22 26 27 22 26 27 22 26 27 22 26 27 22 26 27 22 26 27 22 26 27 22 26 27 22 26 27 22 26 27 22 26 27
22 26 27 22 26 27 22 26 27 22 26 27 22 26 27 22 26 27 22 26 27 22 26 27 22 26 27 22 26 27 22 26 27 22 26 27 22 26 27 22 26 27 22 26 27 22 26 27
22 26 27 22 26 27 22 26 27 22 26 27 22 26 27 22 26 27 22 26 27 22 26 27 22 26 27 22 26 27 22 26 27 22 26 27 22 26 27 22 26 27 22 26 27 22 26 27
22 26 27 22 26 27 22 26 27 22 26 27 22 26 27 22 26 27 22 26 27 22 26 27 22 26 27 22 26 27 22 26 27 22 26 27 22 26 27 22 26 27 22 26 27 22 26 27
22 26 27 22 26 27 22 26 27 22 26 27 22 26 27 22 26 27 22 26 27 22 26 27 22 26 27 22 26 27 22 26 27 22 26 27 22 26 27 22 26 27 22 26 27 22 26 27
22 26 27 22 26 27 22 26 27 22 26 27 22 26 27 22 26 27 22 26 27 22 26 27 22 26 27 22 26 27 22 26 27 22 26 27 22 26 27 22 26 27 22 26 27 22 26 27
22 26 27 22 26 27 22 26 27 22 26 27 22 26 27 22 26 27 22 26 27 22 26 27 22 26 27 22 26 27 22 26 27 22 26 27 22 26 27 22 26 27 22 26 27 22 26 27
22 26 27 22 26 27 22 26 27 22 26 27 22 26 27 22 26 27 104 105 97 90 92 86 95 97 90 110 111 102 86 89 83 97 99 92 92 95 88 95 97 90 100 101 94 101 102 94
88 90 84 99 100 93 99 101 93 104 105 97 22 26 27 22 26 27 22 26 27 22 26 27 22 26 27 22 26 27 22 26 27 22 26 27 22 26 27 22 26 27 22 26 27 22 26 27
22 26 27 22 26 27 22 26 27 22 26 27 22 26 27 22 26 27 22 26 27 22 26 27 22 26 27 22 26 27 22 26 27 22 26 27 22 26 27 22 26 27 22 26 27 22 26 27
22 26 27 22 26 27 22 26 27 22 26 27 22 26 27 22 26 27 22 26 27 22 26 27 22 26 27 22 26 27 22 26 27 22 26 27 22 26 27 22 26 27 22 26 27 22 26 27
22 26 27 22 26 27 22 26 27 22 26 27 22 26 27 22 26 27 22 26 27 22 26 27 22 26 27 22 26 27 22 26 27 22 26 27 22 26 27 22 26 27 22 26 27 22 26 27
22 26 27 22 26 27 22 26 27 22 26 27 22 26 27 22 26 27 22 26 27 22 26 27 22 26 27 22 26 27 22 26 27 22 26 27 22 26 27 22 26 27 22 26 27 22 26 27
22 26 27 22 26 27 22 26 27 22 26 27 22 26 27 22 26 27 22 26 27 22 26 27 22 26 27 22 26 27 22 26 27 22 26 27 22 26 27 22 26 27 22 26 27 22 26 27
22 26 27 22 26 27 22 26 27 22 26 27 22 26 27 22 26 27 22 26 27 22 26 27 22 26 27 22 26 27 22 26 27 22 26 27 22 26 27 22 26 27 22 26 27 22 26 27
22 26 27 22 26 27 22 26 27 74 78 78 82 86 86 84 88 88 22 26 27 90 94 94 93 97 97 71 75 75 74 78 78 22 26 27 74 78 78 86 90 90 87 91 91 76 80 80
22 26 27 22 26 27 22 26 27 22 26 27 22 26 27 22 26 27 22 26 27 22 26 27 22 26 27 22 26 27 22 26 27 22 26 27 22 26 27 22 26 27 22 26 27 22 26 27
22 26 27 22 26 27 22 26 27 22 26 27 22 26 27 22 26 27 22 26 27 22 26 27 22 26 27 22 26 27 22 26 27 22 26 27 22 26 27 22 26 27 22 26 27 22 26 27
22 26 27 22 26 27 22 26 27 22 26 27 22 26 27 22 26 27 22 26 27 22 26 27 22 26 27 22 26 27 22 26 27 22 26 27 22 26 27 22 26 27 22 26 27 22 26 27
22 26 27 22 26 27 22 26 27 22 26 27 22 26 27 22 26 27 22 26 27 22 26 27 22 26 27 22 26 27 22 26 27 22 26 27 22 26 27 22 26 27 22 26 27 22 26 27
22 26 27 22 26 27 22 26 27 22 26 27 22 26 27 22 26 27 22 26 27 22 26 27 22 26 27 22 26 27 22 26 27 22 26 27 22 26 27 22 26 27 22 26 27 22 26 27
22 26 27 22 26 27 22 26 27 22 26 27 22 26 27 22 26 27 22 26 27 22 26 27 22 26 27 22 26 27 22 26 27 22 26 27 22 26 27 22 26 27 22 26 27 22 26 27
22 26 27 22 26 27 22 26 27 22 26 27 22 26 27 22 26 27 22 26 27 22 26 27 22 26 27 22 26 27 22 26 27 22 26 27 22 26 27 22 26 27 22 26 27 22 26 27
22 26 27 22 26 27 22 26 27 22 26 27 22 26 27 22 26 27 83 86 80 99 101 93 85 88 82 102 103 95 82 85 79 87 90 84 96 97 90 83 86 81 85 87 82 89 92 86
107 108 100 102 104 96 91 93 86 88 90 84 22 26 27 22 26 27 22 26 27 22 26 27 22 26 27 22 26 27 22 26 27 22 26 27 22 26 27 22 26 27 22 26 27 22 26 27
22 26 27 22 26 27 22 26 27 22 26 27 22 26 27 22 26 27 22 26 27 22 26 27 22 26 27 22 26 27 22 26 27 22 26 27 22 26 27 22 26 27 22 26 27 22 26 27
22 26 27 22 26 27 22 26 27 22 26 27 22 26 27 22 26 27 22 26 27 22 26 27 22 26 27 22 26 27 22 26 27 22 26 27 22 26 27 22 26 27 22 26 27 22 26 27
22 26 27 22 26 27 22 26 27 22 26 27 22 26 27 22 26 27 22 26 27 22 26 27 22 26 27 22 26 27 22 26 27 22 26 27 22 26 27 22 26 27 22 26 27 22 26 27
22 26 27 22 26 27 22 26 27 22 26 27 22 26 27 22 26 27 22 26 27 22 26 27 22 26 27 22 26 27 22 26 27 22 26 27 22 26 27 22 26 27 22 26 27 22 26 27
22 26 27 22 26 27 22 26 27 22 26 27 22 26 27 22 26 27 22 26 27 22 26 27 22 26 27 22 26 27 22 26 27 22 26 27 22 26 27 22 26 27 22 26 27 22 26 27
22 26 27 22 26 27 22 26 27 22 26 27 22 26 27 22 26 27 22 26 27 22 26 27 22 26 27 22 26 27 22 26 27 22 26 27 22 26 27 22 26 27 22 26 27 22 26 27
22 26 27 22 26 27 22 26 27 86 90 90 79 83 83 85 89 89 22 26 27 78 82 82 73 77 77 82 86 86 87 91 91 22 26 27 71 75 75 71 75 75 71 75 75 70 74 74
22 26 27 22 26 27 22 26 27 22 26 27 22 26 27 22 26 27 22 26 27 22 26 27 22 26 27 22 26 27 22 26 27 22 26 27 22 26 27 22 26 27 22 26 27 22 26 27
22 26 27 22 26 27 22 26 27 22 26 27 22 26 27 22 26 27 22 26 27 22 26 27 22 26 27 22 26 27 22 26 27 22 26 27 22 26 27 22 26 27 22 26 27 22 26 27
22 26 27 22 26 27 22 26 27 22 26 27 22 26 27 22 26 27 22 26 27 22 26 27 22 26 27 22 26 27 22 26 27 22 26 27 22 26 27 22 26 27 22 26 27 22 26 27
22 26 27 22 26 27 22 26 27 22 26 27 22 26 27 22 26 27 22 26 27 22 26 27 22 26 27 22 26 27 22 26 27 22 26 27 22 26 27 22 26 27 22 26 27 22 26 27
22 26 27 22 26 27 22 26 27 22 26 27 22 26 27 22 26 27 22 26 27 22 26 27 22 26 27 22 26 27 22 26 27 22 26 27 22 26 27 22 26 27 22 26 27 22 26 27
22 26 27 22 26 27 22 26 27 22 26 27 22 26 27 22 26 27 22 26 27 22 26 27 22 26 27 22 26 27 22 26 27 22 26 27 22 26 27 22 26 27 22 26 27 22 26 27
22 26 27 22 26 27 22 26 27 22 26 27 22 26 27 22 26 27 22 26 27 22 26 27 22 26 27 22 26 27 22 26 27 22 26 27 22 26 27 22 26 27 22 26 27 22 26 27
22 26 27 22 26 27 22 26 27 22 26 27 22 26 27 22 26 27 86 89 83 82 85 80 88 90 84 85 88 82 108 109 100 91 93 87 93 95 88 101 102 95 99 101 93 89 91 85
107 109 100 104 105 97 96 98 91 109 110 101 22 26 27 22 26 27 22 26 27 22 26 27 22 26 27 22 26 27 22 26 27 22 26 27 22 26 27 22 26 27 22 26 27 22 26 27
22 26 27 22 26 27 22 26 27 22 26 27 22 26 27 22 26 27 22 26 27 22 26 27 22 26 27 22 26 27 22 26 27 22 26 27 22 26 27 22 26 27 22 26 27 22 26 27
22 26 27 22 26 27 22 26 27 22 26 27 22 26 27 22 26 27 22 26 27 22 26 27 22 26 27 22 26 27 22 26 27 22 26 27 22 26 27 22 26 27 22 26 27 22 26 27
22 26 27 22 26 27 22 26 27 22 26 27 22 26 27 22 26 27 22 26 27 22 26 27 22 26 27 22 26 27 22 26 27 22 26 27 22 26 27 22 26 27 22 26 27 22 26 27
22 26 27 22 26 27 22 26 27 22 26 27 22 26 27 22 26 27 22 26 27 22 26 27 22 26 27 22 26 27 22 26 27 22 26 27 22 26 27 22 26 27 22 26 27 22 26 27
22 26 27 22 26 27 22 26 27 22 26 27 22 26 27 22 26 27 22 26 27 22 26 27 22 26 27 22 26 27 22 26 27 22 26 27 22 26 27 22 26 27 22 26 27 22 26 27
22 26 27 22 26 27 22 26 27 22 26 27 22 26 27 22 26 27 22 26 27 22 26 27 22 26 27 22 26 27 22 26 27 22 26 27 22 26 27 22 26 27 22 26 27 22 26 27
22 26 27 22 26 27 22 26 27 75 79 79 74 78 78 92 96 96 22 26 27 74 78 78 71 75 75 92 96 96 87 91 91 22 26 27 83 87 87 88 92 92 72 76 76 88 92 92
22 26 27 22 26 27 22 26 27 22 26 27 22 26 27 22 26 27 22 26 27 22 26 27 22 26 27 22 26 27 22 26 27 22 26 27 22 26 27 22 26 27 22 26 27 22 26 27
22 26 27 22 26 27 22 26 27 22 26 27 22 26 27 22 26 27 22 26 27 22 26 27 22 26 27 22 26 27 22 26 27 22 26 27 22 26 27 22 26 27 22 26 27 22 26 27
22 26 27 22 26 27 22 26 27 22 26 27 22 26 27 22 26 27 22 26 27 22 26 27 22 26 27 22 26 27 22 26 27 22 26 27 22 26 27 22 26 27 22 26 27 22 26 27
22 26 27 22 26 27 22 26 27 22 26 27 22 26 27 22 26 27 22 26 27 22 26 27 22 26 27 22 26 27 22 26 27 22 26 27 22 26 27 22 26 27 22 26 27 22 26 27
22 26 27 22 26 27 22 26 27 22 26 27 22 26 27 22 26 27 22 26 27 22 26 27 22 26 27 22 26 27 22 26 27 22 26 27 22 26 27 22 26 27 22 26 27 22 26 27
22 26 27 22 26 27 22 26 27 22 26 27 22 26 27 22 26 27 22 26 27 22 26 27 22 26 27 22 26 27 22 26 27 22 26 27 22 26 27 22 26 27 22 26 27 22 26 27
22 26 27 22 26 27 22 26 27 22 26 27 22 26 27 22 26 27 22 26 27 22 26 27 22 26 27 22 26 27 22 26 27 22 26 27 22 26 27 22 26 27 22 26 27 22 26 27
22 26 27 22 26 27 22 26 27 22 26 27 22 26 27 22 26 27 81 84 79 84 87 81 89 91 85 84 86 81 87 90 84 81 84 79 94 96 89 90 92 86 84 86 81 87 90 84
107 108 100 91 93 87 102 103 95 95 97 90 22 26 27 22 26 27 22 26 27 22 26 27 22 26 27 22 26 27 22 26 27 22 26 27 22 26 27 22 26 27 22 26 27 22 26 27
22 26 27 22 26 27 22 26 27 22 26 27 22 26 27 22 26 27 22 26 27 22 26 27 22 26 27 22 26 27 22 26 27 22 26 27 22 26 27 22 26 27 22 26 27 22 26 27
22 26 27 22 26 27 22 26 27 22 26 27 22 26 27 22 26 27 22 26 27 22 26 27 22 26 27 22 26 27 22 26 27 22 26 27 22 26 27 22 26 27 22 26 27 22 26 27
22 26 27 22 26 27 22 26 27 22 26 27 22 26 27 22 26 27 22 26 27 22 26 27 22 26 27 22 26 27 22 26 27 22 26 27 22 26 27 22 26 27 22 26 27 22 26 27
22 26 27 22 26 27 22 26 27 22 26 27 22 26 27 22 26 27 22 26 27 22 26 27 22 26 27 22 26 27 22 26 27 22 26 27 22 26 27 22 26 27 22 26 27 22 26 27
22 26 27 22 26 27 22 26 27 22 26 27 22 26 27 22 26 27 22 26 27 22 26 27 22 26 27 22 26 27 22 26 27 22 26 27 22 26 27 22 26 27 22 26 27 22 26 27
22 26 27 22 26 27 22 26 27 22 26 27 22 26 27 22 26 27 22 26 27 22 26 27 22 26 27 22 26 27 22 26 27 22 26 27 22 26 27 22 26 27 22 26 27 22 26 27
22 26 27 22 26 27 22 26 27 76 80 80 83 87 87 70 74 74 22 26 27 92 96 96 91 95 95 82 86 86 84 88 88 22 26 27 71 75 75 92 96 96 84 88 88 86 90 90
22 26 27 22 26 27 22 26 27 22 26 27 22 26 27 22 26 27 22 26 27 22 26 27 22 26 27 22 26 27 22 26 27 22 26 27 22 26 27 22 26 27 22 26 27 22 26 27
22 26 27 22 26 27 22 26 27 22 26 27 22 26 27 22 26 27 22 26 27 22 26 27 22 26 27 22 26 27 22 26 27 22 26 27 22 26 27 22 26 27 22 26 27 22 26 27
22 26 27 22 26 27 22 26 27 22 26 27 22 26 27 22 26 27 22 26 27 22 26 27 22 26 27 22 26 27 22 26 27 22 26 27 22 26 27 22 26 27 22 26 27 22 26 27
22 26 27 22 26 27 22 26 27 22 26 27 22 26 27 22 26 27 22 26 27 22 26 27 22 26 27 22 26 27 22 26 27 22 26 27 22 26 27 22 26 27 22 26 27 22 26 27
22 26 27 22 26 27 22 26 27 22 26 27 22 26 27 22 26 27 22 26 27 22 26 27 22 26 27 22 26 27 22 26 27 22 26 27 22 26 27 22 26 27 22 26 27 22 26 27
22 26 27 22 26 27 22 26 27 22 26 27 22 26 27 22 26 27 22 26 27 22 26 27 22 26 27 22 26 27 22 26 27 22 26 27 22 26 27 22 26 27 22 26 27 22 26 27
22 26 27 22 26 27 22 26 27 22 26 27 22 26 27 22 26 27 22 26 27 22 26 27 22 26 27 22 26 27 22 26 27 22 26 27 22 26 27 22 26 27 22 26 27 22 26 27
22 26 27 22 26 27 22 26 27 22 26 27 22 26 27 22 26 27 85 88 82 92 94 88 108 109 100 103 104 96 100 102 94 102 104 96 82 85 79 104 105 97 88 91 85 93 95 88
80 83 78 90 92 86 85 88 82 106 108 99 22 26 27 22 26 27 22 26 27 22 26 27 22 26 27 22 26 27 22 26 27 22 26 27 22 26 27 22 26 27 22 26 27 22 26 27
22 26 27 22 26 27 22 26 27 22 26 27 22 26 27 22 26 27 22 26 27 22 26 27 22 26 27 22 26 27 22 26 27 22 26 27 22 26 27 22 26 27 22 26 27 22 26 27
22 26 27 22 26 27 22 26 27 22 26 27 22 26 27 22 26 27 22 26 27 22 26 27 22 26 27 22 26 27 22 26 27 22 26 27 22 26 27 22 26 27 22 26 27 22 26 27
22 26 27 22 26 27 22 26 27 22 26 27 22 26 27 22 26 27 22 26 27 22 26 27 22 26 27 22 26 27 22 26 27 22 26 27 22 26 27 22 26 27 22 26 27 22 26 27
22 26 27 22 26 27 22 26 27 22 26 27 22 26 27 22 26 27 22 26 27 22 26 27 22 26 27 22 26 27 22 26 27 22 26 27 22 26 27 22 26 27 22 26 27 22 26 27
22 26 27 22 26 27 22 26 27 22 26 27 22 26 27 22 26 27 22 26 27 22 26 27 22 26 27 22 26 27 22 26 27 22 26 27 22 26 27 22 26 27 22 26 27 22 26 27
22 26 27 22 26 27 22 26 27 22 26 27 22 26 27 22 26 27 22 26 27 22 26 27 22 26 27 22 26 27 22 26 27 22 26 27 22 26 27 22 26 27 22 26 27 22 26 27
22 26 27 22 26 27 22 26 27 77 81 81 74 78 78 73 77 77 22 26 27 86 90 90 84 88 88 88 92 92 80 84 84 22 26 27 85 89 89 91 95 95 72 76 76 79 83 83
22 26 27 22 26 27 22 26 27 22 26 27 22 26 27 22 26 27 22 26 27 22 26 27 22 26 27 22 26 27 22 26 27 22 26 27 22 26 27 22 26 27 22 26 27 22 26 27
22 26 27 22 26 27 22 26 27 22 26 27 22 26 27 22 26 27 22 26 27 22 26 27 22 26 27 22 26 27 22 26 27 22 26 27 22 26 27 22 26 27 22 26 27 22 26 27
22 26 27 22 26 27 22 26 27 22 26 27 22 26 27 22 26 27 22 26 27 22 26 27 22 26 27 22 26 27 22 26 27 22 26 27 22 26 27 22 26 27 22 26 27 22 26 27
22 26 27 22 26 27 22 26 27 22 26 27 22 26 27 22 26 27 22 26 27 22 26 27 22 26 27 22 26 27 22 26 27 22 26 27 22 26 27 22 26 27 22 26 27 22 26 27
22 26 27 22 26 27 22 26 27 22 26 27 22 26 27 22 26 27 22 26 27 22 26 27 22 26 27 22 26 27 22 26 27 22 26 27 22 26 27 22 26 27 22 26 27 22 26 27
22 26 27 22 26 27 22 26 27 22 26 27 22 26 27 22 26 27 22 26 27 22 26 27 22 26 27 22 26 27 22 26 27 22 26 27 22 26 27 22 26 27 22 26 27 22 26 27
22 26 27 22 26 27 22 26 27 22 26 27 22 26 27 22 26 27 22 26 27 22 26 27 22 26 27 22 26 27 22 26 27 22 26 27 22 26 27 22 26 27 22 26 27 22 26 27
22 26 27 22 26 27 22 26 27 22 26 27 22 26 27 22 26 27 103 105 97 86 88 82 103 104 96 99 101 93 102 103 95 81 84 79 94 96 89 110 111 102 91 93 87 80 83 78
89 91 85 106 107 99 85 88 82 89 91 85 22 26 27 22 26 27 22 26 27 22 26 27 22 26 27 22 26 27 22 26 27 22 26 27 22 26 27 22 26 27 22 26 27 22 26 27
22 26 27 22 26 27 22 26 27 22 26 27 22 26 27 22 26 27 22 26 27 22 26 27 22 26 27 22 26 27 22 26 27 22 26 27 22 26 27 22 26 27 22 26 27 22 26 27
22 26 27 22 26 27 22 26 27 22 26 27 22 26 27 22 26 27 22 26 27 22 26 27 22 26 27 22 26 27 22 26 27 22 26 27 22 26 27 22 26 27 22 26 27 22 26 27
22 26 27 22 26 27 22 26 27 22 26 27 22 26 27 22 26 27 22 26 27 22 26 27 22 26 27 22 26 27 22 26 27 22 26 27 22 26 27 22 26 27 22 26 27 22 26 27
22 26 27 22 26 27 22 26 27 22 26 27 22 26 27 22 26 27 22 26 27 22 26 27 22 26 27 22 26 27 22 26 27 22 26 27 22 26 27 22 26 27 22 26 27 22 26 27
22 26 27 22 26 27 22 26 27 22 26 27 22 26 27 22 26 27 22 26 27 22 26 27 22 26 27 22 26 27 22 26 27 22 26 27 22 26 27 22 26 27 22 26 27 22 26 27
22 26 27 22 26 27 22 26 27 22 26 27 22 26 27 22 26 27 22 26 27 22 26 27 22 26 27 22 26 27 22 26 27 22 26 27 22 26 27 22 26 27 22 26 27 22 26 27
22 26 27 22 26 27 22 26 27 73 77 77 75 79 79 77 81 81 22 26 27 90 94 94 73 77 77 74 78 78 86 90 90 22 26 27 86 90 90 75 79 79 91 95 95 79 83 83
22 26 27 22 26 27 22 26 27 22 26 27 22 26 27 22 26 27 22 26 27 22 26 27 22 26 27 22 26 27 22 26 27 22 26 27 22 26 27 22 26 27 22 26 27 22 26 27
22 26 27 22 26 27 22 26 27 22 26 27 22 26 27 22 26 27 22 26 27 22 26 27 22 26 27 22 26 27 22 26 27 22 26 27 22 26 27 22 26 27 22 26 27 22 26 27
22 26 27 22 26 27 22 26 27 22 26 27 22 26 27 22 26 27 22 26 27 22 26 27 22 26 27 22 26 27 22 26 27 22 26 27 22 26 27 22 26 27 22 26 27 22 26 27
22 26 27 22 26 27 22 26 27 22 26 27 22 26 27 22 26 27 22 26 27 22 26 27 22 26 27 22 26 27 22 26 27 22 26 27 22 26 27 22 26 27 22 26 27 22 26 27
22 26 27 22 26 27 22 26 27 22 26 27 22 26 27 22 26 27 22 26 27 22 26 27 22 26 27 22 26 27 22 26 27 22 26 27 22 26 27 22 26 27 22 26 27 22 26 27
22 26 27 22 26 27 22 26 27 22 26 27 22 26 27 22 26 27 22 26 27 22 26 27 22 26 27 22 26 27 22 26 27 22 26 27 22 26 27 22 26 27 22 26 27 22 26 27
22 26 27 22 26 27 22 26 27 22 26 27 22 26 27 22 26 27 22 26 27 22 26 27 22 26 27 22 26 27 22 26 27 22 26 27 22 26 27 22 26 27 22 26 27 22 26 27
22 26 27 22 26 27 22 26 27 22 26 27 22 26 27 22 26 27 97 99 92 96 98 90 83 85 80 88 90 84 90 93 86 109 110 101 105 107 98 95 97 90 90 92 86 100 101 94
89 91 85 106 107 98 110 111 102 107 109 100 22 26 27 22 26 27 22 26 27 22 26 27 22 26 27 22 26 27 22 26 27 22 26 27 22 26 27 22 26 27 22 26 27 22 26 27
22 26 27 22 26 27 22 26 27 22 26 27 22 26 27 22 26 27 22 26 27 22 26 27 22 26 27 22 26 27 22 26 27 22 26 27 22 26 27 22 26 27 22 26 27 22 26 27
22 26 27 22 26 27 22 26 27 22 26 27 22 26 27 22 26 27 22 26 27 22 26 27 22 26 27 22 26 27 22 26 27 22 26 27 22 26 27 22 26 27 22 26 27 22 26 27
22 26 27 22 26 27 22 26 27 22 26 27 22 26 27 22 26 27 22 26 27 22 26 27 22 26 27 22 26 27 22 26 27 22 26 27 22 26 27 22 26 27 22 26 27 22 26 27
22 26 27 22 26 27 22 26 27 22 26 27 22 26 27 22 26 27 22 26 27 22 26 27 22 26 27 22 26 27 22 26 27 22 26 27 22 26 27 22 26 27 22 26 27 22 26 27
22 26 27 22 26 27 22 26 27 22 26 27 22 26 27 22 26 27 22 26 27 22 26 27 22 26 27 22 26 27 22 26 27 22 26 27 22 26 27 22 26 27 22 26 27 22 26 27
22 26 27 22 26 27 22 26 27 22 26 27 22 26 27 22 26 27 22 26 27 22 26 27 22 26 27 22 26 27 22 26 27 22 26 27 22 26 27 22 26 27 22 26 27 22 26 27
22 26 27 22 26 27 22 26 27 84 88 88 83 87 87 90 94 94 22 26 27 70 74 74 87 91 91 72 76 76 88 92 92 22 26 27 73 77 77 80 84 84 79 83 83 76 80 80
22 26 27 22 26 27 22 26 27 22 26 27 22 26 27 22 26 27 22 26 27 22 26 27 22 26 27 22 26 27 22 26 27 22 26 27 22 26 27 22 26 27 22 26 27 22 26 27
22 26 27 22 26 27 22 26 27 22 26 27 22 26 27 22 26 27 22 26 27 22 26 27 22 26 27 22 26 27 22 26 27 22 26 27 22 26 27 22 26 27 22 26 27 22 26 27
22 26 27 22 26 27 22 26 27 22 26 27 22 26 27 22 26 27 22 26 27 22 26 27 22 26 27 22 26 27 22 26 27 22 26 27 22 26 27 22 26 27 22 26 27 22 26 27
22 26 27 22 26 27 22 26 27 22 26 27 22 26 27 22 26 27 22 26 27 22 26 27 22 26 27 22 26 27 22 26 27 22 26 27 22 26 27 22 26 27 22 26 27 22 26 27
22 26 27 22 26 27 22 26 27 22 26 27 22 26 27 22 26 27 22 26 27 22 26 27 22 26 27 22 26 27 22 26 27 22 26 27 22 26 27 22 26 27 22 26 27 22 26 27
22 26 27 22 26 27 22 26 27 22 26 27 22 26 27 22 26 27 22 26 27 22 26 27 22 26 27 22 26 27 22 26 27 22 26 27 22 26 27 22 26 27 22 26 27 22 26 27
22 26 27 22 26 27 22 26 27 22 26 27 22 26 27 22 26 27 22 26 27 22 26 27 22 26 27 22 26 27 22 26 27 22 26 27 22 26 27 22 26 27 22 26 27 22 26 27
22 26 27 22 26 27 22 26 27 22 26 27 22 26 27 22 26 27 93 95 88 109 110 101 101 102 95 98 100 93 82 85 80 109 110 101 85 87 82 97 99 92 97 99 92 102 103 95
99 101 93 103 104 96 82 85 80 90 92 86 22 26 27 22 26 27 22 26 27 22 26 27 22 26 27 22 26 27 22 26 27 22 26 27 22 26 27 22 26 27 22 26 27 22 26 27
22 26 27 22 26 27 22 26 27 22 26 27 22 26 27 22 26 27 22 26 27 22 26 27 22 26 27 22 26 27 22 26 27 22 26 27 22 26 27 22 26 27 22 26 27 22 26 27
22 26 27 22 26 27 22 26 27 22 26 27 22 26 27 22 26 27 22 26 27 22 26 27 22 26 27 22 26 27 22 26 27 22 26 27 22 26 27 22 26 27 22 26 27 22 26 27
22 26 27 22 26 27 22 26 27 22 26 27 22 26 27 22 26 27 22 26 27 22 26 27 22 26 27 22 26 27 22 26 27 22 26 27 22 26 27 22 26 27 22 26 27 22 26 27
22 26 27 22 26 27 22 26 27 22 26 27 22 26 27 22 26 27 22 26 27 22 26 27 22 26 27 22 26 27 22 26 27 22 26 27 22 26 27 22 26 27 22 26 27 22 26 27
22 26 27 22 26 27 22 26 27 22 26 27 22 26 27 22 26 27 22 26 27 22 26 27 22 26 27 22 26 27 22 26 27 22 26 27 22 26 27 22 26 27 22 26 27 22 26 27
22 26 27 22 26 27 22 26 27 22 26 27 22 26 27 22 26 27 22 26 27 22 26 27 22 26 27 22 26 27 22 26 27 22 26 27 22 26 27 22 26 27 22 26 27 22 26 27
22 26 27 22 26 27 22 26 27 75 79 79 86 90 90 72 76 76 22 26 27 82 86 86 76 80 80 79 83 83 93 97 97 22 26 27 79 83 83 71 75 75 90 94 94 91 95 95
63 109 158 54 96 140 69 117 168 56 99 145 80 116 166 83 116 165 66 113 162 54 96 140 58 102 148 54 97 142 59 104 150 61 106 154 106 113 158 57 100 145 61 106 153 69 117 168
66 114 163 54 97 142 68 116 167 61 106 153 67 114 164 130 110 152 127 110 152 63 109 157 63 109 157 53 95 139 55 98 143 137 109 150 54 97 142 60 105 151 64 111 160 60 104 151
65 112 161 61 106 153 58 102 148 66 113 162 63 109 157 58 101 147 55 98 143 57 101 147 56 99 144 63 109 157 58 101 147 102 114 160 53 96 140 63 110 158 57 101 147 68 116 166
72 117 167 139 109 149 69 117 168 56 100 145 66 113 163 55 98 143 56 100 145 54 97 142 62 107 155 54 97 141 55 99 144 66 114 163 98 114 161 61 106 154 59 104 151 67 115 164
69 117 168 67 115 165 66 114 163 83 116 164 54 97 142 137 109 150 61 106 153 65 112 161 62 108 156 59 103 149 118 112 155 59 103 149 57 100 146 92 115 162 61 106 154 57 101 147
61 106 154 69 118 168 68 116 166 57 101 147 66 113 162 108 113 158 66 113 162 66 113 162 67 115 164 66 114 163 83 116 164 58 102 148 61 106 153 68 116 166 140 109 149 60 104 151
68 117 167 60 105 152 64 111 160 64 110 158 62 108 155 62 108 156 60 105 152 60 104 151 63 109 157 54 96 140 131 110 151 57 101 147 59 103 149 22 26 27 22 26 27 22 26 27
22 26 27 22 26 27 22 26 27 22 26 27 22 26 27 22 26 27 90 92 86 101 102 94 102 104 96 110 111 102 84 87 81 103 105 96 108 109 100 87 89 83 96 98 90 100 102 94
83 86 80 86 88 82 83 86 80 101 103 95 22 26 27 22 26 27 22 26 27 22 26 27 22 26 27 22 26 27 22 26 27 22 26 27 22 26 27 22 26 27 22 26 27 22 26 27
22 26 27 22 26 27 22 26 27 22 26 27 22 26 27 22 26 27 22 26 27 22 26 27 22 26 27 22 26 27 22 26 27 22 26 27 22 26 27 22 26 27 22 26 27 22 26 27
22 26 27 22 26 27 22 26 27 22 26 27 22 26 27 22 26 27 22 26 27 22 26 27 22 26 27 22 26 27 22 26 27 22 26 27 22 26 27 22 26 27 22 26 27 22 26 27
22 26 27 22 26 27 22 26 27 22 26 27 22 26 27 22 26 27 22 26 27 22 26 27 22 26 27 22 26 27 22 26 27 22 26 27 22 26 27 22 26 27 22 26 27 22 26 27
22 26 27 22 26 27 22 26 27 22 26 27 22 26 27 22 26 27 22 26 27 22 26 27 22 26 27 22 26 27 22 26 27 22 26 27 22 26 27 22 26 27 22 26 27 22 26 27
22 26 27 22 26 27 22 26 27 22 26 27 22 26 27 22 26 27 22 26 27 22 26 27 22 26 27 22 26 27 22 26 27 22 26 27 22 26 27 22 26 27 22 26 27 22 26 27
22 26 27 22 26 27 22 26 27 22 26 27 22 26 27 22 26 27 22 26 27 22 26 27 22 26 27 22 26 27 22 26 27 22 26 27 22 26 27 22 26 27 22 26 27 22 26 27
22 26 27 22 26 27 22 26 27 81 85 85 76 80 80 78 82 82 22 26 27 93 97 97 80 84 84 84 88 88 83 87 87 22 26 27 77 81 81 74 78 78 70 74 74 79 83 83
66 113 162 61 107 155 65 112 161 114 111 155 65 113 162 53 95 139 57 101 147 66 113 162 61 106 153 62 107 155 58 103 149 56 100 145 115 111 155 87 115 162 54 96 140 57 101 147
67 115 164 57 101 147 147 107 146 53 95 139 52 94 138 64 110 159 68 117 167 61 107 154 56 100 145 64 110 159 64 110 159 54 97 141 141 108 148 59 104 150 64 111 160 62 108 156
53 95 140 61 107 154 83 115 164 53 95 139 62 107 155 63 109 158 63 110 158 62 108 155 69 117 167 145 107 147 62 108 155 52 94 138 55 98 142 119 111 154 135 109 149 54 96 141
96 114 160 62 108 156 55 98 143 74 116 166 133 109 150 59 104 151 53 95 139 56 100 145 89 114 162 140 108 148 66 113 163 64 111 159 66 113 162 76 116 165 60 105 152 115 111 155
72 117 167 59 103 150 67 114 164 56 100 145 60 105 152 64 111 159 57 102 148 56 99 145 52 94 138 79 116 165 60 105 151 56 100 146 63 110 158 69 117 167 55 98 143 67 114 164
64 111 160 59 104 151 67 115 165 60 105 153 58 103 149 53 95 139 64 111 159 61 106 154 78 116 165 59 103 149 66 114 163 84 115 163 66 113 163 53 95 140 59 103 150 68 116 166
69 117 167 56 100 145 60 105 152 58 102 148 64 111 159 68 116 166 65 112 160 55 98 143 66 113 162 54 96 141 57 100 146 65 111 160 106 112 157 22 26 27 22 26 27 22 26 27
22 26 27 22 26 27 22 26 27 22 26 27 22 26 27 22 26 27 95 97 90 110 111 102 88 91 85 109 110 102 84 87 81 106 107 99 88 91 85 88 90 84 85 87 82 100 102 94
91 94 87 89 91 85 81 84 79 105 106 98 22 26 27 22 26 27 22 26 27 22 26 27 22 26 27 22 26 27 22 26 27 22 26 27 22 26 27 22 26 27 22 26 27 22 26 27
22 26 27 22 26 27 22 26 27 22 26 27 22 26 27 22 26 27 22 26 27 22 26 27 22 26 27 22 26 27 22 26 27 22 26 27 22 26 27 22 26 27 22 26 27 22 26 27
22 26 27 22 26 27 22 26 27 22 26 27 22 26 27 22 26 27 22 26 27 22 26 27 22 26 27 22 26 27 22 26 27 22 26 27 22 26 27 22 26 27 22 26 27 22 26 27
22 26 27 22 26 27 22 26 27 22 26 27 22 26 27 22 26 27 22 26 27 22 26 27 22 26 27 22 26 27 22 26 27 22 26 27 22 26 27 22 26 27 22 26 27 22 26 27
22 26 27 22 26 27 22 26 27 22 26 27 22 26 27 22 26 27 22 26 27 22 26 27 22 26 27 22 26 27 22 26 27 22 26 27 22 26 27 22 26 27 22 26 27 22 26 27
22 26 27 22 26 27 22 26 27 22 26 27 22 26 27 22 26 27 22 26 27 22 26 27 22 26 27 22 26 27 22 26 27 22 26 27 22 26 27 22 26 27 22 26 27 22 26 27
22 26 27 22 26 27 22 26 27 22 26 27 22 26 27 22 26 27 22 26 27 22 26 27 22 26 27 22 26 27 22 26 27 22 26 27 22 26 27 22 26 27 22 26 27 22 26 27
22 26 27 22 26 27 22 26 27 70 74 74 74 78 78 76 80 80 22 26 27 82 86 86 71 75 75 80 84 84 71 75 75 22 26 27 80 84 84 81 85 85 72 76 76 92 96 96
51 93 137 57 103 150 50 93 137 52 95 139 58 103 150 55 100 146 51 94 138 61 108 156 60 106 154 64 112 161 62 108 157 143 103 142 64 111 161 135 104 144 86 110 157 51 93 138
57 103 149 102 108 153 64 112 161 55 99 145 58 103 150 64 112 162 55 99 145 54 98 144 63 111 160 49 90 134 50 92 136 62 108 157 65 113 163 64 111 161 62 109 157 62 109 158
58 104 151 53 97 142 52 95 140 56 101 147 76 112 160 57 102 149 92 110 156 55 99 145 98 109 154 53 97 142 58 104 151 58 104 151 55 100 146 61 108 156 52 96 140 52 94 139
107 108 151 62 109 157 54 98 143 58 104 151 55 100 146 59 105 153 53 96 141 134 104 144 65 113 163 54 98 144 51 94 138 60 106 154 59 105 153 77 112 160 60 106 154 59 105 153
63 111 160 111 107 150 76 112 160 57 102 149 60 106 154 64 112 162 61 107 155 99 109 154 121 106 148 55 99 144 131 105 145 54 97 143 53 96 141 60 106 154 56 101 148 51 94 138
59 104 152 117 106 149 69 113 162 57 102 149 59 105 153 97 109 154 62 109 157 49 91 134 56 101 147 59 104 152 55 100 146 64 112 161 69 113 162 64 112 162 52 95 140 55 99 144
50 92 136 53 97 142 53 96 141 57 101 148 51 94 138 62 109 157 53 97 142 53 96 141 112 107 150 93 110 155 96 109 155 61 108 157 56 101 147 22 26 27 22 26 27 22 26 27
22 26 27 22 26 27 22 26 27 22 26 27 22 26 27 22 26 27 100 101 94 107 109 100 96 98 91 89 92 86 80 83 78 105 106 98 101 103 95 107 108 100 106 107 99 81 84 79
103 104 96 97 99 92 99 101 93 107 108 99 22 26 27 22 26 27 22 26 27 22 26 27 22 26 27 22 26 27 22 26 27 22 26 27 22 26 27 22 26 27 22 26 27 22 26 27
22 26 27 22 26 27 22 26 27 22 26 27 22 26 27 22 26 27 22 26 27 22 26 27 22 26 27 22 26 27 22 26 27 22 26 27 22 26 27 22 26 27 22 26 27 22 26 27
22 26 27 22 26 27 22 26 27 22 26 27 22 26 27 22 26 27 22 26 27 22 26 27 22 26 27 22 26 27 22 26 27 22 26 27 22 26 27 22 26 27 22 26 27 22 26 27
22 26 27 22 26 27 22 26 27 22 26 27 22 26 27 22 26 27 22 26 27 22 26 27 22 26 27 22 26 27 22 26 27 22 26 27 22 26 27 22 26 27 22 26 27 22 26 27
22 26 27 22 26 27 22 26 27 22 26 27 22 26 27 22 26 27 22 26 27 22 26 27 22 26 27 22 26 27 22 26 27 22 26 27 22 26 27 22 26 27 22 26 27 22 26 27
22 26 27 22 26 27 22 26 27 22 26 27 22 26 27 22 26 27 22 26 27 22 26 27 22 26 27 22 26 27 22 26 27 22 26 27 22 26 27 22 26 27 22 26 27 22 26 27
22 26 27 22 26 27 22 26 27 22 26 27 22 26 27 22 26 27 22 26 27 22 26 27 22 26 27 22 26 27 22 26 27 22 26 27 22 26 27 22 26 27 22 26 27 22 26 27
22 26 27 22 26 27 22 26 27 81 85 85 82 86 86 78 82 82 22 26 27 82 86 86 89 93 93 72 76 76 78 82 82 22 26 27 77 81 81 82 86 86 84 88 88 92 96 96
43 85 127 98 102 146 96 102 146 66 106 154 51 96 142 97 102 146 54 100 147 47 89 133 57 104 153 48 91 136 50 95 140 45 87 130 48 92 136 49 93 138 43 84 127 49 92 137
44 86 129 55 101 149 129 98 137 58 105 154 123 99 139 50 95 140 59 107 156 53 99 146 50 94 140 47 90 134 50 94 139 57 104 152 49 93 138 101 102 145 91 103 148 61 107 156
105 101 144 55 101 148 58 106 154 116 100 141 47 90 134 46 88 131 55 102 149 94 103 147 46 88 132 57 104 153 45 87 130 82 104 150 49 92 137 44 86 129 44 85 128 53 99 146
101 102 145 45 88 131 57 103 152 86 104 149 44 86 129 53 98 145 54 99 146 57 104 152 125 99 138 58 106 154 48 92 136 45 87 131 48 92 136 122 99 139 55 101 149 58 105 153
57 104 152 50 94 140 58 105 154 44 86 129 52 97 144 44 86 129 59 106 155 47 89 134 102 102 145 56 103 151 55 101 148 49 92 137 114 100 141 49 92 137 131 98 137 58 105 154
54 99 146 43 85 127 56 102 150 51 95 140 45 87 131 59 106 155 49 93 138 44 86 129 57 103 151 49 92 137 52 97 144 55 101 148 49 93 138 46 88 132 48 91 135 58 105 154
45 87 130 51 96 142 50 95 140 47 90 134 56 102 150 56 102 150 44 85 128 55 102 149 63 107 155 48 91 135 69 106 154 74 105 152 60 107 156 22 26 27 22 26 27 22 26 27
22 26 27 22 26 27 22 26 27 22 26 27 22 26 27 22 26 27 93 95 88 98 100 93 89 92 85 83 85 80 102 104 96 106 107 99 93 95 88 106 108 99 109 110 102 105 106 98
108 109 100 89 92 85 95 97 90 99 101 93 22 26 27 22 26 27 22 26 27 22 26 27 22 26 27 22 26 27 22 26 27 22 26 27 22 26 27 22 26 27 22 26 27 22 26 27
22 26 27 22 26 27 22 26 27 22 26 27 22 26 27 22 26 27 22 26 27 22 26 27 22 26 27 22 26 27 22 26 27 22 26 27 22 26 27 22 26 27 22 26 27 22 26 27
22 26 27 22 26 27 22 26 27 22 26 27 22 26 27 22 26 27 22 26 27 22 26 27 22 26 27 22 26 27 22 26 27 22 26 27 22 26 27 22 26 27 22 26 27 22 26 27
22 26 27 22 26 27 22 26 27 22 26 27 22 26 27 22 26 27 22 26 27 22 26 27 22 26 27 22 26 27 22 26 27 22 26 27 22 26 27 22 26 27 22 26 27 22 26 27
22 26 27 22 26 27 22 26 27 22 26 27 22 26 27 22 26 27 22 26 27 22 26 27 22 26 27 22 26 27 22 26 27 22 26 27 22 26 27 22 26 27 22 26 27 22 26 27
22 26 27 22 26 27 22 26 27 22 26 27 22 26 27 22 26 27 22 26 27 22 26 27 22 26 27 22 26 27 22 26 27 22 26 27 22 26 27 22 26 27 22 26 27 22 26 27
22 26 27 22 26 27 22 26 27 22 26 27 22 26 27 22 26 27 22 26 27 22 26 27 22 26 27 22 26 27 22 26 27 22 26 27 22 26 27 22 26 27 22 26 27 22 26 27
22 26 27 22 26 27 22 26 27 85 89 89 72 76 76 79 83 83 22 26 27 77 81 81 73 77 77 77 81 81 88 92 92 22 26 27 72 76 76 84 88 88 89 93 93 69 73 73
43 86 131 38 79 122 87 96 140 41 83 127 45 90 135 40 81 124 53 100 148 42 85 129 51 98 146 44 88 133 101 95 136 40 82 125 49 95 142 44 88 133 39 81 124 125 92 129
51 97 145 39 81 124 52 99 147 75 98 143 39 80 123 43 86 130 44 88 132 42 85 129 37 78 120 38 80 122 47 92 138 49 95 141 37 78 120 46 90 135 42 85 129 51 97 144
44 88 133 114 93 132 48 94 140 42 85 129 40 82 125 40 82 125 47 92 138 44 88 133 49 94 140 42 86 129 52 99 146 52 98 146 49 95 141 41 84 128 128 91 129 50 95 142
39 81 124 39 81 124 130 91 128 49 95 141 45 90 135 78 98 142 46 90 136 40 82 124 51 97 145 46 90 136 53 100 148 42 85 129 42 85 129 48 93 139 47 92 137 40 82 125
61 100 147 42 85 129 46 90 135 49 95 142 44 88 133 38 79 121 38 80 122 41 84 127 117 93 132 41 84 127 42 84 128 44 88 133 38 79 121 114 93 132 52 100 147 40 82 125
49 94 141 130 91 128 126 91 129 43 86 130 39 81 123 37 78 120 52 99 146 38 79 121 45 90 135 82 97 141 47 92 138 51 98 145 40 82 125 40 82 125 48 93 139 53 100 148
39 81 124 88 96 140 43 86 130 38 79 121 39 81 123 45 89 134 44 87 132 51 98 145 44 87 132 113 93 133 52 99 146 39 81 124 42 85 128 22 26 27 22 26 27 22 26 27
22 26 27 22 26 27 22 26 27 22 26 27 22 26 27 22 26 27 93 95 88 95 97 90 109 110 101 108 109 100 102 104 96 92 94 88 84 86 81 104 106 97 92 95 88 81 84 79
100 101 94 106 107 99 107 108 99 94 96 90 22 26 27 22 26 27 22 26 27 22 26 27 22 26 27 22 26 27 22 26 27 22 26 27 22 26 27 22 26 27 22 26 27 22 26 27
22 26 27 22 26 27 22 26 27 22 26 27 22 26 27 22 26 27 22 26 27 22 26 27 22 26 27 22 26 27 22 26 27 22 26 27 22 26 27 22 26 27 22 26 27 22 26 27
22 26 27 22 26 27 22 26 27 22 26 27 22 26 27 22 26 27 22 26 27 22 26 27 22 26 27 22 26 27 22 26 27 22 26 27 22 26 27 22 26 27 22 26 27 22 26 27
22 26 27 22 26 27 22 26 27 22 26 27 22 26 27 22 26 27 22 26 27 22 26 27 22 26 27 22 26 27 22 26 27 22 26 27 22 26 27 22 26 27 22 26 27 22 26 27
22 26 27 22 26 27 22 26 27 22 26 27 22 26 27 22 26 27 22 26 27 22 26 27 22 26 27 22 26 27 22 26 27 22 26 27 22 26 27 22 26 27 22 26 27 22 26 27
22 26 27 22 26 27 22 26 27 22 26 27 22 26 27 22 26 27 22 26 27 22 26 27 22 26 27 22 26 27 22 26 27 22 26 27 22 26 27 22 26 27 22 26 27 22 26 27
22 26 27 22 26 27 22 26 27 22 26 27 22 26 27 22 26 27 22 26 27 22 26 27 22 26 27 22 26 27 22 26 27 22 26 27 22 26 27 22 26 27 22 26 27 22 26 27
22 26 27 22 26 27 22 26 27 85 89 89 70 74 74 72 76 76 22 26 27 87 91 91 80 84 84 73 77 77 70 74 74 22 26 27 73 77 77 76 80 80 79 83 83 77 81 81
39 82 125 42 86 131 44 89 135 45 90 137 48 95 143 47 93 140 42 87 132 32 73 114 46 93 139 119 86 123 34 75 117 40 84 128 45 90 137 93 90 131 36 78 120 90 90 131
107 88 127 41 85 130 45 91 138 36 78 120 39 83 127 107 88 127 45 91 138 43 88 134 35 77 119 38 80 124 33 74 116 36 77 120 42 87 132 63 93 139 41 85 130 72 92 136
45 91 137 35 76 119 48 95 143 34 76 118 48 95 142 36 79 122 41 85 130 64 93 138 47 94 141 61 94 139 37 80 123 41 85 129 41 86 130 34 76 118 38 82 125 94 89 130
110 87 126 36 78 121 39 82 125 33 74 115 45 90 137 40 83 128 126 85 121 72 92 136 43 88 134 48 95 143 44 89 135 67 93 138 34 76 117 36 78 121 71 92 137 33 74 116
41 85 130 47 93 140 34 76 118 42 87 132 44 89 135 37 80 123 32 73 114 46 93 139 33 75 116 40 83 128 44 90 136 47 94 141 45 90 136 34 75 116 33 75 116 41 86 130
40 84 129 47 94 141 42 87 132 37 80 123 87 90 132 37 79 122 36 78 121 34 76 118 42 87 132 32 73 114 35 76 118 35 77 119 34 76 118 39 83 127 45 91 137 42 87 132
39 82 126 34 75 117 34 75 117 42 86 131 99 89 129 34 76 118 46 92 139 46 92 138 76 92 135 37 80 123 41 86 131 41 85 129 32 73 114 22 26 27 22 26 27 22 26 27
22 26 27 22 26 27 22 26 27 22 26 27 22 26 27 22 26 27 92 94 87 94 96 89 94 96 89 85 87 82 87 90 84 84 87 81 97 98 91 91 93 87 90 93 86 102 104 96
88 91 85 90 93 86 99 100 93 89 92 85 22 26 27 22 26 27 22 26 27 22 26 27 22 26 27 22 26 27 22 26 27 22 26 27 22 26 27 22 26 27 22 26 27 22 26 27
22 26 27 22 26 27 22 26 27 22 26 27 22 26 27 22 26 27 22 26 27 22 26 27 22 26 27 22 26 27 22 26 27 22 26 27 22 26 27 22 26 27 22 26 27 22 26 27
22 26 27 22 26 27 22 26 27 22 26 27 22 26 27 22 26 27 22 26 27 22 26 27 22 26 27 22 26 27 22 26 27 22 26 27 22 26 27 22 26 27 22 26 27 22 26 27
22 26 27 22 26 27 22 26 27 22 26 27 22 26 27 22 26 27 22 26 27 22 26 27 22 26 27 22 26 27 22 26 27 22 26 27 22 26 27 22 26 27 22 26 27 22 26 27
22 26 27 22 26 27 22 26 27 22 26 27 22 26 27 22 26 27 22 26 27 22 26 27 22 26 27 22 26 27 22 26 27 22 26 27 22 26 27 22 26 27 22 26 27 22 26 27
22 26 27 22 26 27 22 26 27 22 26 27 22 26 27 22 26 27 22 26 27 22 26 27 22 26 27 22 26 27 22 26 27 22 26 27 22 26 27 22 26 27 22 26 27 22 26 27
22 26 27 22 26 27 22 26 27 22 26 27 22 26 27 22 26 27 22 26 27 22 26 27 22 26 27 22 26 27 22 26 27 22 26 27 22 26 27 22 26 27 22 26 27 22 26 27
22 26 27 22 26 27 22 26 27 82 86 86 78 82 82 92 96 96 22 26 27 70 74 74 71 75 75 71 75 75 88 92 92 22 26 27 92 96 96 86 90 90 85 89 89 73 77 77
43 90 136 84 86 128 28 69 109 35 77 120 32 74 116 36 80 123 33 76 118 107 84 121 104 84 122 35 78 121 37 81 126 42 88 134 36 80 123 32 74 116 37 81 125 37 81 125
38 83 127 34 77 120 39 84 129 42 88 134 37 81 125 33 76 118 51 91 137 44 90 137 44 90 137 113 83 120 40 85 130 36 80 123 43 89 135 37 81 125 38 82 126 39 83 128
40 85 130 45 91 138 34 77 120 36 79 123 30 71 112 30 71 112 35 78 122 43 89 135 44 90 137 38 82 126 34 77 119 40 84 129 38 82 126 29 69 110 41 87 132 29 70 110
32 73 115 32 73 115 43 89 135 34 77 119 32 74 116 34 76 119 44 91 137 41 87 133 40 84 129 30 71 112 40 85 130 30 71 112 42 88 134 36 79 122 43 89 135 42 88 134
37 81 125 29 70 110 40 85 130 38 82 127 34 77 119 34 76 119 44 91 137 30 71 112 42 88 134 121 82 118 40 84 129 34 77 119 31 72 114 33 75 117 39 84 129 35 78 121
37 80 124 33 76 118 35 78 122 59 90 135 37 81 125 41 86 132 44 90 136 37 81 125 30 71 112 31 72 114 86 86 127 40 85 130 123 82 117 105 84 122 46 91 138 29 69 110
43 89 136 36 80 124 31 73 114 33 75 117 44 91 138 45 91 138 42 87 133 91 86 126 107 84 121 39 83 127 118 82 118 32 74 116 35 77 120 22 26 27 22 26 27 22 26 27
22 26 27 22 26 27 22 26 27 22 26 27 22 26 27 22 26 27 99 100 93 85 87 82 87 90 84 85 88 82 102 103 95 98 99 92 89 92 86 82 85 80 89 91 85 95 97 90
104 106 97 92 94 88 87 90 84 101 103 95 22 26 27 22 26 27 22 26 27 22 26 27 22 26 27 22 26 27 22 26 27 22 26 27 22 26 27 22 26 27 22 26 27 22 26 27
22 26 27 22 26 27 22 26 27 22 26 27 22 26 27 22 26 27 22 26 27 22 26 27 22 26 27 22 26 27 22 26 27 22 26 27 22 26 27 22 26 27 22 26 27 22 26 27
22 26 27 22 26 27 22 26 27 22 26 27 22 26 27 22 26 27 22 26 27 22 26 27 22 26 27 22 26 27 22 26 27 22 26 27 22 26 27 22 26 27 22 26 27 22 26 27
22 26 27 22 26 27 22 26 27 22 26 27 22 26 27 22 26 27 22 26 27 22 26 27 22 26 27 22 26 27 22 26 27 22 26 27 22 26 27 22 26 27 22 26 27 22 26 27
22 26 27 22 26 27 22 26 27 22 26 27 22 26 27 22 26 27 22 26 27 22 26 27 22 26 27 22 26 27 22 26 27 22 26 27 22 26 27 22 26 27 22 26 27 22 26 27
22 26 27 22 26 27 22 26 27 22 26 27 22 26 27 22 26 27 22 26 27 22 26 27 22 26 27 22 26 27 22 26 27 22 26 27 22 26 27 22 26 27 22 26 27 22 26 27
22 26 27 22 26 27 22 26 27 22 26 27 22 26 27 22 26 27 22 26 27 22 26 27 22 26 27 22 26 27 22 26 27 22 26 27 22 26 27 22 26 27 22 26 27 22 26 27
22 26 27 22 26 27 22 26 27 90 94 94 83 87 87 87 91 91 22 26 27 73 77 77 86 90 90 83 87 87 84 88 88 22 26 27 71 75 75 74 78 78 92 96 96 75 79 79
31 74 116 81 84 125 34 77 120 32 75 117 31 73 115 41 88 134 32 74 116 41 87 133 29 70 111 73 85 127 33 76 119 33 76 119 35 78 122 84 84 124 59 87 131 42 88 135
26 66 107 34 77 121 36 80 124 42 88 135 29 71 112 105 81 119 41 87 133 28 69 110 39 84 130 39 84 129 63 86 130 82 84 125 41 87 134 40 86 132 32 74 116 69 86 129
37 82 127 32 75 117 29 71 112 35 78 122 41 87 133 30 72 114 28 69 110 27 67 107 30 71 113 34 77 121 36 80 124 32 75 118 102 82 119 38 83 128 30 72 114 29 70 111
39 85 130 41 87 133 29 70 111 110 81 117 34 77 120 38 82 127 57 87 132 30 72 114 104 81 119 56 87 132 28 69 110 39 84 129 41 87 133 34 77 120 28 69 110 70 86 128
27 68 108 77 85 126 38 83 128 32 74 116 81 84 125 82 84 125 32 75 117 26 67 107 30 72 114 36 80 125 92 83 122 33 77 120 40 86 131 34 77 121 28 69 110 40 85 131
30 72 114 26 66 106 32 75 117 36 80 124 28 69 110 31 73 116 84 84 124 29 71 112 28 68 109 40 85 131 39 84 130 37 81 125 29 70 111 64 86 130 38 83 128 28 69 110
26 67 107 39 84 129 111 80 117 39 85 130 50 88 134 38 83 128 71 85 128 33 76 120 31 73 114 41 86 132 36 80 124 34 77 120 41 86 132 22 26 27 22 26 27 22 26 27
22 26 27 22 26 27 22 26 27 22 26 27 22 26 27 22 26 27 96 98 91 90 92 86 97 99 92 101 103 95 107 108 100 89 92 85 108 109 100 85 87 82 93 95 88 103 105 96
101 103 95 95 97 90 93 95 88 95 97 90 22 26 27 22 26 27 22 26 27 22 26 27 22 26 27 22 26 27 22 26 27 22 26 27 22 26 27 22 26 27 22 26 27 22 26 27
22 26 27 22 26 27 22 26 27 22 26 27 22 26 27 22 26 27 22 26 27 22 26 27 22 26 27 22 26 27 22 26 27 22 26 27 22 26 27 22 26 27 22 26 27 22 26 27
22 26 27 22 26 27 22 26 27 22 26 27 22 26 27 22 26 27 22 26 27 22 26 27 22 26 27 22 26 27 22 26 27 22 26 27 22 26 27 22 26 27 22 26 27 22 26 27
22 26 27 22 26 27 22 26 27 22 26 27 22 26 27 22 26 27 22 26 27 22 26 27 22 26 27 22 26 27 22 26 27 22 26 27 22 26 27 22 26 27 22 26 27 22 26 27
22 26 27 22 26 27 22 26 27 22 26 27 22 26 27 22 26 27 22 26 27 22 26 27 22 26 27 22 26 27 22 26 27 22 26 27 22 26 27 22 26 27 22 26 27 22 26 27
22 26 27 22 26 27 22 26 27 22 26 27 22 26 27 22 26 27 22 26 27 22 26 27 22 26 27 22 26 27 22 26 27 22 26 27 22 26 27 22 26 27 22 26 27 22 26 27
22 26 27 22 26 27 22 26 27 22 26 27 22 26 27 22 26 27 22 26 27 22 26 27 22 26 27 22 26 27 22 26 27 22 26 27 22 26 27 22 26 27 22 26 27 22 26 27
22 26 27 22 26 27 22 26 27 92 96 96 92 96 96 78 82 82 22 26 27 73 77 77 92 96 96 91 95 95 77 81 81 22 26 27 91 95 95 75 79 79 69 73 73 91 95 95
35 79 123 66 84 127 36 81 126 25 65 105 30 73 115 27 68 109 29 71 113 87 81 121 25 66 106 26 67 108 26 67 108 29 71 113 64 84 127 29 70 112 33 76 119 30 72 114
66 84 127 41 87 134 37 82 128 39 85 131 29 71 112 33 76 119 30 72 115 39 85 131 38 84 130 36 81 126 29 71 113 32 75 118 39 84 130 35 79 123 27 67 108 28 69 110
33 76 120 41 87 134 40 86 132 37 82 127 38 84 129 36 81 126 26 66 107 27 68 109 37 82 127 41 87 134 25 65 105 29 71 112 80 82 123 25 65 105 38 83 128 40 87 133
111 78 114 35 80 124 36 81 125 28 69 110 39 85 131 81 82 123 26 67 108 33 77 120 27 68 109 102 79 117 35 80 124 26 67 108 41 87 134 36 80 125 39 84 130 38 84 129
117 78 113 64 84 127 29 71 113 26 66 106 31 73 116 64 84 127 28 70 111 28 69 111 28 69 110 28 70 111 25 65 105 40 86 132 25 65 105 37 83 128 99 80 118 30 72 114
26 66 107 32 76 119 34 77 121 40 87 133 38 83 129 72 83 125 29 70 112 31 73 115 108 79 115 34 78 122 30 73 115 40 86 132 72 83 125 40 86 132 36 81 126 32 75 118
30 73 115 30 73 115 37 81 126 36 80 125 37 83 128 30 72 115 28 70 111 30 72 115 28 70 111 27 67 108 32 76 119 31 73 116 29 71 113 22 26 27 22 26 27 22 26 27
22 26 27 22 26 27 22 26 27 22 26 27 22 26 27 22 26 27 103 105 97 104 105 97 89 91 85 99 101 94 89 92 85 104 106 97 96 97 90 88 90 84 107 108 99 82 85 80
103 105 97 91 93 86 85 88 82 99 101 94 22 26 27 22 26 27 22 26 27 22 26 27 22 26 27 22 26 27 22 26 27 22 26 27 22 26 27 22 26 27 22 26 27 22 26 27
22 26 27 22 26 27 22 26 27 22 26 27 22 26 27 22 26 27 22 26 27 22 26 27 22 26 27 22 26 27 22 26 27 22 26 27 22 26 27 22 26 27 22 26 27 22 26 27
22 26 27 22 26 27 22 26 27 22 26 27 22 26 27 22 26 27 22 26 27 22 26 27 22 26 27 22 26 27 22 26 27 22 26 27 22 26 27 22 26 27 22 26 27 22 26 27
22 26 27 22 26 27 22 26 27 22 26 27 22 26 27 22 26 27 22 26 27 22 26 27 22 26 27 22 26 27 22 26 27 22 26 27 22 26 27 22 26 27 22 26 27 22 26 27
22 26 27 22 26 27 22 26 27 22 26 27 22 26 27 22 26 27 22 26 27 22 26 27 22 26 27 22 26 27 22 26 27 22 26 27 22 26 27 22 26 27 22 26 27 22 26 27
22 26 27 22 26 27 22 26 27 22 26 27 22 26 27 22 26 27 22 26 27 22 26 27 22 26 27 22 26 27 22 26 27 22 26 27 22 26 27 22 26 27 22 26 27 22 26 27
22 26 27 22 26 27 22 26 27 22 26 27 22 26 27 22 26 27 22 26 27 22 26 27 22 26 27 22 26 27 22 26 27 22 26 27 22 26 27 22 26 27 22 26 27 22 26 27
22 26 27 22 26 27 22 26 27 76 80 80 72 76 76 91 95 95 22 26 27 70 74 74 93 97 97 83 87 87 92 96 96 22 26 27 90 94 94 79 83 83 88 92 92 72 76 76
36 81 127 35 80 124 24 65 105 36 81 127 30 74 117 34 79 123 33 77 120 30 73 115 33 77 121 34 79 124 35 79 124 39 84 131 24 65 105 31 74 117 53 83 127 50 83 128
29 71 114 36 81 127 91 78 116 22 62 102 29 72 114 30 74 117 74 80 121 23 64 104 31 74 117 26 67 108 35 80 125 28 71 113 111 75 111 37 82 128 31 75 118 24 65 105
27 68 110 30 73 117 25 66 106 51 83 127 25 66 107 31 74 117 22 62 101 24 65 105 32 75 119 22 62 102 35 79 124 29 72 114 28 70 112 31 74 118 22 62 102 36 82 127
32 75 119 29 71 113 25 66 107 28 70 112 32 76 119 34 78 123 30 72 115 37 83 129 22 62 101 32 76 119 30 72 115 102 77 113 37 82 128 23 63 103 23 63 103 37 83 129
26 68 109 28 70 112 28 70 112 36 81 126 31 74 117 36 82 127 33 78 122 48 83 128 36 81 127 26 67 108 33 78 122 22 62 102 101 77 114 34 78 123 30 73 116 31 74 117
22 62 101 53 83 127 34 78 123 34 78 123 25 65 106 105 76 113 50 83 128 32 76 120 28 70 112 35 80 125 29 72 115 26 68 109 26 68 109 29 72 115 38 84 131 31 75 118
36 81 126 36 81 127 62 82 124 37 83 129 34 78 123 56 82 126 33 78 122 25 66 107 55 82 126 31 75 118 27 68 110 36 81 126 35 80 125 22 26 27 22 26 27 22 26 27
22 26 27 22 26 27 22 26 27 22 26 27 22 26 27 22 26 27 107 108 100 83 86 81 91 93 87 80 83 78 94 96 89 98 100 92 98 100 92 85 88 82 83 86 80 91 93 87
104 106 97 91 93 87 93 95 89 90 92 86 22 26 27 22 26 27 22 26 27 22 26 27 22 26 27 22 26 27 22 26 27 22 26 27 22 26 27 22 26 27 22 26 27 22 26 27
22 26 27 22 26 27 22 26 27 22 26 27 22 26 27 22 26 27 22 26 27 22 26 27 22 26 27 22 26 27 22 26 27 22 26 27 22 26 27 22 26 27 22 26 27 22 26 27
22 26 27 22 26 27 22 26 27 22 26 27 22 26 27 22 26 27 22 26 27 22 26 27 22 26 27 22 26 27 22 26 27 22 26 27 22 26 27 22 26 27 22 26 27 22 26 27
22 26 27 22 26 27 22 26 27 22 26 27 22 26 27 22 26 27 22 26 27 22 26 27 22 26 27 22 26 27 22 26 27 22 26 27 22 26 27 22 26 27 22 26 27 22 26 27
22 26 27 22 26 27 22 26 27 22 26 27 22 26 27 22 26 27 22 26 27 22 26 27 22 26 27 22 26 27 22 26 27 22 26 27 22 26 27 22 26 27 22 26 27 22 26 27
22 26 27 22 26 27 22 26 27 22 26 27 22 26 27 22 26 27 22 26 27 22 26 27 22 26 27 22 26 27 22 26 27 22 26 27 22 26 27 22 26 27 22 26 27 22 26 27
22 26 27 22 26 27 22 26 27 22 26 27 22 26 27 22 26 27 22 26 27 22 26 27 22 26 27 22 26 27 22 26 27 22 26 27 22 26 27 22 26 27 22 26 27 22 26 27
22 26 27 22 26 27 22 26 27 84 88 88 74 78 78 87 91 91 22 26 27 91 95 95 77 81 81 87 91 91 89 93 93 22 26 27 76 80 80 82 86 86 87 91 91 91 95 95
81 74 113 21 61 102 43 79 124 42 79 124 21 62 102 28 71 114 24 66 108 19 59 99 34 80 126 48 78 122 25 67 109 23 65 106 28 71 115 28 71 115 23 64 105 30 74 118
20 60 101 34 80 126 52 78 121 63 77 118 25 67 110 19 59 98 32 77 122 33 79 124 21 61 102 28 71 115 34 79 125 22 63 104 19 59 98 87 74 112 23 65 106 65 76 118
33 78 123 21 61 101 33 79 125 18 57 97 27 70 112 25 67 109 31 75 120 19 59 99 23 64 105 32 77 122 22 62 103 27 70 113 20 60 99 33 78 123 30 74 118 96 72 109
21 62 103 26 68 110 66 76 117 19 59 99 19 59 99 31 75 120 31 76 120 105 71 107 22 63 103 22 64 105 33 79 124 61 77 119 41 79 124 89 73 111 31 76 121 34 80 125
90 73 111 24 66 108 29 73 116 19 58 98 19 58 98 30 74 118 22 62 103 55 78 120 24 66 107 28 71 115 34 79 125 47 79 122 18 57 97 24 65 107 24 65 107 31 76 120
97 72 109 31 76 121 19 58 98 29 73 117 18 58 97 23 64 106 32 77 122 29 73 117 23 64 105 61 77 119 20 60 100 26 69 112 99 72 108 19 59 99 33 78 123 43 79 124
20 60 100 38 80 125 21 61 101 32 77 122 25 68 110 25 67 109 21 61 102 32 77 122 20 60 100 30 74 118 20 61 101 23 65 106 24 66 108 22 26 27 22 26 27 22 26 27
22 26 27 22 26 27 22 26 27 22 26 27 22 26 27 22 26 27 80 83 78 101 103 95 108 109 100 86 89 83 109 110 101 87 90 84 108 109 100 86 88 82 99 100 93 83 86 80
92 94 87 97 99 92 97 99 92 88 90 84 22 26 27 22 26 27 22 26 27 22 26 27 22 26 27 22 26 27 22 26 27 22 26 27 22 26 27 22 26 27 22 26 27 22 26 27
22 26 27 22 26 27 22 26 27 22 26 27 22 26 27 22 26 27 22 26 27 22 26 27 22 26 27 22 26 27 22 26 27 22 26 27 22 26 27 22 26 27 22 26 27 22 26 27
22 26 27 22 26 27 22 26 27 22 26 27 22 26 27 22 26 27 22 26 27 22 26 27 22 26 27 22 26 27 22 26 27 22 26 27 22 26 27 22 26 27 22 26 27 22 26 27
22 26 27 22 26 27 22 26 27 22 26 27 22 26 27 22 26 27 22 26 27 22 26 27 22 26 27 22 26 27 22 26 27 22 26 27 22 26 27 22 26 27 22 26 27 22 26 27
22 26 27 22 26 27 22 26 27 22 26 27 22 26 27 22 26 27 22 26 27 22 26 27 22 26 27 22 26 27 22 26 27 22 26 27 22 26 27 22 26 27 22 26 27 22 26 27
22 26 27 22 26 27 22 26 27 22 26 27 22 26 27 22 26 27 22 26 27 22 26 27 22 26 27 22 26 27 22 26 27 22 26 27 22 26 27 22 26 27 22 26 27 22 26 27
22 26 27 22 26 27 22 26 27 22 26 27 22 26 27 22 26 27 22 26 27 22 26 27 22 26 27 22 26 27 22 26 27 22 26 27 22 26 27 22 26 27 22 26 27 22 26 27
22 26 27 22 26 27 22 26 27 87 91 91 92 96 96 79 83 83 22 26 27 74 78 78 81 85 85 78 82 82 80 84 84 22 26 27 90 94 94 75 79 79 90 94 94 91 95 95
15 55 95 25 69 112 20 62 103 17 58 98 56 71 112 13 52 91 16 56 96 21 64 106 72 69 108 28 73 118 23 66 109 21 63 105 28 73 118 28 73 117 19 60 102 27 72 116
20 62 104 15 55 94 84 67 104 21 63 106 18 59 99 21 63 106 26 70 115 26 69 113 73 69 107 42 73 116 48 72 114 19 60 101 21 63 105 16 56 97 23 66 109 19 60 101
20 61 103 56 71 112 102 65 99 23 66 109 13 52 91 25 69 112 74 69 107 86 67 104 60 70 111 18 60 101 29 74 120 20 62 103 21 64 106 16 56 97 26 69 113 26 70 114
14 53 93 68 69 109 17 57 98 25 68 112 15 55 95 18 60 101 17 58 98 25 69 113 16 57 97 22 64 107 14 54 93 21 63 105 18 60 101 17 57 98 18 59 99 26 70 114
25 69 113 19 60 101 23 65 108 39 73 117 26 70 114 52 71 113 29 74 119 86 67 104 28 73 117 94 66 102 84 67 104 19 60 102 25 69 112 27 71 116 64 70 110 27 72 117
17 58 99 16 56 97 18 58 99 20 61 103 24 67 110 21 63 105 15 55 95 20 62 104 22 64 107 87 67 104 14 54 93 22 65 108 26 70 114 17 57 98 25 69 112 16 56 96
27 71 115 18 59 99 64 70 110 24 67 111 20 61 103 29 74 119 25 69 113 25 69 112 25 68 112 23 66 109 44 72 115 53 71 113 102 65 99 22 26 27 22 26 27 22 26 27
22 26 27 22 26 27 22 26 27 22 26 27 22 26 27 22 26 27 92 94 87 86 88 83 93 95 88 96 98 91 95 97 90 84 86 81 100 101 94 102 103 95 108 109 100 86 89 83
98 100 92 83 86 80 81 84 79 92 94 88 22 26 27 22 26 27 22 26 27 22 26 27 22 26 27 22 26 27 22 26 27 22 26 27 22 26 27 22 26 27 22 26 27 22 26 27
22 26 27 22 26 27 22 26 27 22 26 27 22 26 27 22 26 27 22 26 27 22 26 27 22 26 27 22 26 27 22 26 27 22 26 27 22 26 27 22 26 27 22 26 27 22 26 27
22 26 27 22 26 27 22 26 27 22 26 27 22 26 27 22 26 27 22 26 27 22 26 27 22 26 27 22 26 27 22 26 27 22 26 27 22 26 27 22 26 27 22 26 27 22 26 27
22 26 27 22 26 27 22 26 27 22 26 27 22 26 27 22 26 27 22 26 27 22 26 27 22 26 27 22 26 27 22 26 27 22 26 27 22 26 27 22 26 27 22 26 27 22 26 27
22 26 27 22 26 27 22 26 27 22 26 27 22 26 27 22 26 27 22 26 27 22 26 27 22 26 27 22 26 27 22 26 27 22 26 27 22 26 27 22 26 27 22 26 27 22 26 27
22 26 27 22 26 27 22 26 27 22 26 27 22 26 27 22 26 27 22 26 27 22 26 27 22 26 27 22 26 27 22 26 27 22 26 27 22 26 27 22 26 27 22 26 27 22 26 27
22 26 27 22 26 27 22 26 27 22 26 27 22 26 27 22 26 27 22 26 27 22 26 27 22 26 27 22 26 27 22 26 27 22 26 27 22 26 27 22 26 27 22 26 27 22 26 27
22 26 27 22 26 27 22 26 27 75 79 79 81 85 85 75 79 79 22 26 27 89 93 93 77 81 81 89 93 93 77 81 81 22 26 27 73 77 77 87 91 91 70 74 74 76 80 80
18 60 103 23 68 112 58 64 104 10 49 88 14 55 96 7 46 84 22 66 109 10 50 89 68 63 101 24 69 113 13 54 94 14 54 95 11 51 91 20 64 107 10 49 88 22 66 110
21 65 108 16 57 99 12 52 92 9 48 87 9 48 87 99 59 93 16 58 100 83 61 97 18 61 103 20 63 107 100 59 93 23 67 111 11 51 91 17 59 102 22 67 111 39 67 109
16 57 99 23 68 112 22 67 111 18 60 103 18 61 103 39 67 109 11 51 91 14 55 96 15 56 97 12 52 92 13 53 93 46 66 107 16 58 99 24 68 113 23 67 111 19 62 105
11 51 91 22 66 110 23 67 112 12 53 93 18 60 102 85 61 97 22 66 110 13 54 95 72 62 100 10 49 88 11 51 90 26 68 113 11 50 90 14 54 95 15 56 97 21 65 109
58 64 104 70 63 101 22 66 111 16 58 100 22 66 111 15 56 97 14 55 96 19 62 104 42 66 109 34 67 111 8 46 85 93 60 94 22 66 109 22 66 110 81 61 98 10 49 88
13 54 95 13 54 95 19 62 105 16 58 100 21 65 109 19 62 105 18 60 102 20 63 106 23 68 112 22 66 111 13 54 94 45 66 108 13 54 94 10 49 88 19 61 104 79 62 98
30 68 112 11 50 90 14 55 95 16 58 99 18 60 102 15 56 97 21 65 108 19 61 104 10 50 89 32 68 111 20 64 107 25 68 113 15 56 97 22 26 27 22 26 27 22 26 27
22 26 27 22 26 27 22 26 27 22 26 27 22 26 27 22 26 27 108 109 100 86 89 83 85 88 82 99 100 93 94 96 89 98 100 92 86 89 83 100 102 94 83 86 80 100 102 94
94 96 89 81 84 78 97 99 92 109 110 101 22 26 27 22 26 27 22 26 27 22 26 27 22 26 27 22 26 27 22 26 27 22 26 27 22 26 27 22 26 27 22 26 27 22 26 27
22 26 27 22 26 27 22 26 27 22 26 27 22 26 27 22 26 27 22 26 27 22 26 27 22 26 27 22 26 27 22 26 27 22 26 27 22 26 27 22 26 27 22 26 27 22 26 27
22 26 27 22 26 27 22 26 27 22 26 27 22 26 27 22 26 27 22 26 27 22 26 27 22 26 27 22 26 27 22 26 27 22 26 27 22 26 27 22 26 27 22 26 27 22 26 27
22 26 27 22 26 27 22 26 27 22 26 27 22 26 27 22 26 27 22 26 27 22 26 27 22 26 27 22 26 27 22 26 27 22 26 27 22 26 27 22 26 27 22 26 27 22 26 27
22 26 27 22 26 27 22 26 27 22 26 27 22 26 27 22 26 27 22 26 27 22 26 27 22 26 27 22 26 27 22 26 27 22 26 27 22 26 27 22 26 27 22 26 27 22 26 27
22 26 27 22 26 27 22 26 27 22 26 27 22 26 27 22 26 27 22 26 27 22 26 27 22 26 27 22 26 27 22 26 27 22 26 27 22 26 27 22 26 27 22 26 27 22 26 27
22 26 27 22 26 27 22 26 27 22 26 27 22 26 27 22 26 27 22 26 27 22 26 27 22 26 27 22 26 27 22 26 27 22 26 27 22 26 27 22 26 27 22 26 27 22 26 27
22 26 27 22 26 27 22 26 27 82 86 86 83 87 87 73 77 77 22 26 27 71 75 75 69 73 73 75 79 79 74 78 78 22 26 27 90 94 94 87 91 91 77 81 81 80 84 84
10 49 89 16 58 100 22 66 110 84 58 94 14 56 98 9 48 88 17 60 103 12 53 94 21 65 110 8 47 86 6 44 83 58 61 101 13 54 95 14 55 97 5 43 81 89 57 92
18 61 104 13 55 96 20 65 109 13 55 96 8 47 86 6 45 84 12 52 93 17 60 103 6 44 83 63 61 99 9 49 88 15 57 99 15 57 99 6 45 83 8 48 87 20 64 108
6 45 84 95 57 90 15 57 100 86 58 93 12 53 94 20 64 108 16 58 100 18 62 105 21 65 109 18 62 105 16 58 100 12 53 94 19 63 107 19 63 106 8 48 87 11 52 92
13 55 96 21 65 109 80 59 95 8 47 86 9 48 88 17 60 103 6 44 82 14 56 97 17 60 103 30 65 108 20 63 107 10 51 91 13 54 96 7 45 84 16 58 100 11 52 93
9 48 88 6 45 83 5 43 81 5 43 81 6 44 82 20 64 108 16 58 100 16 58 101 70 60 97 82 58 94 17 59 102 9 49 89 17 59 102 13 54 95 86 58 93 82 58 94
17 60 103 16 59 101 20 64 108 14 55 97 18 61 104 17 60 103 31 65 108 15 57 99 9 49 89 12 53 94 10 50 90 21 65 109 7 46 85 9 48 87 18 61 104 10 51 91
20 63 107 12 52 93 19 62 106 15 58 100 9 48 88 18 61 104 12 52 93 19 63 107 9 49 89 15 57 99 7 45 84 18 61 104 20 64 108 22 26 27 22 26 27 22 26 27
22 26 27 22 26 27 22 26 27 22 26 27 22 26 27 22 26 27 89 91 85 101 103 95 105 106 98 97 99 92 105 107 98 82 85 79 84 87 82 87 89 83 90 92 86 89 91 85
82 85 80 87 90 84 87 90 84 95 97 90 22 26 27 22 26 27 22 26 27 22 26 27 22 26 27 22 26 27 22 26 27 22 26 27 22 26 27 22 26 27 22 26 27 22 26 27
22 26 27 22 26 27 22 26 27 22 26 27 22 26 27 22 26 27 22 26 27 22 26 27 22 26 27 22 26 27 22 26 27 22 26 27 22 26 27 22 26 27 22 26 27 22 26 27
22 26 27 22 26 27 22 26 27 22 26 27 22 26 27 22 26 27 22 26 27 22 26 27 22 26 27 22 26 27 22 26 27 22 26 27 22 26 27 22 26 27 22 26 27 22 26 27
22 26 27 22 26 27 22 26 27 22 26 27 22 26 27 22 26 27 22 26 27 22 26 27 22 26 27 22 26 27 22 26 27 22 26 27 22 26 27 22 26 27 22 26 27 22 26 27
22 26 27 22 26 27 22 26 27 22 26 27 22 26 27 22 26 27 22 26 27 22 26 27 22 26 27 22 26 27 22 26 27 22 26 27 22 26 27 22 26 27 22 26 27 22 26 27
22 26 27 22 26 27 22 26 27 22 26 27 22 26 27 22 26 27 22 26 27 22 26 27 22 26 27 22 26 27 22 26 27 22 26 27 22 26 27 22 26 27 22 26 27 22 26 27
22 26 27 22 26 27 22 26 27 22 26 27 22 26 27 22 26 27 22 26 27 22 26 27 22 26 27 22 26 27 22 26 27 22 26 27 22 26 27 22 26 27 22 26 27 22 26 27
22 26 27 22 26 27 22 26 27 85 89 89 86 90 90 86 90 90 22 26 27 85 89 89 78 82 82 80 84 84 86 90 90 22 26 27 81 85 85 92 96 96 90 94 94 88 92 92
96 58 92 48 65 106 22 66 110 21 65 109 14 54 95 20 64 108 50 64 105 21 65 109 12 53 93 16 57 99 19 61 104 12 53 93 18 61 104 19 62 105 14 55 96 17 59 101
17 59 102 10 50 90 20 63 106 76 61 98 21 65 109 64 63 101 20 63 107 23 67 112 58 63 103 13 54 95 18 61 104 22 66 110 8 47 85 7 46 84 23 68 112 14 55 96
45 65 106 55 64 104 18 61 104 89 59 94 19 63 106 8 46 85 14 55 96 20 63 107 13 54 94 14 55 96 17 59 101 20 63 107 77 61 98 18 61 104 14 55 96 19 62 105
17 60 102 23 67 112 10 50 90 20 63 107 10 49 89 16 58 99 10 50 90 65 62 101 16 58 100 8 46 85 8 47 86 7 46 84 9 48 87 16 58 101 22 67 111 22 67 111
13 54 95 9 48 87 7 46 84 9 49 88 23 67 112 19 63 106 83 60 96 12 52 93 13 54 94 20 63 107 22 66 111 16 58 100 21 65 109 98 58 92 22 67 111 46 65 106
23 67 112 21 65 110 16 58 100 22 66 111 7 45 83 11 51 91 19 62 106 10 50 90 12 52 92 16 58 99 15 56 98 12 52 92 13 53 94 17 59 101 23 68 112 9 48 87
8 46 85 21 66 110 13 54 94 21 65 109 20 63 106 18 61 104 16 58 100 87 60 95 17 59 101 28 67 111 8 47 85 22 67 111 9 48 87 22 26 27 22 26 27 22 26 27
22 26 27 22 26 27 22 26 27 22 26 27 22 26 27 22 26 27 84 87 81 81 84 79 109 110 101 95 97 90 85 87 82 98 100 92 87 90 84 107 108 100 100 101 94 86 88 83
87 89 83 91 93 86 98 100 92 91 93 87 22 26 27 22 26 27 22 26 27 22 26 27 22 26 27 22 26 27 22 26 27 22 26 27 22 26 27 22 26 27 22 26 27 22 26 27
22 26 27 22 26 27 22 26 27 22 26 27 22 26 27 22 26 27 22 26 27 22 26 27 22 26 27 22 26 27 22 26 27 22 26 27 22 26 27 22 26 27 22 26 27 22 26 27
22 26 27 22 26 27 22 26 27 22 26 27 22 26 27 22 26 27 22 26 27 22 26 27 22 26 27 22 26 27 22 26 27 22 26 27 22 26 27 22 26 27 22 26 27 22 26 27
22 26 27 22 26 27 22 26 27 22 26 27 22 26 27 22 26 27 22 26 27 22 26 27 22 26 27 22 26 27 22 26 27 22 26 27 22 26 27 22 26 27 22 26 27 22 26 27
22 26 27 22 26 27 22 26 27 22 26 27 22 26 27 22 26 27 22 26 27 22 26 27 22 26 27 22 26 27 22 26 27 22 26 27 22 26 27 22 26 27 22 26 27 22 26 27
22 26 27 22 26 27 22 26 27 22 26 27 22 26 27 22 26 27 22 26 27 22 26 27 22 26 27 22 26 27 22 26 27 22 26 27 22 26 27 22 26 27 22 26 27 22 26 27
22 26 27 22 26 27 22 26 27 22 26 27 22 26 27 22 26 27 22 26 27 22 26 27 22 26 27 22 26 27 22 26 27 22 26 27 22 26 27 22 26 27 22 26 27 22 26 27
22 26 27 22 26 27 22 26 27 71 75 75 88 92 92 73 77 77 22 26 27 78 82 82 89 93 93 85 89 89 77 81 81 22 26 27 79 83 83 90 94 94 69 73 73 75 79 79
20 63 105 34 72 117 16 56 96 86 66 102 26 70 114 21 64 106 22 64 107 26 70 114 20 62 104 20 62 104 24 67 111 13 52 91 27 72 117 13 53 92 13 52 91 11 50 89
27 73 118 13 53 92 89 65 101 18 59 100 21 63 106 19 61 103 15 55 95 12 51 90 13 52 91 48 70 113 24 68 112 18 59 100 19 61 102 21 64 106 21 64 107 20 62 104
18 60 101 19 61 103 24 68 111 98 64 99 28 73 118 13 52 91 19 61 103 19 61 103 23 66 109 22 65 108 25 69 113 17 58 99 19 61 103 15 55 95 21 64 106 24 67 111
26 71 115 22 65 108 25 69 113 17 58 99 12 51 90 27 71 116 21 64 106 13 52 91 19 60 102 17 58 99 12 51 89 27 71 116 26 70 115 23 66 109 23 67 110 19 60 102
25 70 114 18 59 100 15 56 96 81 66 104 19 61 103 24 68 112 17 57 98 99 64 99 17 58 99 15 55 95 68 68 107 26 71 116 16 57 98 12 50 89 52 70 112 15 55 95
14 54 94 27 72 117 23 66 110 14 54 94 84 66 103 78 67 105 14 54 94 27 72 117 16 57 98 48 70 113 63 69 109 26 70 114 25 70 114 60 69 109 27 72 118 64 68 108
26 70 114 18 60 101 26 71 115 23 67 110 90 65 101 27 71 116 14 54 94 23 67 110 92 65 101 27 72 117 33 72 117 24 68 111 25 69 113 22 26 27 22 26 27 22 26 27
22 26 27 22 26 27 22 26 27 22 26 27 22 26 27 22 26 27 82 85 80 86 89 83 94 96 89 95 97 90 87 90 84 93 95 88 107 109 100 87 89 83 81 84 79 104 105 97
88 90 84 96 98 91 102 104 96 84 87 81 22 26 27 22 26 27 22 26 27 22 26 27 22 26 27 22 26 27 22 26 27 22 26 27 22 26 27 22 26 27 22 26 27 22 26 27
22 26 27 22 26 27 22 26 27 22 26 27 22 26 27 22 26 27 22 26 27 22 26 27 22 26 27 22 26 27 22 26 27 22 26 27 22 26 27 22 26 27 22 26 27 22 26 27
22 26 27 22 26 27 22 26 27 22 26 27 22 26 27 22 26 27 22 26 27 22 26 27 22 26 27 22 26 27 22 26 27 22 26 27 22 26 27 22 26 27 22 26 27 22 26 27
22 26 27 22 26 27 22 26 27 22 26 27 22 26 27 22 26 27 22 26 27 22 26 27 22 26 27 22 26 27 22 26 27 22 26 27 22 26 27 22 26 27 22 26 27 22 26 27
22 26 27 22 26 27 22 26 27 22 26 27 22 26 27 22 26 27 22 26 27 22 26 27 22 26 27 22 26 27 22 26 27 22 26 27 22 26 27 22 26 27 22 26 27 22 26 27
22 26 27 22 26 27 22 26 27 22 26 27 22 26 27 22 26 27 22 26 27 22 26 27 22 26 27 22 26 27 22 26 27 22 26 27 22 26 27 22 26 27 22 26 27 22 26 27
22 26 27 22 26 27 22 26 27 22 26 27 22 26 27 22 26 27 22 26 27 22 26 27 22 26 27 22 26 27 22 26 27 22 26 27 22 26 27 22 26 27 22 26 27 22 26 27
22 26 27 22 26 27 22 26 27 72 76 76 82 86 86 83 87 87 22 26 27 72 76 76 81 85 85 73 77 77 75 79 79 22 26 27 87 91 91 88 92 92 79 83 83 82 86 86
21 61 102 24 65 107 110 69 104 20 61 101 27 70 113 32 77 122 32 78 123 26 68 111 22 63 104 18 58 98 18 58 97 84 73 111 67 75 116 24 66 108 17 57 96 19 58 98
26 69 112 27 71 114 23 65 106 32 77 123 22 64 105 22 64 105 30 74 119 23 65 107 27 71 114 22 63 105 24 67 109 40 78 123 88 72 110 23 65 107 104 70 106 30 74 118
20 61 101 17 57 96 31 76 121 29 73 117 30 74 118 22 64 105 31 75 120 31 76 121 20 60 101 27 71 114 22 63 104 32 77 122 25 67 109 26 68 111 22 63 104 25 68 110
62 75 117 23 65 107 29 74 118 33 79 125 75 74 113 75 74 113 65 75 116 30 75 120 18 58 97 67 75 116 30 75 119 32 77 122 31 76 120 25 68 111 63 75 117 54 76 119
26 69 112 83 73 111 32 77 122 25 67 110 30 75 119 19 59 99 97 71 107 34 79 125 23 65 106 17 56 96 96 71 108 19 60 100 31 76 121 32 78 123 100 71 106 22 64 105
18 58 98 23 65 106 18 58 98 18 57 96 33 78 124 29 72 116 28 72 116 25 68 110 22 64 105 30 75 119 28 72 116 22 63 105 75 74 113 21 62 104 31 76 121 21 62 103
29 73 117 19 60 100 78 73 113 24 65 107 23 65 106 30 75 119 31 75 120 18 58 97 33 79 125 33 78 124 31 76 120 22 63 104 41 78 123 22 26 27 22 26 27 22 26 27
22 26 27 22 26 27 22 26 27 22 26 27 22 26 27 22 26 27 107 108 99 108 109 100 109 110 101 103 105 97 84 87 81 100 102 94 87 89 83 83 85 80 87 90 84 94 96 89
105 106 98 85 88 82 88 91 85 95 97 90 22 26 27 22 26 27 22 26 27 22 26 27 22 26 27 22 26 27 22 26 27 22 26 27 22 26 27 22 26 27 22 26 27 22 26 27
22 26 27 22 26 27 22 26 27 22 26 27 22 26 27 22 26 27 22 26 27 22 26 27 22 26 27 22 26 27 22 26 27 22 26 27 22 26 27 22 26 27 22 26 27 22 26 27
22 26 27 22 26 27 22 26 27 22 26 27 22 26 27 22 26 27 22 26 27 22 26 27 22 26 27 22 26 27 22 26 27 22 26 27 22 26 27 22 26 27 22 26 27 22 26 27
22 26 27 22 26 27 22 26 27 22 26 27 22 26 27 22 26 27 22 26 27 22 26 27 22 26 27 22 26 27 22 26 27 22 26 27 22 26 27 22 26 27 22 26 27 22 26 27
22 26 27 22 26 27 22 26 27 22 26 27 22 26 27 22 26 27 22 26 27 22 26 27 22 26 27 22 26 27 22 26 27 22 26 27 22 26 27 22 26 27 22 26 27 22 26 27
22 26 27 22 26 27 22 26 27 22 26 27 22 26 27 22 26 27 22 26 27 22 26 27 22 26 27 22 26 27 22 26 27 22 26 27 22 26 27 22 26 27 22 26 27 22 26 27
22 26 27 22 26 27 22 26 27 22 26 27 22 26 27 22 26 27 22 26 27 22 26 27 22 26 27 22 26 27 22 26 27 22 26 27 22 26 27 22 26 27 22 26 27 22 26 27
22 26 27 22 26 27 22 26 27 77 81 81 78 82 82 71 75 75 22 26 27 71 75 75 79 83 83 73 77 77 85 89 89 22 26 27 74 78 78 78 82 82 79 83 83 89 93 93
25 66 107 28 70 113 26 68 110 52 82 126 50 82 127 25 67 108 31 74 117 35 79 124 32 76 120 115 74 109 33 78 122 27 68 110 37 82 128 34 78 123 27 69 112 102 76 113
23 63 103 30 74 117 27 68 110 37 83 130 25 65 106 26 67 109 64 81 123 33 78 122 32 76 121 32 76 120 36 81 126 30 73 116 31 75 119 28 70 112 22 63 103 28 70 112
22 63 103 27 69 111 30 74 117 34 79 124 113 74 109 32 76 120 29 72 115 27 70 112 56 82 125 30 74 117 33 78 122 27 69 111 31 74 118 37 83 129 36 81 126 24 65 106
100 76 113 30 73 116 72 80 121 37 84 130 22 61 101 36 81 127 27 68 110 29 72 115 31 74 117 29 72 114 27 69 111 24 65 106 116 74 109 23 64 104 73 79 120 26 67 108
33 78 122 33 77 121 22 62 102 34 79 123 31 75 118 28 70 112 28 71 113 35 80 125 36 82 128 23 63 104 35 80 126 32 76 120 36 82 128 27 69 111 47 83 128 31 74 118
36 81 127 25 66 107 36 81 127 33 78 122 30 74 117 27 69 111 84 78 117 22 62 101 40 84 129 36 81 127 29 72 114 32 77 121 26 67 109 22 62 101 35 81 126 36 81 127
37 82 128 93 77 115 34 79 124 38 84 130 37 83 129 33 78 122 33 78 122 32 76 119 37 83 129 89 77 116 23 63 103 82 78 118 28 70 113 22 26 27 22 26 27 22 26 27
22 26 27 22 26 27 22 26 27 22 26 27 22 26 27 22 26 27 102 104 96 106 107 99 85 87 82 91 93 86 99 101 93 108 109 101 83 86 80 99 100 93 102 103 95 82 85 80
107 108 99 86 88 83 81 84 79 108 109 100 22 26 27 22 26 27 22 26 27 22 26 27 22 26 27 22 26 27 22 26 27 22 26 27 22 26 27 22 26 27 22 26 27 22 26 27
22 26 27 22 26 27 22 26 27 22 26 27 22 26 27 22 26 27 22 26 27 22 26 27 22 26 27 22 26 27 22 26 27 22 26 27 22 26 27 22 26 27 22 26 27 22 26 27
22 26 27 22 26 27 22 26 27 22 26 27 22 26 27 22 26 27 22 26 27 22 26 27 22 26 27 22 26 27 22 26 27 22 26 27 22 26 27 22 26 27 22 26 27 22 26 27
22 26 27 22 26 27 22 26 27 22 26 27 22 26 27 22 26 27 22 26 27 22 26 27 22 26 27 22 26 27 22 26 27 22 26 27 22 26 27 22 26 27 22 26 27 22 26 27
22 26 27 22 26 27 22 26 27 22 26 27 22 26 27 22 26 27 22 26 27 22 26 27 22 26 27 22 26 27 22 26 27 22 26 27 22 26 27 22 26 27 22 26 27 22 26 27
22 26 27 22 26 27 22 26 27 22 26 27 22 26 27 22 26 27 22 26 27 22 26 27 22 26 27 22 26 27 22 26 27 22 26 27 22 26 27 22 26 27 22 26 27 22 26 27
22 26 27 22 26 27 22 26 27 22 26 27 22 26 27 22 26 27 22 26 27 22 26 27 22 26 27 22 26 27 22 26 27 22 26 27 22 26 27 22 26 27 22 26 27 22 26 27
22 26 27 22 26 27 22 26 27 78 82 82 88 92 92 74 78 78 22 26 27 80 84 84 70 74 74 76 80 80 88 92 92 22 26 27 89 93 93 70 74 74 75 79 79 72 76 76
53 85 130 30 72 115 39 85 130 30 72 115 38 83 128 33 76 119 118 77 112 27 68 109 31 73 116 33 77 121 35 79 123 102 79 116 118 77 112 24 65 105 35 80 125 25 65 105
33 76 120 27 68 109 24 64 104 32 76 119 32 75 118 39 85 131 33 76 119 30 72 115 29 71 113 39 84 130 36 80 125 26 67 108 38 84 129 28 69 110 40 86 132 37 83 128
100 79 117 40 87 133 29 71 113 35 79 123 31 74 117 33 77 120 40 86 132 36 81 126 38 83 128 26 67 108 25 65 105 31 74 117 33 77 121 31 73 116 30 72 114 37 82 127
32 76 119 33 77 121 25 65 106 40 86 132 24 64 104 29 71 113 107 78 115 69 83 125 33 77 120 72 83 125 25 66 106 38 84 130 94 80 118 36 81 126 36 80 125 73 83 124
24 64 104 51 85 130 39 85 132 34 78 122 111 78 114 40 87 133 25 65 105 38 83 128 37 83 128 33 76 119 39 85 131 24 64 104 28 70 111 32 74 117 36 81 126 25 66 106
26 67 108 25 65 106 84 81 121 40 86 132 87 81 121 36 81 126 35 80 124 40 86 132 33 76 120 33 76 119 37 82 127 25 65 106 33 77 121 32 75 119 26 67 108 91 80 119
66 84 126 38 83 128 28 70 112 112 78 114 46 86 132 38 83 128 39 85 130 32 76 119 27 68 109 39 85 131 36 81 125 27 68 110 32 76 119 22 26 27 22 26 27 22 26 27
22 26 27 22 26 27 22 26 27 22 26 27 22 26 27 22 26 27 96 98 91 82 85 80 101 103 95 89 91 85 109 110 101 99 100 93 96 98 91 107 108 99 105 106 98 98 100 93
102 103 95 94 96 89 95 97 90 108 109 100 22 26 27 22 26 27 22 26 27 22 26 27 22 26 27 22 26 27 22 26 27 22 26 27 22 26 27 22 26 27 22 26 27 22 26 27
22 26 27 22 26 27 22 26 27 22 26 27 22 26 27 22 26 27 22 26 27 22 26 27 22 26 27 22 26 27 22 26 27 22 26 27 22 26 27 22 26 27 22 26 27 22 26 27
22 26 27 22 26 27 22 26 27 22 26 27 22 26 27 22 26 27 22 26 27 22 26 27 22 26 27 22 26 27 22 26 27 22 26 27 22 26 27 22 26 27 22 26 27 22 26 27
22 26 27 22 26 27 22 26 27 22 26 27 22 26 27 22 26 27 22 26 27 22 26 27 22 26 27 22 26 27 22 26 27 22 26 27 22 26 27 22 26 27 22 26 27 22 26 27
22 26 27 22 26 27 22 26 27 22 26 27 22 26 27 22 26 27 22 26 27 22 26 27 22 26 27 22 26 27 22 26 27 22 26 27 22 26 27 22 26 27 22 26 27 22 26 27
22 26 27 22 26 27 22 26 27 22 26 27 22 26 27 22 26 27 22 26 27 22 26 27 22 26 27 22 26 27 22 26 27 22 26 27 22 26 27 22 26 27 22 26 27 22 26 27
22 26 27 22 26 27 22 26 27 22 26 27 22 26 27 22 26 27 22 26 27 22 26 27 22 26 27 22 26 27 22 26 27 22 26 27 22 26 27 22 26 27 22 26 27 22 26 27
22 26 27 22 26 27 22 26 27 84 88 88 70 74 74 75 79 79 22 26 27 71 75 75 82 86 86 80 84 84 91 95 95 22 26 27 71 75 75 80 84 84 70 74 74 90 94 94
113 80 116 39 85 131 28 69 109 28 69 111 40 86 132 34 77 121 34 78 121 34 77 120 26 67 107 28 69 110 30 71 113 36 80 125 115 79 115 31 73 115 34 77 120 34 77 120
38 83 128 98 82 120 39 85 131 28 69 110 30 72 114 37 81 126 34 78 121 30 72 113 35 79 123 41 88 134 28 69 109 41 87 134 27 68 108 71 85 127 35 79 123 26 66 106
99 82 120 32 74 117 40 85 131 37 82 126 42 89 135 97 82 120 41 87 133 32 75 118 42 89 135 37 81 126 36 80 124 27 68 109 41 87 134 30 72 113 108 80 117 102 81 119
39 84 129 82 84 125 97 82 120 33 75 118 26 66 106 38 82 127 31 73 115 27 67 108 45 88 135 117 79 115 33 75 118 81 84 125 32 75 118 26 67 107 37 81 126 32 75 117
35 79 123 37 81 126 63 86 130 32 75 117 31 73 115 39 85 130 32 75 117 29 70 112 41 87 133 120 79 114 28 69 109 34 77 121 36 80 124 117 79 115 38 83 127 35 78 122
51 88 133 102 81 119 39 84 129 41 87 133 86 83 123 86 83 123 39 84 129 109 80 117 38 83 129 39 84 129 27 67 107 37 81 125 30 72 114 92 82 122 32 75 118 61 86 130
106 81 118 29 70 112 26 66 106 30 72 114 53 87 132 33 76 119 39 84 130 26 66 107 27 67 107 38 82 127 34 77 121 33 76 119 37 81 126 22 26 27 22 26 27 22 26 27
22 26 27 22 26 27 22 26 27 22 26 27 22 26 27 22 26 27 103 104 96 83 86 81 107 108 100 110 111 102 104 106 97 82 85 80 84 87 81 93 95 88 103 104 96 103 104 96
85 88 82 84 86 81 108 109 100 105 106 98 22 26 27 22 26 27 22 26 27 22 26 27 22 26 27 22 26 27 22 26 27 22 26 27 22 26 27 22 26 27 22 26 27 22 26 27
22 26 27 22 26 27 22 26 27 22 26 27 22 26 27 22 26 27 22 26 27 22 26 27 22 26 27 22 26 27 22 26 27 22 26 27 22 26 27 22 26 27 22 26 27 22 26 27
22 26 27 22 26 27 22 26 27 22 26 27 22 26 27 22 26 27 22 26 27 22 26 27 22 26 27 22 26 27 22 26 27 22 26 27 22 26 27 22 26 27 22 26 27 22 26 27
22 26 27 22 26 27 22 26 27 22 26 27 22 26 27 22 26 27 22 26 27 22 26 27 22 26 27 22 26 27 22 26 27 22 26 27 22 26 27 22 26 27 22 26 27 22 26 27
22 26 27 22 26 27 22 26 27 22 26 27 22 26 27 22 26 27 22 26 27 22 26 27 22 26 27 22 26 27 22 26 27 22 26 27 22 26 27 22 26 27 22 26 27 22 26 27
22 26 27 22 26 27 22 26 27 22 26 27 22 26 27 22 26 27 22 26 27 22 26 27 22 26 27 22 26 27 22 26 27 22 26 27 22 26 27 22 26 27 22 26 27 22 26 27
22 26 27 22 26 27 22 26 27 22 26 27 22 26 27 22 26 27 22 26 27 22 26 27 22 26 27 22 26 27 22 26 27 22 26 27 22 26 27 22 26 27 22 26 27 22 26 27
22 26 27 22 26 27 22 26 27 72 76 76 78 82 82 72 76 76 22 26 27 79 83 83 85 89 89 83 87 87 86 90 90 22 26 27 89 93 93 86 90 90 70 74 74 86 90 90
32 73 115 41 86 132 30 71 112 28 68 109 43 90 137 42 88 134 38 82 126 37 81 125 37 81 125 37 82 126 30 70 112 38 82 126 33 75 117 35 78 121 34 76 119 36 80 124
96 84 124 35 79 122 30 71 112 43 89 136 37 81 125 40 85 131 37 81 125 41 86 131 36 79 123 37 80 124 30 71 113 31 73 115 40 85 131 44 90 137 69 88 131 38 82 126
34 76 119 42 88 134 44 91 138 41 87 132 30 71 112 40 86 131 34 77 120 49 90 137 33 75 117 31 73 115 52 90 136 43 90 136 36 79 123 43 89 135 35 78 122 92 85 125
35 78 121 30 71 112 39 84 128 36 80 124 35 78 121 37 81 125 29 69 110 29 70 111 36 80 124 76 87 129 112 82 119 30 71 112 108 83 120 40 86 131 43 90 136 32 74 117
31 73 115 43 89 135 37 81 125 41 87 132 33 75 118 38 82 127 34 76 119 44 91 138 35 78 122 30 71 112 31 73 115 29 70 111 41 87 133 47 91 137 44 91 137 31 73 114
59 89 134 37 81 125 39 84 129 41 86 131 112 82 119 29 69 110 31 73 115 28 69 110 35 78 121 38 82 126 28 68 109 72 87 130 30 72 113 36 80 124 34 77 119 41 87 133
69 88 131 36 79 123 104 83 121 45 91 138 104 83 121 37 81 125 29 70 111 34 77 120 29 69 110 33 75 118 122 81 116 38 82 127 30 71 112 22 26 27 22 26 27 22 26 27
22 26 27 22 26 27 22 26 27 22 26 27 22 26 27 22 26 27 87 90 84 93 95 88 109 110 101 97 99 92 82 85 80 94 96 89 85 87 82 82 85 80 107 108 99 86 88 82
97 99 91 108 109 101 92 94 88 107 108 99 22 26 27 22 26 27 22 26 27 22 26 27 22 26 27 22 26 27 22 26 27 22 26 27 22 26 27 22 26 27 22 26 27 22 26 27
22 26 27 22 26 27 22 26 27 22 26 27 22 26 27 22 26 27 22 26 27 22 26 27 22 26 27 22 26 27 22 26 27 22 26 27 22 26 27 22 26 27 22 26 27 22 26 27
22 26 27 22 26 27 22 26 27 22 26 27 22 26 27 22 26 27 22 26 27 22 26 27 22 26 27 22 26 27 22 26 27 22 26 27 22 26 27 22 26 27 22 26 27 22 26 27
22 26 27 22 26 27 22 26 27 22 26 27 22 26 27 22 26 27 22 26 27 22 26 27 22 26 27 22 26 27 22 26 27 22 26 27 22 26 27 22 26 27 22 26 27 22 26 27
22 26 27 22 26 27 22 26 27 22 26 27 22 26 27 22 26 27 22 26 27 22 26 27 22 26 27 22 26 27 22 26 27 22 26 27 22 26 27 22 26 27 22 26 27 22 26 27
22 26 27 22 26 27 22 26 27 22 26 27 22 26 27 22 26 27 22 26 27 22 26 27 22 26 27 22 26 27 22 26 27 22 26 27 22 26 27 22 26 27 22 26 27 22 26 27
22 26 27 22 26 27 22 26 27 22 26 27 22 26 27 22 26 27 22 26 27 22 26 27 22 26 27 22 26 27 22 26 27 22 26 27 22 26 27 22 26 27 22 26 27 22 26 27
22 26 27 22 26 27 22 26 27 86 90 90 70 74 74 88 92 92 22 26 27 85 89 89 85 89 89 91 95 95 78 82 82 22 26 27 83 87 87 91 95 95 78 82 82 77 81 81
38 82 125 113 86 124 105 87 126 110 86 125 45 91 138 41 85 130 37 80 123 43 88 134 85 90 131 32 73 114 46 93 139 42 86 131 46 93 140 36 79 122 111 86 124 47 94 141
40 84 128 111 86 124 45 92 138 36 78 121 37 80 124 39 82 126 36 78 121 41 85 129 32 74 115 42 86 132 36 78 121 46 93 140 39 82 126 55 93 140 113 86 124 42 87 133
45 92 138 39 83 127 111 86 124 33 74 116 42 87 133 64 92 137 73 91 135 45 91 138 39 83 127 32 73 115 43 89 134 41 85 129 68 92 136 36 78 121 39 82 126 43 88 134
44 90 136 42 86 132 32 73 115 38 81 124 46 93 139 35 77 119 36 79 122 43 88 133 42 87 132 40 84 128 36 78 121 37 80 123 35 77 120 35 77 119 44 90 136 43 89 135
79 90 133 40 85 129 44 90 136 40 84 128 45 90 137 31 72 113 33 74 116 43 88 133 45 92 138 34 76 118 45 91 137 108 87 125 38 82 125 36 79 122 46 92 139 38 81 125
40 85 129 31 72 113 39 83 127 34 76 118 50 94 141 31 72 112 43 88 134 31 71 112 32 73 114 41 86 131 36 78 121 39 82 126 42 87 133 36 79 122 92 89 130 36 79 121
32 72 113 41 85 130 32 72 113 46 92 139 33 75 116 31 72 113 32 72 113 125 84 120 44 90 136 46 92 139 43 88 134 37 80 123 113 86 124 22 26 27 22 26 27 22 26 27
22 26 27 22 26 27 22 26 27 22 26 27 22 26 27 22 26 27 95 97 90 82 85 80 96 98 90 99 101 93 99 100 93 98 100 92 96 98 91 106 107 98 81 84 79 84 86 81
103 105 97 83 86 80 102 104 96 95 97 90 22 26 27 22 26 27 22 26 27 22 26 27 22 26 27 22 26 27 22 26 27 22 26 27 22 26 27 22 26 27 22 26 27 22 26 27
22 26 27 22 26 27 22 26 27 22 26 27 22 26 27 22 26 27 22 26 27 22 26 27 22 26 27 22 26 27 22 26 27 22 26 27 22 26 27 22 26 27 22 26 27 22 26 27
22 26 27 22 26 27 22 26 27 22 26 27 22 26 27 22 26 27 22 26 27 22 26 27 22 26 27 22 26 27 22 26 27 22 26 27 22 26 27 22 26 27 22 26 27 22 26 27
22 26 27 22 26 27 22 26 27 22 26 27 22 26 27 22 26 27 22 26 27 22 26 27 22 26 27 22 26 27 22 26 27 22 26 27 22 26 27 22 26 27 22 26 27 22 26 27
22 26 27 22 26 27 22 26 27 22 26 27 22 26 27 22 26 27 22 26 27 22 26 27 22 26 27 22 26 27 22 26 27 22 26 27 22 26 27 22 26 27 22 26 27 22 26 27
22 26 27 22 26 27 22 26 27 22 26 27 22 26 27 22 26 27 22 26 27 22 26 27 22 26 27 22 26 27 22 26 27 22 26 27 22 26 27 22 26 27 22 26 27 22 26 27
22 26 27 22 26 27 22 26 27 22 26 27 22 26 27 22 26 27 22 26 27 22 26 27 22 26 27 22 26 27 22 26 27 22 26 27 22 26 27 22 26 27 22 26 27 22 26 27
22 26 27 22 26 27 22 26 27 87 91 91 90 94 94 82 86 86 22 26 27 76 80 80 90 94 94 84 88 88 88 92 92 22 26 27 86 90 90 89 93 93 86 90 90 84 88 88
41 85 128 121 91 129 115 92 130 52 99 147 88 95 138 46 91 137 37 78 120 50 97 144 45 90 135 51 97 145 51 98 146 51 98 145 44 88 133 38 80 123 112 92 131 50 97 144
117 91 130 49 95 141 49 95 141 42 86 130 47 92 138 37 78 121 106 93 133 130 90 126 39 82 125 56 99 147 104 93 133 40 83 126 50 96 143 95 94 136 43 87 132 47 92 138
50 97 144 129 90 126 41 84 128 46 90 136 51 97 145 48 93 139 49 95 142 42 85 129 42 85 129 46 91 137 43 87 132 47 92 139 39 80 123 50 96 143 49 95 142 39 81 123
37 79 121 48 94 140 38 80 123 37 79 121 44 89 134 43 87 131 38 80 123 36 77 119 51 98 146 44 89 134 39 81 123 49 95 142 49 95 142 49 96 142 39 81 124 47 92 137
47 92 137 109 92 132 40 82 126 37 78 119 44 88 133 48 94 140 43 86 131 36 77 119 36 77 119 51 97 145 42 86 130 37 79 121 48 94 140 48 94 141 40 82 125 49 95 142
40 83 127 45 90 135 43 87 132 44 89 134 50 97 144 52 99 147 49 95 142 41 84 128 124 90 128 38 79 122 45 89 135 100 93 135 47 93 139 82 96 140 44 88 133 49 95 141
51 98 146 43 86 130 47 92 138 106 93 133 45 90 135 38 80 123 38 79 121 48 94 140 45 89 134 36 77 118 45 89 134 115 92 130 45 89 135 22 26 27 22 26 27 22 26 27
22 26 27 22 26 27 22 26 27 22 26 27 22 26 27 22 26 27 85 88 82 81 84 78 106 108 99 91 94 87 109 110 101 104 105 97 84 87 81 88 90 84 87 90 84 100 101 94
109 110 101 84 87 82 95 97 90 86 89 83 22 26 27 22 26 27 22 26 27 22 26 27 22 26 27 22 26 27 22 26 27 22 26 27 22 26 27 22 26 27 22 26 27 22 26 27
22 26 27 22 26 27 22 26 27 22 26 27 22 26 27 22 26 27 22 26 27 22 26 27 22 26 27 22 26 27 22 26 27 22 26 27 22 26 27 22 26 27 22 26 27 22 26 27
22 26 27 22 26 27 22 26 27 22 26 27 22 26 27 22 26 27 22 26 27 22 26 27 22 26 27 22 26 27 22 26 27 22 26 27 22 26 27 22 26 27 22 26 27 22 26 27
22 26 27 22 26 27 22 26 27 22 26 27 22 26 27 22 26 27 22 26 27 22 26 27 22 26 27 22 26 27 22 26 27 22 26 27 22 26 27 22 26 27 22 26 27 22 26 27
22 26 27 22 26 27 22 26 27 22 26 27 22 26 27 22 26 27 22 26 27 22 26 27 22 26 27 22 26 27 22 26 27 22 26 27 22 26 27 22 26 27 22 26 27 22 26 27
22 26 27 22 26 27 22 26 27 22 26 27 22 26 27 22 26 27 22 26 27 22 26 27 22 26 27 22 26 27 22 26 27 22 26 27 22 26 27 22 26 27 22 26 27 22 26 27
22 26 27 22 26 27 22 26 27 22 26 27 22 26 27 22 26 27 22 26 27 22 26 27 22 26 27 22 26 27 22 26 27 22 26 27 22 26 27 22 26 27 22 26 27 22 26 27
22 26 27 22 26 27 22 26 27 81 85 85 86 90 90 74 78 78 22 26 27 75 79 79 92 96 96 75 79 79 72 76 76 22 26 27 85 89 89 76 80 80 84 88 88 78 82 82
48 91 136 72 104 151 52 97 144 42 84 127 89 102 146 113 99 140 43 84 127 55 102 149 57 104 152 47 90 135 54 100 147 50 95 141 70 104 152 76 104 150 134 96 134 54 100 147
76 104 150 56 102 150 135 96 134 42 83 125 43 84 127 45 88 132 50 95 141 49 94 139 44 86 129 48 92 137 42 84 127 55 102 149 79 103 149 83 103 148 57 104 153 51 95 141
49 93 138 43 84 127 52 98 144 98 101 144 54 101 148 101 100 143 55 101 149 44 85 129 57 104 153 45 88 132 42 84 127 45 88 131 136 96 133 43 85 127 43 85 128 57 105 153
46 89 134 58 105 154 52 98 144 49 94 139 44 87 130 55 102 150 45 88 132 88 102 147 46 89 133 42 83 125 55 101 149 46 89 134 57 104 153 49 93 138 57 104 153 44 86 129
50 94 139 66 105 153 48 92 137 51 96 142 54 100 147 58 105 154 52 97 143 44 85 129 69 104 152 43 84 127 58 106 155 57 104 153 44 87 130 128 97 136 92 102 146 44 85 129
47 90 135 52 97 143 51 96 142 50 94 140 109 99 141 57 105 153 50 95 140 55 101 149 51 96 142 57 104 152 56 103 151 44 87 130 45 87 131 54 100 147 51 96 143 50 94 139
47 90 134 46 88 132 52 97 143 133 96 134 49 93 138 75 104 150 44 86 129 61 105 154 47 91 135 50 95 140 50 95 141 86 102 147 50 94 140 22 26 27 22 26 27 22 26 27
22 26 27 22 26 27 22 26 27 22 26 27 22 26 27 22 26 27 102 104 96 83 86 80 109 110 101 101 103 95 104 106 98 81 84 79 90 93 86 88 90 84 85 88 82 107 108 100
106 107 99 105 106 98 82 85 80 82 85 80 22 26 27 22 26 27 22 26 27 22 26 27 22 26 27 22 26 27 22 26 27 22 26 27 22 26 27 22 26 27 22 26 27 22 26 27
22 26 27 22 26 27 22 26 27 22 26 27 22 26 27 22 26 27 22 26 27 22 26 27 22 26 27 22 26 27 22 26 27 22 26 27 22 26 27 22 26 27 22 26 27 22 26 27
22 26 27 22 26 27 22 26 27 22 26 27 22 26 27 22 26 27 22 26 27 22 26 27 22 26 27 22 26 27 22 26 27 22 26 27 22 26 27 22 26 27 22 26 27 22 26 27
22 26 27 22 26 27 22 26 27 22 26 27 22 26 27 22 26 27 22 26 27 22 26 27 22 26 27 22 26 27 22 26 27 22 26 27 22 26 27 22 26 27 22 26 27 22 26 27
22 26 27 22 26 27 22 26 27 22 26 27 22 26 27 22 26 27 22 26 27 22 26 27 22 26 27 22 26 27 22 26 27 22 26 27 22 26 27 22 26 27 22 26 27 22 26 27
22 26 27 22 26 27 22 26 27 22 26 27 22 26 27 22 26 27 22 26 27 22 26 27 22 26 27 22 26 27 22 26 27 22 26 27 22 26 27 22 26 27 22 26 27 22 26 27
22 26 27 22 26 27 22 26 27 22 26 27 22 26 27 22 26 27 22 26 27 22 26 27 22 26 27 22 26 27 22 26 27 22 26 27 22 26 27 22 26 27 22 26 27 22 26 27
22 26 27 22 26 27 22 26 27 92 96 96 85 89 89 76 80 80 22 26 27 84 88 88 74 78 78 72 76 76 71 75 75 22 26 27 91 95 95 73 77 77 91 95 95 77 81 81
56 101 148 57 103 150 72 111 160 54 99 145 55 100 147 81 110 157 59 105 153 59 105 152 63 111 161 58 104 152 61 108 157 109 106 149 59 106 154 57 102 149 48 90 134 54 99 145
55 99 145 50 93 137 57 102 149 56 101 147 57 103 150 51 93 138 135 103 142 60 107 155 58 104 151 63 110 160 59 106 154 62 109 158 54 99 145 133 103 143 62 109 158 119 105 147
53 97 142 91 109 154 49 91 134 68 112 161 57 102 149 51 94 138 59 105 152 48 90 133 57 103 150 60 106 155 61 108 157 74 111 159 51 94 139 59 105 153 60 107 155 60 107 155
50 93 138 59 105 153 63 110 160 50 93 138 57 102 149 51 94 138 115 106 148 56 101 148 61 108 157 61 108 156 58 104 152 55 99 145 70 111 160 58 104 152 57 102 149 51 94 139
54 99 145 54 98 144 63 111 161 53 97 143 85 109 156 127 104 144 56 101 148 81 110 157 85 109 156 62 110 159 63 111 161 51 95 139 60 107 155 50 93 137 57 103 150 60 107 155
56 102 148 132 103 143 141 102 141 50 92 137 48 90 134 57 103 150 56 101 148 55 100 147 59 105 153 60 107 155 63 111 160 90 109 155 53 96 141 58 104 151 58 103 150 49 92 136
90 109 155 53 96 141 63 111 161 56 102 148 51 94 138 51 94 138 105 107 150 58 104 152 102 107 151 57 103 150 88 109 155 120 105 146 62 110 159 22 26 27 22 26 27 22 26 27
22 26 27 22 26 27 22 26 27 22 26 27 22 26 27 22 26 27 83 86 80 96 98 91 92 94 87 107 108 99 98 100 92 92 95 88 93 95 88 109 110 101 100 102 94 80 83 78
83 86 81 94 96 89 88 90 84 83 86 80 22 26 27 22 26 27 22 26 27 22 26 27 22 26 27 22 26 27 22 26 27 22 26 27 22 26 27 22 26 27 22 26 27 22 26 27
22 26 27 22 26 27 22 26 27 22 26 27 22 26 27 22 26 27 22 26 27 22 26 27 22 26 27 22 26 27 22 26 27 22 26 27 22 26 27 22 26 27 22 26 27 22 26 27
22 26 27 22 26 27 22 26 27 22 26 27 22 26 27 22 26 27 22 26 27 22 26 27 22 26 27 22 26 27 22 26 27 22 26 27 22 26 27 22 26 27 22 26 27 22 26 27
22 26 27 22 26 27 22 26 27 22 26 27 22 26 27 22 26 27 22 26 27 22 26 27 22 26 27 22 26 27 22 26 27 22 26 27 22 26 27 22 26 27 22 26 27 22 26 27
22 26 27 22 26 27 22 26 27 22 26 27 22 26 27 22 26 27 22 26 27 22 26 27 22 26 27 22 26 27 22 26 27 22 26 27 22 26 27 22 26 27 22 26 27 22 26 27
22 26 27 22 26 27 22 26 27 22 26 27 22 26 27 22 26 27 22 26 27 22 26 27 22 26 27 22 26 27 22 26 27 22 26 27 22 26 27 22 26 27 22 26 27 22 26 27
22 26 27 22 26 27 22 26 27 22 26 27 22 26 27 22 26 27 22 26 27 22 26 27 22 26 27 22 26 27 22 26 27 22 26 27 22 26 27 22 26 27 22 26 27 22 26 27
22 26 27 22 26 27 22 26 27 89 93 93 73 77 77 78 82 82 22 26 27 74 78 78 89 93 93 91 95 95 74 78 78 22 26 27 79 83 83 86 90 90 89 93 93 89 93 93
59 103 150 53 95 139 91 114 161 63 110 158 53 95 139 62 108 156 59 104 150 52 95 139 65 112 161 63 109 157 66 114 164 54 97 142 119 110 153 62 108 156 59 104 150 73 116 165
62 108 156 63 109 157 125 109 151 61 107 155 66 114 164 56 100 145 118 110 153 65 112 161 63 109 157 98 113 159 52 94 138 65 112 161 57 100 146 63 110 158 65 112 161 95 113 160
111 111 155 59 103 150 130 109 150 62 108 156 66 114 164 58 103 149 56 99 144 65 112 161 81 115 163 64 110 159 62 108 156 55 98 143 61 107 154 66 114 164 60 105 153 62 108 155
60 105 152 57 100 146 68 116 166 98 113 159 67 115 164 57 101 146 54 97 142 54 97 141 67 115 164 54 97 142 58 103 150 59 104 151 64 111 160 62 109 157 67 115 166 53 96 140
67 116 166 54 97 142 58 102 148 65 112 161 140 107 147 57 101 147 71 116 166 134 108 149 109 111 156 53 96 140 60 106 153 61 106 154 55 98 143 66 113 163 126 109 151 63 109 158
54 97 142 58 102 149 63 109 158 64 111 160 57 101 147 58 102 148 57 101 147 64 111 159 60 105 152 64 111 159 62 108 156 61 106 153 130 109 150 54 97 142 66 114 164 60 105 152
53 96 140 53 96 140 57 101 147 55 98 143 53 95 139 55 98 143 57 101 147 60 105 152 108 111 156 83 115 163 64 111 159 59 103 150 56 99 144 22 26 27 22 26 27 22 26 27
22 26 27 22 26 27 22 26 27 22 26 27 22 26 27 22 26 27 97 99 91 83 86 81 94 96 90 108 110 101 84 86 81 83 86 81 106 107 99 107 109 100 93 95 89 107 108 99
92 94 87 98 100 93 80 83 78 100 102 94 22 26 27 22 26 27 22 26 27 22 26 27 22 26 27 22 26 27 22 26 27 22 26 27 22 26 27 22 26 27 22 26 27 22 26 27
22 26 27 22 26 27 22 26 27 22 26 27 22 26 27 22 26 27 22 26 27 22 26 27 22 26 27 22 26 27 22 26 27 22 26 27 22 26 27 22 26 27 22 26 27 22 26 27
22 26 27 22 26 27 22 26 27 22 26 27 22 26 27 22 26 27 22 26 27 22 26 27 22 26 27 22 26 27 22 26 27 22 26 27 22 26 27 22 26 27 22 26 27 22 26 27
22 26 27 22 26 27 22 26 27 22 26 27 22 26 27 22 26 27 22 26 27 22 26 27 22 26 27 22 26 27 22 26 27 22 26 27 22 26 27 22 26 27 22 26 27 22 26 27
22 26 27 22 26 27 22 26 27 22 26 27 22 26 27 22 26 27 22 26 27 22 26 27 22 26 27 22 26 27 22 26 27 22 26 27 22 26 27 22 26 27 22 26 27 22 26 27
22 26 27 22 26 27 22 26 27 22 26 27 22 26 27 22 26 27 22 26 27 22 26 27 22 26 27 22 26 27 22 26 27 22 26 27 22 26 27 22 26 27 22 26 27 22 26 27
22 26 27 22 26 27 22 26 27 22 26 27 22 26 27 22 26 27 22 26 27 22 26 27 22 26 27 22 26 27 22 26 27 22 26 27 22 26 27 22 26 27 22 26 27 22 26 27
22 26 27 22 26 27 22 26 27 78 82 82 91 95 95 74 78 78 22 26 27 85 89 89 77 81 81 91 95 95 91 95 95 22 26 27 86 90 90 78 82 82 72 76 76 77 81 81
67 114 164 119 112 155 75 117 167 68 117 167 54 96 141 86 116 164 58 102 148 66 113 162 56 99 145 66 113 162 63 109 157 58 102 148 59 103 150 123 111 154 57 101 147 65 112 160
69 118 168 54 96 140 65 112 161 57 100 146 64 110 158 59 103 150 70 118 168 60 105 151 109 113 158 145 108 148 60 105 152 103 114 159 145 108 148 54 97 141 61 106 154 58 102 148
56 99 145 61 106 153 68 116 165 58 101 147 62 107 155 55 98 142 60 105 152 66 113 163 65 112 161 59 103 149 59 104 150 61 106 154 100 114 160 84 116 165 55 98 143 66 113 162
60 105 152 68 116 166 57 100 146 63 109 156 64 110 158 65 112 161 66 114 163 58 102 149 143 109 148 63 108 156 55 97 142 64 111 159 67 115 165 58 101 147 65 112 161 61 106 154
60 105 152 68 116 165 55 98 142 126 111 153 66 113 162 65 112 161 64 111 159 61 107 154 60 105 152 121 111 154 99 114 160 66 113 162 54 96 141 64 110 159 66 113 162 55 98 143
101 114 160 63 109 157 64 111 160 56 99 144 107 113 158 55 97 142 54 96 141 63 109 156 55 98 143 108 113 158 125 111 153 57 101 147 54 96 141 66 113 163 59 104 151 62 108 155
68 116 166 56 99 144 69 118 168 68 116 165 62 107 155 64 110 159 56 99 145 62 108 156 68 116 166 59 104 150 63 110 158 60 104 151 62 108 155 22 26 27 22 26 27 22 26 27
22 26 27 22 26 27 22 26 27 22 26 27 22 26 27 22 26 27 86 89 83 93 95 88 95 97 90 80 83 78 86 88 82 86 88 83 93 95 88 83 86 81 108 109 100 89 91 85
107 108 99 86 88 83 83 86 80 95 97 90 22 26 27 22 26 27 22 26 27 22 26 27 22 26 27 22 26 27 22 26 27 22 26 27 22 26 27 22 26 27 22 26 27 22 26 27
22 26 27 22 26 27 22 26 27 22 26 27 22 26 27 22 26 27 22 26 27 22 26 27 22 26 27 22 26 27 22 26 27 22 26 27 22 26 27 22 26 27 22 26 27 22 26 27
22 26 27 22 26 27 22 26 27 22 26 27 22 26 27 22 26 27 22 26 27 22 26 27 22 26 27 22 26 27 22 26 27 22 26 27 22 26 27 22 26 27 22 26 27 22 26 27
22 26 27 22 26 27 22 26 27 22 26 27 22 26 27 22 26 27 22 26 27 22 26 27 22 26 27 22 26 27 22 26 27 22 26 27 22 26 27 22 26 27 22 26 27 22 26 27
22 26 27 22 26 27 22 26 27 22 26 27 22 26 27 22 26 27 22 26 27 22 26 27 22 26 27 22 26 27 22 26 27 22 26 27 22 26 27 22 26 27 22 26 27 22 26 27
22 26 27 22 26 27 22 26 27 22 26 27 22 26 27 22 26 27 22 26 27 22 26 27 22 26 27 22 26 27 22 26 27 22 26 27 22 26 27 22 26 27 22 26 27 22 26 27
22 26 27 22 26 27 22 26 27 22 26 27 22 26 27 22 26 27 22 26 27 22 26 27 22 26 27 22 26 27 22 26 27 22 26 27 22 26 27 22 26 27 22 26 27 22 26 27
22 26 27 22 26 27 22 26 27 80 84 84 69 73 73 87 91 91 22 26 27 77 81 81 74 78 78 69 73 73 71 75 75 22 26 27 71 75 75 92 96 96 85 89 89 77 81 81
61 107 155 69 116 166 72 115 165 63 110 159 54 96 141 59 104 151 101 112 157 62 109 157 57 101 148 63 110 159 63 109 157 67 116 166 114 110 153 61 107 154 54 97 142 58 103 150
51 93 137 66 113 163 63 109 158 53 96 140 63 109 157 51 93 137 54 97 142 84 114 162 91 113 160 52 94 139 54 97 142 54 97 142 141 107 146 61 107 154 65 112 161 127 108 150
66 114 163 58 103 149 54 97 141 53 95 140 60 105 152 57 101 147 76 115 164 59 104 151 64 112 161 97 112 158 67 115 166 92 113 159 58 102 148 101 112 157 53 96 141 55 99 144
55 98 143 57 101 147 128 108 149 58 103 150 67 115 164 76 115 164 63 110 158 51 93 137 60 106 153 55 98 143 60 106 153 61 106 154 67 115 165 64 111 160 59 104 151 55 98 143
60 106 153 66 114 164 55 98 144 58 103 149 83 114 162 67 115 165 104 111 156 139 107 147 60 105 153 56 100 146 51 93 137 65 113 162 57 101 147 58 102 149 55 99 144 144 106 145
110 110 155 57 102 148 66 114 164 60 106 153 52 94 138 75 115 164 54 97 141 53 96 140 66 114 164 105 111 156 52 94 138 61 107 154 65 112 161 106 111 155 61 107 155 62 108 157
66 113 163 142 106 146 61 107 155 67 115 165 53 95 140 53 95 140 58 103 149 80 114 163 58 103 149 143 106 145 61 107 155 63 110 158 64 111 160 22 26 27 22 26 27 22 26 27
22 26 27 22 26 27 22 26 27 22 26 27 22 26 27 22 26 27 91 93 87 108 110 101 96 98 91 103 105 97 86 89 83 102 103 95 102 104 96 94 96 90 104 105 97 94 97 90
99 101 93 107 108 100 87 90 84 108 110 101 22 26 27 22 26 27 22 26 27 22 26 27 22 26 27 22 26 27 22 26 27 22 26 27 22 26 27 22 26 27 22 26 27 22 26 27
22 26 27 22 26 27 22 26 27 22 26 27 22 26 27 22 26 27 22 26 27 22 26 27 22 26 27 22 26 27 22 26 27 22 26 27 22 26 27 22 26 27 22 26 27 22 26 27
22 26 27 22 26 27 22 26 27 22 26 27 22 26 27 22 26 27 22 26 27 22 26 27 22 26 27 22 26 27 22 26 27 22 26 27 22 26 27 22 26 27 22 26 27 22 26 27
22 26 27 22 26 27 22 26 27 22 26 27 22 26 27 22 26 27 22 26 27 22 26 27 22 26 27 22 26 27 22 26 27 22 26 27 22 26 27 22 26 27 22 26 27 22 26 27
22 26 27 22 26 27 22 26 27 22 26 27 22 26 27 22 26 27 22 26 27 22 26 27 22 26 27 22 26 27 22 26 27 22 26 27 22 26 27 22 26 27 22 26 27 22 26 27
22 26 27 22 26 27 22 26 27 22 26 27 22 26 27 22 26 27 22 26 27 22 26 27 22 26 27 22 26 27 22 26 27 22 26 27 22 26 27 22 26 27 22 26 27 22 26 27
22 26 27 22 26 27 22 26 27 22 26 27 22 26 27 22 26 27 22 26 27 22 26 27 22 26 27 22 26 27 22 26 27 22 26 27 22 26 27 22 26 27 22 26 27 22 26 27
22 26 27 22 26 27 22 26 27 71 75 75 81 85 85 79 83 83 22 26 27 73 77 77 93 97 97 77 81 81 76 80 80 22 26 27 76 80 80 76 80 80 81 85 85 74 78 78
60 107 155 61 109 158 57 103 150 60 107 155 54 98 145 59 106 154 48 91 135 58 104 151 50 93 137 62 110 160 132 102 142 51 94 139 48 91 134 57 103 151 60 107 155 60 107 155
97 107 151 54 99 145 54 99 145 51 94 139 59 106 154 52 96 142 56 102 149 47 89 133 53 98 144 47 88 131 49 91 136 51 94 138 52 96 141 55 100 147 52 95 140 54 98 144
51 94 139 56 101 148 53 97 143 59 106 154 56 101 148 113 105 147 51 94 139 47 89 132 50 92 137 104 106 149 86 108 154 51 94 139 49 92 136 55 100 147 60 106 155 51 95 140
98 106 151 60 107 155 59 106 154 62 110 160 52 96 141 51 95 140 47 89 133 57 102 150 58 104 152 62 109 159 60 107 155 49 92 136 62 110 160 62 109 158 75 109 157 54 99 145
51 94 139 63 111 160 63 111 160 53 97 143 54 98 145 60 108 156 49 92 136 62 110 159 57 103 151 46 88 131 56 101 148 47 88 132 131 102 142 49 91 136 54 99 145 59 105 153
61 108 157 63 111 160 49 92 136 59 106 154 52 96 141 62 110 159 57 103 150 49 91 135 55 100 146 61 108 157 47 89 132 51 95 140 50 92 137 61 108 157 54 99 145 63 111 160
62 109 158 54 99 146 60 107 155 54 99 145 115 104 146 62 109 158 53 98 143 58 104 152 61 109 158 57 103 151 125 103 143 58 105 153 118 104 145 22 26 27 22 26 27 22 26 27
22 26 27 22 26 27 22 26 27 22 26 27 22 26 27 22 26 27 81 84 78 93 95 88 101 103 95 90 92 86 90 92 86 99 101 93 100 101 94 88 90 84 89 91 85 81 84 79
84 87 81 100 102 94 87 90 84 105 106 98 22 26 27 22 26 27 22 26 27 22 26 27 22 26 27 22 26 27 22 26 27 22 26 27 22 26 27 22 26 27 22 26 27 22 26 27
22 26 27 22 26 27 22 26 27 22 26 27 22 26 27 22 26 27 22 26 27 22 26 27 22 26 27 22 26 27 22 26 27 22 26 27 22 26 27 22 26 27 22 26 27 22 26 27
22 26 27 22 26 27 22 26 27 22 26 27 22 26 27 22 26 27 22 26 27 22 26 27 22 26 27 22 26 27 22 26 27 22 26 27 22 26 27 22 26 27 22 26 27 22 26 27
22 26 27 22 26 27 22 26 27 22 26 27 22 26 27 22 26 27 22 26 27 22 26 27 22 26 27 22 26 27 22 26 27 22 26 27 22 26 27 22 26 27 22 26 27 22 26 27
22 26 27 22 26 27 22 26 27 22 26 27 22 26 27 22 26 27 22 26 27 22 26 27 22 26 27 22 26 27 22 26 27 22 26 27 22 26 27 22 26 27 22 26 27 22 26 27
22 26 27 22 26 27 22 26 27 22 26 27 22 26 27 22 26 27 22 26 27 22 26 27 22 26 27 22 26 27 22 26 27 22 26 27 22 26 27 22 26 27 22 26 27 22 26 27
22 26 27 22 26 27 22 26 27 22 26 27 22 26 27 22 26 27 22 26 27 22 26 27 22 26 27 22 26 27 22 26 27 22 26 27 22 26 27 22 26 27 22 26 27 22 26 27
22 26 27 22 26 27 22 26 27 74 78 78 72 76 76 88 92 92 22 26 27 87 91 91 84 88 88 73 77 77 86 90 90 22 26 27 83 87 87 91 95 95 73 77 77 89 93 93
46 89 134 49 93 139 46 90 134 99 99 142 49 93 139 50 95 141 55 102 150 48 93 138 47 91 136 48 93 138 52 98 145 41 83 125 43 85 128 57 104 153 43 85 128 42 83 126
46 90 134 81 102 147 87 101 145 57 104 153 49 94 140 87 101 145 46 90 134 53 99 146 56 103 152 83 101 146 103 99 141 57 104 153 50 95 141 54 101 149 120 97 136 55 102 150
47 90 135 45 87 131 87 101 145 69 103 150 41 82 124 43 85 128 55 102 150 42 83 126 42 84 127 119 97 136 47 91 136 74 102 149 46 89 134 47 91 136 42 84 127 96 100 142
48 92 138 72 103 149 83 101 146 56 103 151 87 101 145 57 104 153 50 95 141 45 88 133 49 94 139 43 85 128 61 104 152 125 96 135 77 102 148 48 92 137 49 94 140 47 91 136
44 86 130 55 102 150 50 95 141 43 85 129 50 94 140 52 98 145 55 101 149 46 89 134 41 83 125 50 95 141 55 102 151 44 87 130 53 99 146 123 96 135 44 87 131 51 97 143
41 83 125 48 93 138 51 96 142 55 102 150 57 104 153 43 85 129 55 102 150 53 99 146 52 98 145 41 83 125 45 89 133 44 86 129 52 98 145 46 89 134 45 87 131 43 85 129
98 99 142 43 85 128 84 101 146 43 86 129 55 102 150 56 103 151 46 89 133 56 103 152 55 102 151 67 103 151 90 100 144 50 95 141 48 92 137 22 26 27 22 26 27 22 26 27
22 26 27 22 26 27 22 26 27 22 26 27 22 26 27 22 26 27 107 109 100 105 106 98 83 86 80 96 98 91 96 98 91 92 95 88 106 108 99 81 84 79 85 88 82 89 91 85
83 86 80 87 89 84 87 90 84 98 100 93 22 26 27 22 26 27 22 26 27 22 26 27 22 26 27 22 26 27 22 26 27 22 26 27 22 26 27 22 26 27 22 26 27 22 26 27
22 26 27 22 26 27 22 26 27 22 26 27 22 26 27 22 26 27 22 26 27 22 26 27 22 26 27 22 26 27 22 26 27 22 26 27 22 26 27 22 26 27 22 26 27 22 26 27
22 26 27 22 26 27 22 26 27 22 26 27 22 26 27 22 26 27 22 26 27 22 26 27 22 26 27 22 26 27 22 26 27 22 26 27 22 26 27 22 26 27 22 26 27 22 26 27
22 26 27 22 26 27 22 26 27 22 26 27 22 26 27 22 26 27 22 26 27 22 26 27 22 26 27 22 26 27 22 26 27 22 26 27 22 26 27 22 26 27 22 26 27 22 26 27
22 26 27 22 26 27 22 26 27 22 26 27 22 26 27 22 26 27 22 26 27 22 26 27 22 26 27 22 26 27 22 26 27 22 26 27 22 26 27 22 26 27 22 26 27 22 26 27
22 26 27 22 26 27 22 26 27 22 26 27 22 26 27 22 26 27 22 26 27 22 26 27 22 26 27 22 26 27 22 26 27 22 26 27 22 26 27 22 26 27 22 26 27 22 26 27
22 26 27 22 26 27 22 26 27 22 26 27 22 26 27 22 26 27 22 26 27 22 26 27 22 26 27 22 26 27 22 26 27 22 26 27 22 26 27 22 26 27 22 26 27 22 26 27
22 26 27 22 26 27 22 26 27 81 85 85 89 93 93 80 84 84 22 26 27 91 95 95 71 75 75 78 82 82 91 95 95 22 26 27 84 88 88 93 97 97 72 76 76 83 87 87
38 80 122 35 76 117 38 81 123 39 82 125 41 84 128 47 92 139 50 97 145 47 93 139 50 97 144 44 88 134 45 90 136 49 95 142 37 78 121 39 81 124 36 77 119 43 87 132
40 83 126 51 98 146 39 82 125 50 96 144 37 79 122 44 88 133 123 89 127 37 79 121 97 93 134 41 84 128 47 92 138 48 94 141 36 77 119 129 89 125 35 76 117 36 77 119
35 76 117 37 78 121 43 87 132 36 77 118 37 78 120 44 88 133 42 86 130 46 91 137 38 80 123 125 89 126 47 93 140 47 93 139 45 90 136 38 80 123 44 89 134 47 92 138
46 92 137 36 77 118 129 88 125 38 80 122 46 91 137 49 95 143 37 78 120 51 98 146 40 83 126 42 85 129 41 84 127 49 95 142 45 90 135 40 83 126 46 91 137 36 77 119
101 92 133 47 92 139 45 90 135 90 93 136 45 90 136 58 97 144 48 94 141 45 89 135 38 80 123 81 95 138 39 81 124 40 83 126 71 96 141 51 98 145 47 93 139 113 90 129
46 91 137 35 76 118 48 95 142 122 89 127 41 84 128 41 84 127 64 97 143 44 89 134 38 80 123 47 92 138 46 92 137 44 88 133 64 97 143 43 87 132 122 89 127 50 97 144
38 79 122 48 94 141 39 81 124 45 90 135 42 86 130 43 87 131 45 90 135 42 85 129 42 86 131 110 91 130 73 96 140 41 84 127 47 93 139 22 26 27 22 26 27 22 26 27
22 26 27 22 26 27 22 26 27 22 26 27 22 26 27 22 26 27 85 88 82 87 90 84 101 103 95 106 107 99 87 90 84 94 96 89 103 104 96 91 93 87 101 102 95 89 92 85
83 86 81 91 93 87 88 90 84 92 94 87 22 26 27 22 26 27 22 26 27 22 26 27 22 26 27 22 26 27 22 26 27 22 26 27 22 26 27 22 26 27 22 26 27 22 26 27
22 26 27 22 26 27 22 26 27 22 26 27 22 26 27 22 26 27 22 26 27 22 26 27 22 26 27 22 26 27 22 26 27 22 26 27 22 26 27 22 26 27 22 26 27 22 26 27
22 26 27 22 26 27 22 26 27 22 26 27 22 26 27 22 26 27 22 26 27 22 26 27 22 26 27 22 26 27 22 26 27 22 26 27 22 26 27 22 26 27 22 26 27 22 26 27
22 26 27 22 26 27 22 26 27 22 26 27 22 26 27 22 26 27 22 26 27 22 26 27 22 26 27 22 26 27 22 26 27 22 26 27 22 26 27 22 26 27 22 26 27 22 26 27
22 26 27 22 26 27 22 26 27 22 26 27 22 26 27 22 26 27 22 26 27 22 26 27 22 26 27 22 26 27 22 26 27 22 26 27 22 26 27 22 26 27 22 26 27 22 26 27
22 26 27 22 26 27 22 26 27 22 26 27 22 26 27 22 26 27 22 26 27 22 26 27 22 26 27 22 26 27 22 26 27 22 26 27 22 26 27 22 26 27 22 26 27 22 26 27
22 26 27 22 26 27 22 26 27 22 26 27 22 26 27 22 26 27 22 26 27 22 26 27 22 26 27 22 26 27 22 26 27 22 26 27 22 26 27 22 26 27 22 26 27 22 26 27
22 26 27 22 26 27 22 26 27 71 75 75 90 94 94 71 75 75 22 26 27 76 80 80 93 97 97 70 74 74 78 82 82 22 26 27 91 95 95 88 92 92 72 76 76 73 77 77
40 84 128 36 78 121 37 81 124 34 76 118 67 91 135 31 71 112 93 88 128 39 83 127 31 72 113 34 76 119 39 83 127 107 86 124 94 88 128 104 86 125 43 89 134 38 81 125
57 92 138 40 84 128 42 87 132 42 87 132 42 87 132 39 83 127 37 79 123 39 83 127 45 91 138 86 88 130 76 90 133 94 88 128 35 77 119 42 88 133 110 86 123 36 79 122
32 73 115 36 79 122 31 71 112 46 92 140 42 87 133 34 76 119 34 76 118 45 92 138 33 74 116 57 92 138 36 79 123 33 74 116 42 87 133 41 86 131 33 74 116 43 89 135
115 85 122 32 73 114 41 86 131 34 76 118 44 90 136 41 85 130 44 89 135 38 82 126 37 79 123 32 73 115 43 88 134 42 87 133 37 80 124 41 86 131 43 89 135 35 77 120
35 78 120 40 84 128 44 89 135 33 75 116 34 76 119 34 76 118 45 92 139 34 76 118 37 81 124 41 86 131 45 91 137 44 90 136 41 86 131 33 74 116 42 87 132 34 75 118
40 84 129 31 72 113 44 90 136 31 72 113 39 83 127 125 84 119 33 74 116 125 84 119 45 92 139 34 76 118 39 83 127 32 73 115 45 92 139 46 93 140 42 87 133 38 81 125
42 87 132 38 81 125 87 88 130 36 79 122 41 85 130 46 92 139 57 92 138 34 76 119 43 88 134 41 86 131 38 81 125 36 79 122 39 82 126 22 26 27 22 26 27 22 26 27
22 26 27 22 26 27 22 26 27 22 26 27 22 26 27 22 26 27 96 98 91 105 106 98 92 95 88 98 100 93 87 89 83 94 96 89 99 101 93 105 107 98 82 85 79 89 91 85
104 106 97 98 100 92 107 108 99 97 99 91 22 26 27 22 26 27 22 26 27 22 26 27 22 26 27 22 26 27 22 26 27 22 26 27 22 26 27 22 26 27 22 26 27 22 26 27
22 26 27 22 26 27 22 26 27 22 26 27 22 26 27 22 26 27 22 26 27 22 26 27 22 26 27 22 26 27 22 26 27 22 26 27 22 26 27 22 26 27 22 26 27 22 26 27
22 26 27 22 26 27 22 26 27 22 26 27 22 26 27 22 26 27 22 26 27 22 26 27 22 26 27 22 26 27 22 26 27 22 26 27 22 26 27 22 26 27 22 26 27 22 26 27
22 26 27 22 26 27 22 26 27 22 26 27 22 26 27 22 26 27 22 26 27 22 26 27 22 26 27 22 26 27 22 26 27 22 26 27 22 26 27 22 26 27 22 26 27 22 26 27
22 26 27 22 26 27 22 26 27 22 26 27 22 26 27 22 26 27 22 26 27 22 26 27 22 26 27 22 26 27 22 26 27 22 26 27 22 26 27 22 26 27 22 26 27 22 26 27
22 26 27 22 26 27 22 26 27 22 26 27 22 26 27 22 26 27 22 26 27 22 26 27 22 26 27 22 26 27 22 26 27 22 26 27 22 26 27 22 26 27 22 26 27 22 26 27
22 26 27 22 26 27 22 26 27 22 26 27 22 26 27 22 26 27 22 26 27 22 26 27 22 26 27 22 26 27 22 26 27 22 26 27 22 26 27 22 26 27 22 26 27 22 26 27
22 26 27 22 26 27 22 26 27 77 81 81 91 95 95 83 87 87 22 26 27 86 90 90 85 89 89 70 74 74 79 83 83 22 26 27 90 94 94 82 86 86 85 89 89 83 87 87
35 78 121 30 72 114 34 77 120 38 83 128 37 81 125 43 90 137 35 78 122 28 69 109 38 82 126 30 72 113 44 90 137 122 80 116 34 76 119 32 73 115 52 89 135 37 81 125
96 84 123 33 75 117 90 84 124 33 76 119 43 90 136 38 82 127 43 90 137 29 71 112 29 70 111 43 90 136 32 74 117 106 82 120 40 86 131 30 71 112 29 69 110 40 85 131
71 87 130 37 81 125 35 78 121 59 88 133 33 75 118 42 89 135 29 70 112 34 77 120 41 86 132 30 71 112 29 69 110 43 90 136 38 82 127 40 85 130 31 73 115 42 88 134
34 76 119 109 82 119 36 80 124 35 78 121 43 90 136 36 80 123 42 88 134 85 85 126 29 70 112 32 74 116 43 90 137 37 81 125 107 82 120 39 84 129 27 67 108 40 85 131
28 68 109 45 90 137 84 85 126 43 90 136 27 67 108 41 86 132 29 69 110 51 89 135 32 74 116 43 90 136 82 85 127 38 83 127 40 85 131 117 81 117 32 74 116 30 72 113
72 87 129 30 71 112 43 90 137 40 86 132 51 89 135 27 68 108 28 69 109 36 79 123 49 90 136 39 84 129 42 88 134 37 80 124 39 84 129 38 83 127 28 68 108 32 74 116
69 87 130 86 85 126 38 83 128 41 87 133 37 82 126 40 86 131 43 89 136 33 76 118 32 74 116 34 76 119 41 87 133 30 71 113 43 89 136 22 26 27 22 26 27 22 26 27
22 26 27 22 26 27 22 26 27 22 26 27 22 26 27 22 26 27 106 107 99 90 92 86 82 84 79 81 84 79 88 90 84 83 86 81 97 99 91 86 89 83 100 102 94 91 94 87
94 96 89 90 92 86 100 101 94 95 97 90 22 26 27 22 26 27 22 26 27 22 26 27 22 26 27 22 26 27 22 26 27 22 26 27 22 26 27 22 26 27 22 26 27 22 26 27
22 26 27 22 26 27 22 26 27 22 26 27 22 26 27 22 26 27 22 26 27 22 26 27 22 26 27 22 26 27 22 26 27 22 26 27 22 26 27 22 26 27 22 26 27 22 26 27
22 26 27 22 26 27 22 26 27 22 26 27 22 26 27 22 26 27 22 26 27 22 26 27 22 26 27 22 26 27 22 26 27 22 26 27 22 26 27 22 26 27 22 26 27 22 26 27
22 26 27 22 26 27 22 26 27 22 26 27 22 26 27 22 26 27 22 26 27 22 26 27 22 26 27 22 26 27 22 26 27 22 26 27 22 26 27 22 26 27 22 26 27 22 26 27
22 26 27 22 26 27 22 26 27 22 26 27 22 26 27 22 26 27 22 26 27 22 26 27 22 26 27 22 26 27 22 26 27 22 26 27 22 26 27 22 26 27 22 26 27 22 26 27
22 26 27 22 26 27 22 26 27 22 26 27 22 26 27 22 26 27 22 26 27 22 26 27 22 26 27 22 26 27 22 26 27 22 26 27 22 26 27 22 26 27 22 26 27 22 26 27
22 26 27 22 26 27 22 26 27 22 26 27 22 26 27 22 26 27 22 26 27 22 26 27 22 26 27 22 26 27 22 26 27 22 26 27 22 26 27 22 26 27 22 26 27 22 26 27
22 26 27 22 26 27 22 26 27 86 90 90 81 85 85 79 83 83 22 26 27 77 81 81 82 86 86 81 85 85 90 94 94 22 26 27 93 97 97 86 90 90 85 89 89 69 73 73
29 70 111 29 70 111 108 80 117 31 73 115 38 82 127 119 79 114 65 85 128 36 80 124 37 82 127 50 87 133 118 79 114 26 66 106 59 86 130 39 84 129 40 86 132 35 79 123
31 73 116 35 79 123 89 82 122 28 69 110 42 88 135 30 72 114 41 88 134 26 67 107 26 67 107 26 66 106 84 83 123 28 69 110 38 84 129 35 79 123 33 77 120 32 74 117
40 86 132 28 69 110 28 69 110 31 73 115 27 68 109 36 80 124 33 77 120 36 80 125 29 71 113 38 83 128 40 85 131 40 86 132 34 77 120 41 88 134 28 68 109 81 83 124
37 82 126 31 74 116 35 79 123 35 79 123 27 68 109 26 67 107 38 83 128 35 79 123 34 78 121 35 79 123 84 83 124 29 71 112 32 74 117 38 83 129 27 68 109 37 82 126
26 66 106 39 84 130 33 76 119 29 70 112 40 86 132 29 71 112 28 69 110 39 85 130 41 87 133 32 75 118 28 69 110 26 66 106 33 76 119 28 69 111 30 72 113 27 68 108
40 86 132 41 87 133 34 77 120 86 83 123 34 78 121 31 74 116 36 80 125 28 68 109 34 78 121 28 69 111 97 81 120 34 77 120 32 75 118 34 78 121 26 66 106 26 66 106
33 76 119 38 84 129 41 87 133 57 86 131 41 88 134 66 85 128 25 65 105 36 81 125 38 83 128 32 75 118 25 65 106 27 68 109 34 78 121 22 26 27 22 26 27 22 26 27
22 26 27 22 26 27 22 26 27 22 26 27 22 26 27 22 26 27 104 106 97 86 89 83 98 100 93 95 97 90 93 95 88 100 101 94 98 99 92 105 106 98 107 108 99 98 100 92
105 106 98 90 92 86 97 99 92 91 93 87 22 26 27 22 26 27 22 26 27 22 26 27 22 26 27 22 26 27 22 26 27 22 26 27 22 26 27 22 26 27 22 26 27 22 26 27
22 26 27 22 26 27 22 26 27 22 26 27 22 26 27 22 26 27 22 26 27 22 26 27 22 26 27 22 26 27 22 26 27 22 26 27 22 26 27 22 26 27 22 26 27 22 26 27
22 26 27 22 26 27 22 26 27 22 26 27 22 26 27 22 26 27 22 26 27 22 26 27 22 26 27 22 26 27 22 26 27 22 26 27 22 26 27 22 26 27 22 26 27 22 26 27
22 26 27 22 26 27 22 26 27 22 26 27 22 26 27 22 26 27 22 26 27 22 26 27 22 26 27 22 26 27 22 26 27 22 26 27 22 26 27 22 26 27 22 26 27 22 26 27
22 26 27 22 26 27 22 26 27 22 26 27 22 26 27 22 26 27 22 26 27 22 26 27 22 26 27 22 26 27 22 26 27 22 26 27 22 26 27 22 26 27 22 26 27 22 26 27
22 26 27 22 26 27 22 26 27 22 26 27 22 26 27 22 26 27 22 26 27 22 26 27 22 26 27 22 26 27 22 26 27 22 26 27 22 26 27 22 26 27 22 26 27 22 26 27
22 26 27 22 26 27 22 26 27 22 26 27 22 26 27 22 26 27 22 26 27 22 26 27 22 26 27 22 26 27 22 26 27 22 26 27 22 26 27 22 26 27 22 26 27 22 26 27
22 26 27 22 26 27 22 26 27 89 93 93 86 90 90 90 94 94 22 26 27 84 88 88 85 89 89 76 80 80 85 89 89 22 26 27 87 91 91 82 86 86 73 77 77 70 74 74
39 85 131 40 86 132 112 77 113 37 83 128 37 82 127 32 75 118 28 70 112 36 81 126 31 74 117 28 69 111 33 76 120 29 71 113 26 67 108 38 84 130 32 76 119 37 82 127
35 79 124 35 79 124 36 81 126 39 85 131 25 66 107 82 81 121 37 83 128 28 69 110 26 67 108 24 63 103 40 86 133 37 82 127 35 79 123 32 76 119 24 64 104 61 84 127
34 78 122 32 75 118 34 78 122 36 81 125 26 67 108 31 73 116 30 72 114 98 79 117 94 80 118 35 79 123 34 78 123 38 84 130 34 79 123 31 74 117 37 82 127 27 68 109
37 83 128 39 85 130 40 86 132 31 74 117 39 85 130 67 83 125 59 84 128 82 81 121 31 74 117 40 86 132 47 85 131 27 68 109 26 67 108 110 77 114 38 83 129 29 71 112
33 76 120 55 84 129 39 85 132 88 80 120 34 79 123 24 64 104 32 75 118 73 82 124 37 82 127 36 81 125 26 67 108 25 66 107 31 74 117 35 79 124 27 69 110 99 79 117
39 85 130 90 80 119 40 86 133 25 66 106 28 70 112 27 69 110 33 77 120 30 73 115 30 72 115 32 75 118 26 67 108 39 86 132 30 73 115 40 86 133 36 81 126 53 85 129
39 85 131 36 81 125 30 72 114 109 78 114 36 81 126 36 81 126 24 63 103 35 80 124 27 68 109 36 81 125 39 86 132 78 81 122 32 75 119 22 26 27 22 26 27 22 26 27
22 26 27 22 26 27 22 26 27 22 26 27 22 26 27 22 26 27 102 103 95 92 94 88 110 111 102 105 106 98 89 92 86 82 85 79 99 100 93 95 97 90 94 96 89 90 92 86
80 83 78 83 86 80 110 111 102 98 100 92 22 26 27 22 26 27 22 26 27 22 26 27 22 26 27 22 26 27 22 26 27 22 26 27 22 26 27 22 26 27 22 26 27 22 26 27
22 26 27 22 26 27 22 26 27 22 26 27 22 26 27 22 26 27 22 26 27 22 26 27 22 26 27 22 26 27 22 26 27 22 26 27 22 26 27 22 26 27 22 26 27 22 26 27
22 26 27 22 26 27 22 26 27 22 26 27 22 26 27 22 26 27 22 26 27 22 26 27 22 26 27 22 26 27 22 26 27 22 26 27 22 26 27 22 26 27 22 26 27 22 26 27
22 26 27 22 26 27 22 26 27 22 26 27 22 26 27 22 26 27 22 26 27 22 26 27 22 26 27 22 26 27 22 26 27 22 26 27 22 26 27 22 26 27 22 26 27 22 26 27
22 26 27 22 26 27 22 26 27 22 26 27 22 26 27 22 26 27 22 26 27 22 26 27 22 26 27 22 26 27 22 26 27 22 26 27 22 26 27 22 26 27 22 26 27 22 26 27
22 26 27 22 26 27 22 26 27 22 26 27 22 26 27 22 26 27 22 26 27 22 26 27 22 26 27 22 26 27 22 26 27 22 26 27 22 26 27 22 26 27 22 26 27 22 26 27
22 26 27 22 26 27 22 26 27 22 26 27 22 26 27 22 26 27 22 26 27 22 26 27 22 26 27 22 26 27 22 26 27 22 26 27 22 26 27 22 26 27 22 26 27 22 26 27
22 26 27 22 26 27 22 26 27 84 88 88 91 95 95 93 97 97 22 26 27 88 92 92 92 96 96 75 79 79 92 96 96 22 26 27 90 94 94 69 73 73 85 89 89 83 87 87
51 81 125 25 66 107 32 76 121 23 63 104 21 60 100 25 66 107 37 83 129 23 64 105 24 65 105 34 79 124 37 83 129 65 80 121 29 72 114 29 72 115 32 76 120 36 81 127
98 75 112 36 82 128 21 61 101 100 75 112 29 72 115 35 80 125 69 79 120 26 68 110 26 68 110 22 62 101 30 73 116 34 80 125 36 82 128 32 76 121 21 61 100 36 82 128
26 67 109 77 78 118 27 69 112 60 80 123 27 69 110 35 80 125 21 60 100 31 74 118 25 66 108 108 74 110 35 80 125 33 78 122 27 70 112 33 77 121 108 74 110 22 63 103
34 79 123 28 71 113 83 77 117 37 83 129 32 76 120 25 66 107 35 81 126 27 69 111 21 61 101 27 69 111 23 64 105 23 64 105 32 77 121 33 77 122 31 74 118 23 64 104
78 78 118 26 67 109 36 81 127 23 64 104 61 80 123 114 73 108 75 78 119 34 79 123 26 67 109 35 81 126 62 80 122 22 62 102 42 82 128 35 81 126 31 74 118 32 76 120
32 76 121 24 65 107 35 80 125 27 69 111 29 72 114 96 76 113 34 79 124 34 80 125 21 61 101 57 81 124 26 68 110 37 83 129 24 64 105 35 80 125 63 80 122 30 73 116
32 77 121 31 75 119 33 78 122 21 61 101 25 67 108 21 61 101 28 71 113 48 82 126 30 74 117 35 80 125 105 74 111 22 63 103 35 81 127 22 26 27 22 26 27 22 26 27
22 26 27 22 26 27 22 26 27 22 26 27 22 26 27 22 26 27 83 86 80 87 89 83 85 88 82 99 100 93 92 94 88 92 94 87 88 90 84 81 84 79 89 92 86 105 107 98
86 89 83 91 93 87 88 91 85 94 96 89 22 26 27 22 26 27 22 26 27 22 26 27 22 26 27 22 26 27 22 26 27 22 26 27 22 26 27 22 26 27 22 26 27 22 26 27
22 26 27 22 26 27 22 26 27 22 26 27 22 26 27 22 26 27 22 26 27 22 26 27 22 26 27 22 26 27 22 26 27 22 26 27 22 26 27 22 26 27 22 26 27 22 26 27
22 26 27 22 26 27 22 26 27 22 26 27 22 26 27 22 26 27 22 26 27 22 26 27 22 26 27 22 26 27 22 26 27 22 26 27 22 26 27 22 26 27 22 26 27 22 26 27
22 26 27 22 26 27 22 26 27 22 26 27 22 26 27 22 26 27 22 26 27 22 26 27 22 26 27 22 26 27 22 26 27 22 26 27 22 26 27 22 26 27 22 26 27 22 26 27
22 26 27 22 26 27 22 26 27 22 26 27 22 26 27 22 26 27 22 26 27 22 26 27 22 26 27 22 26 27 22 26 27 22 26 27 22 26 27 22 26 27 22 26 27 22 26 27
22 26 27 22 26 27 22 26 27 22 26 27 22 26 27 22 26 27 22 26 27 22 26 27 22 26 27 22 26 27 22 26 27 22 26 27 22 26 27 22 26 27 22 26 27 22 26 27
22 26 27 22 26 27 22 26 27 22 26 27 22 26 27 22 26 27 22 26 27 22 26 27 22 26 27 22 26 27 22 26 27 22 26 27 22 26 27 22 26 27 22 26 27 22 26 27
22 26 27 22 26 27 22 26 27 70 74 74 82 86 86 71 75 75 22 26 27 75 79 79 77 81 81 87 91 91 93 97 97 22 26 27 71 75 75 82 86 86 82 86 86 91 95 95
18 58 97 19 59 99 22 64 106 89 71 108 23 64 106 20 61 102 16 56 95 27 70 114 90 71 108 23 65 107 23 65 107 23 65 107 18 58 99 62 74 115 28 71 115 20 61 102
17 57 96 26 69 113 55 75 117 19 59 100 30 74 119 43 77 121 23 65 106 20 60 101 32 77 122 24 67 109 20 60 101 31 76 121 27 70 114 29 73 117 19 59 100 30 75 120
26 70 113 26 69 112 21 62 103 21 62 103 25 68 110 24 66 109 23 65 107 75 72 112 22 64 106 30 75 120 28 71 115 47 76 119 17 57 96 19 59 99 29 73 118 22 64 106
16 56 95 20 61 102 26 69 112 18 59 99 32 77 123 64 74 115 17 57 96 27 70 113 18 59 99 19 59 99 75 72 112 21 62 103 19 60 100 18 58 98 27 70 113 19 60 100
80 72 111 32 77 123 30 75 120 21 62 103 28 72 115 92 70 107 24 66 108 18 58 98 17 56 96 43 77 121 18 58 97 31 77 122 26 69 112 20 61 102 24 66 108 19 60 100
19 59 100 22 63 104 29 73 117 21 63 104 23 65 107 26 69 113 23 65 106 29 74 118 41 77 121 16 55 94 56 75 117 21 62 103 23 64 106 21 63 104 20 61 102 26 69 112
30 74 119 100 69 105 78 72 111 29 73 117 29 73 117 26 69 112 25 68 111 31 77 122 19 59 99 101 69 105 72 73 113 45 76 120 18 59 99 22 26 27 22 26 27 22 26 27
22 26 27 22 26 27 22 26 27 22 26 27 22 26 27 22 26 27 95 97 90 104 105 97 81 84 79 102 103 95 80 83 78 80 83 78 87 90 84 99 100 93 104 106 98 80 83 78
107 108 100 105 106 98 91 93 87 91 94 87 22 26 27 22 26 27 22 26 27 22 26 27 22 26 27 22 26 27 22 26 27 22 26 27 22 26 27 22 26 27 22 26 27 22 26 27
22 26 27 22 26 27 22 26 27 22 26 27 22 26 27 22 26 27 22 26 27 22 26 27 22 26 27 22 26 27 22 26 27 22 26 27 22 26 27 22 26 27 22 26 27 22 26 27
22 26 27 22 26 27 22 26 27 22 26 27 22 26 27 22 26 27 22 26 27 22 26 27 22 26 27 22 26 27 22 26 27 22 26 27 22 26 27 22 26 27 22 26 27 22 26 27
22 26 27 22 26 27 22 26 27 22 26 27 22 26 27 22 26 27 22 26 27 22 26 27 22 26 27 22 26 27 22 26 27 22 26 27 22 26 27 22 26 27 22 26 27 22 26 27
22 26 27 22 26 27 22 26 27 22 26 27 22 26 27 22 26 27 22 26 27 22 26 27 22 26 27 22 26 27 22 26 27 22 26 27 22 26 27 22 26 27 22 26 27 22 26 27
22 26 27 22 26 27 22 26 27 22 26 27 22 26 27 22 26 27 22 26 27 22 26 27 22 26 27 22 26 27 22 26 27 22 26 27 22 26 27 22 26 27 22 26 27 22 26 27
22 26 27 22 26 27 22 26 27 22 26 27 22 26 27 22 26 27 22 26 27 22 26 27 22 26 27 22 26 27 22 26 27 22 26 27 22 26 27 22 26 27 22 26 27 22 26 27
22 26 27 22 26 27 22 26 27 79 83 83 76 80 80 70 74 74 22 26 27 91 95 95 91 95 95 81 85 85 72 76 76 22 26 27 69 73 73 71 75 75 85 89 89 78 82 82
23 66 110 19 62 104 20 62 104 26 71 116 12 51 90 25 69 113 14 54 94 97 63 98 34 71 115 26 71 116 16 58 99 24 69 113 48 69 111 51 69 110 77 65 103 22 66 109
26 71 116 17 58 99 47 69 111 18 60 101 11 50 89 25 69 113 13 52 92 23 67 111 22 66 109 23 66 109 22 65 108 20 62 105 20 63 105 18 60 102 25 70 114 15 56 96
21 63 106 15 56 96 26 71 116 46 69 111 23 66 110 15 55 96 11 50 89 16 56 97 26 70 115 37 70 114 11 50 89 73 66 104 19 62 104 98 63 97 18 60 102 18 60 101
16 57 98 26 71 116 11 50 89 18 59 101 14 53 93 17 58 99 24 68 112 24 68 112 11 49 88 22 65 108 11 50 89 76 66 103 17 58 99 14 54 94 25 69 113 19 61 104
26 71 116 73 66 104 47 69 111 45 69 112 24 68 111 21 63 106 22 65 108 16 57 98 24 68 112 53 68 110 24 67 111 95 63 98 19 61 103 15 56 96 48 69 111 25 69 114
87 64 100 17 58 99 22 65 108 21 64 107 45 69 112 21 64 107 25 69 114 11 50 89 18 60 102 20 63 105 13 53 93 17 59 100 50 69 111 62 67 107 11 50 89 37 70 114
17 59 100 73 66 104 22 66 109 14 54 94 13 52 92 14 54 94 13 53 93 17 58 100 12 51 90 12 51 90 24 67 111 16 57 98 14 54 94 22 26 27 22 26 27 22 26 27
22 26 27 22 26 27 22 26 27 22 26 27 22 26 27 22 26 27 107 109 100 99 101 93 101 102 95 97 99 91 88 90 84 102 103 95 104 105 97 101 103 95 104 105 97 81 84 79
101 102 95 82 85 80 107 108 99 85 88 82 22 26 27 22 26 27 22 26 27 22 26 27 22 26 27 22 26 27 22 26 27 22 26 27 22 26 27 22 26 27 22 26 27 22 26 27
22 26 27 22 26 27 22 26 27 22 26 27 22 26 27 22 26 27 22 26 27 22 26 27 22 26 27 22 26 27 22 26 27 22 26 27 22 26 27 22 26 27 22 26 27 22 26 27
22 26 27 22 26 27 22 26 27 22 26 27 22 26 27 22 26 27 22 26 27 22 26 27 22 26 27 22 26 27 22 26 27 22 26 27 22 26 27 22 26 27 22 26 27 22 26 27
22 26 27 22 26 27 22 26 27 22 26 27 22 26 27 22 26 27 22 26 27 22 26 27 22 26 27 22 26 27 22 26 27 22 26 27 22 26 27 22 26 27 22 26 27 22 26 27
22 26 27 22 26 27 22 26 27 22 26 27 22 26 27 22 26 27 22 26 27 22 26 27 22 26 27 22 26 27 22 26 27 22 26 27 22 26 27 22 26 27 22 26 27 22 26 27
22 26 27 22 26 27 22 26 27 22 26 27 22 26 27 22 26 27 22 26 27 22 26 27 22 26 27 22 26 27 22 26 27 22 26 27 22 26 27 22 26 27 22 26 27 22 26 27
22 26 27 22 26 27 22 26 27 22 26 27 22 26 27 22 26 27 22 26 27 22 26 27 22 26 27 22 26 27 22 26 27 22 26 27 22 26 27 22 26 27 22 26 27 22 26 27
22 26 27 22 26 27 22 26 27 89 93 93 87 91 91 89 93 93 22 26 27 77 81 81 90 94 94 88 92 92 92 96 96 22 26 27 69 73 73 91 95 95 72 76 76 77 81 81
13 54 95 77 60 97 32 66 109 14 55 96 63 62 101 10 50 90 21 65 109 20 64 108 86 59 94 12 53 93 44 64 106 7 46 84 13 53 94 88 59 94 22 66 110 8 47 86
9 48 87 20 63 107 12 53 93 21 65 109 20 64 108 15 57 99 16 59 101 11 51 91 99 57 91 12 52 93 11 51 91 45 64 105 30 66 110 14 56 97 33 66 109 11 51 91
14 55 96 23 67 112 64 62 100 10 50 90 11 51 91 16 58 100 13 55 96 21 65 109 85 59 95 23 67 111 10 49 89 17 59 102 16 58 99 19 63 106 10 50 89 19 63 106
16 57 99 6 45 83 15 57 98 39 65 107 10 50 89 15 56 98 88 59 94 16 58 100 6 45 83 97 58 91 14 55 97 20 63 107 21 65 109 11 52 92 11 51 91 20 63 107
14 55 96 16 59 101 21 66 110 11 51 91 12 52 92 14 55 96 17 60 102 19 63 106 7 45 84 9 48 87 22 66 111 22 67 111 8 46 85 16 59 101 16 57 99 38 65 107
7 46 84 15 57 99 11 51 91 9 48 87 9 49 88 10 49 89 32 66 109 53 63 103 16 58 100 12 53 94 11 52 92 12 53 94 11 52 92 34 66 109 10 50 90 8 48 87
13 55 96 20 64 107 9 48 87 16 59 101 14 56 97 15 57 99 66 61 100 12 52 92 15 56 98 87 59 94 84 59 95 14 56 97 77 60 97 22 26 27 22 26 27 22 26 27
22 26 27 22 26 27 22 26 27 22 26 27 22 26 27 22 26 27 104 106 98 97 99 92 101 102 94 106 107 98 102 103 95 92 95 88 93 95 88 82 85 79 82 85 80 106 107 99
93 95 88 91 93 86 102 103 95 85 87 82 22 26 27 22 26 27 22 26 27 22 26 27 22 26 27 22 26 27 22 26 27 22 26 27 22 26 27 22 26 27 22 26 27 22 26 27
22 26 27 22 26 27 22 26 27 22 26 27 22 26 27 22 26 27 22 26 27 22 26 27 22 26 27 22 26 27 22 26 27 22 26 27 22 26 27 22 26 27 22 26 27 22 26 27
22 26 27 22 26 27 22 26 27 22 26 27 22 26 27 22 26 27 22 26 27 22 26 27 22 26 27 22 26 27 22 26 27 22 26 27 22 26 27 22 26 27 22 26 27 22 26 27
22 26 27 22 26 27 22 26 27 22 26 27 22 26 27 22 26 27 22 26 27 22 26 27 22 26 27 22 26 27 22 26 27 22 26 27 22 26 27 22 26 27 22 26 27 22 26 27
22 26 27 22 26 27 22 26 27 22 26 27 22 26 27 22 26 27 22 26 27 22 26 27 22 26 27 22 26 27 22 26 27 22 26 27 22 26 27 22 26 27 22 26 27 22 26 27
22 26 27 22 26 27 22 26 27 22 26 27 22 26 27 22 26 27 22 26 27 22 26 27 22 26 27 22 26 27 22 26 27 22 26 27 22 26 27 22 26 27 22 26 27 22 26 27
22 26 27 22 26 27 22 26 27 22 26 27 22 26 27 22 26 27 22 26 27 22 26 27 22 26 27 22 26 27 22 26 27 22 26 27 22 26 27 22 26 27 22 26 27 22 26 27
22 26 27 22 26 27 22 26 27 79 83 83 89 93 93 85 89 89 22 26 27 75 79 79 76 80 80 85 89 89 79 83 83 22 26 27 72 76 76 78 82 82 71 75 75 87 91 91
79 59 95 6 45 83 14 55 97 33 65 108 9 49 89 18 61 104 17 60 102 8 47 86 18 61 104 9 48 87 19 63 106 12 52 93 61 61 100 11 51 91 17 59 102 16 58 101
6 44 82 17 60 103 16 59 101 9 48 88 9 49 89 53 62 102 7 46 84 5 44 82 18 61 104 14 55 97 16 58 100 99 56 90 8 47 86 12 53 94 58 62 101 12 53 94
15 57 99 69 60 98 88 58 92 12 53 94 8 47 86 10 50 90 12 53 93 19 63 106 12 53 93 91 57 92 21 66 110 33 65 108 13 54 95 17 60 102 17 59 102 78 59 95
14 56 97 11 52 92 47 63 104 14 55 97 42 64 105 48 63 103 5 44 82 14 55 97 9 48 88 20 64 108 6 45 84 7 45 84 17 60 103 86 58 93 11 52 92 9 49 88
7 46 85 16 58 101 21 65 109 9 48 88 10 50 90 11 52 92 10 49 89 7 46 85 14 56 98 15 57 99 19 63 106 13 54 95 5 43 81 13 54 95 19 63 107 22 66 111
40 64 106 21 66 110 13 54 95 11 52 92 10 50 91 18 61 104 15 57 99 15 56 98 8 47 86 6 45 84 8 48 87 13 54 95 7 45 84 5 44 82 52 62 102 19 62 105
7 45 84 33 65 108 9 49 88 7 46 85 17 60 103 68 60 98 10 50 90 6 44 82 8 47 86 21 65 109 8 47 86 19 62 105 64 61 99 22 26 27 22 26 27 22 26 27
22 26 27 22 26 27 22 26 27 22 26 27 22 26 27 22 26 27 96 98 91 83 86 80 88 90 84 106 107 99 87 89 83 106 107 99 103 104 96 88 91 85 85 88 82 99 100 93
106 108 99 99 101 93 96 98 91 82 85 80 22 26 27 22 26 27 22 26 27 22 26 27 22 26 27 22 26 27 22 26 27 22 26 27 22 26 27 22 26 27 22 26 27 22 26 27
22 26 27 22 26 27 22 26 27 22 26 27 22 26 27 22 26 27 22 26 27 22 26 27 22 26 27 22 26 27 22 26 27 22 26 27 22 26 27 22 26 27 22 26 27 22 26 27
22 26 27 22 26 27 22 26 27 22 26 27 22 26 27 22 26 27 22 26 27 22 26 27 22 26 27 22 26 27 22 26 27 22 26 27 22 26 27 22 26 27 22 26 27 22 26 27
22 26 27 22 26 27 22 26 27 22 26 27 22 26 27 22 26 27 22 26 27 22 26 27 22 26 27 22 26 27 22 26 27 22 26 27 22 26 27 22 26 27 22 26 27 22 26 27
22 26 27 22 26 27 22 26 27 22 26 27 22 26 27 22 26 27 22 26 27 22 26 27 22 26 27 22 26 27 22 26 27 22 26 27 22 26 27 22 26 27 22 26 27 22 26 27
22 26 27 22 26 27 22 26 27 22 26 27 22 26 27 22 26 27 22 26 27 22 26 27 22 26 27 22 26 27 22 26 27 22 26 27 22 26 27 22 26 27 22 26 27 22 26 27
22 26 27 22 26 27 22 26 27 22 26 27 22 26 27 22 26 27 22 26 27 22 26 27 22 26 27 22 26 27 22 26 27 22 26 27 22 26 27 22 26 27 22 26 27 22 26 27
22 26 27 22 26 27 22 26 27 92 96 96 71 75 75 73 77 77 22 26 27 80 84 84 89 93 93 80 84 84 85 89 89 22 26 27 77 81 81 84 88 88 73 77 77 92 96 96
20 63 106 19 62 104 61 65 104 72 64 101 23 67 111 16 57 98 10 50 89 16 58 99 10 49 88 14 54 95 9 48 86 48 67 108 16 57 99 14 55 96 10 50 89 20 63 105
16 57 98 100 60 94 27 69 114 91 61 96 11 51 90 25 69 114 20 63 106 19 62 104 24 69 114 9 47 85 55 66 106 10 49 88 21 65 109 10 50 89 95 61 95 47 67 108
16 58 99 34 68 112 24 69 114 19 61 103 15 56 97 9 47 86 16 57 99 20 63 106 78 63 100 21 64 107 50 66 108 21 64 107 10 49 89 16 57 98 10 48 87 20 63 106
18 60 103 18 60 102 77 63 100 14 54 94 21 65 108 15 55 96 73 63 101 10 50 89 23 67 111 66 64 103 14 54 95 16 58 99 20 64 107 22 66 110 22 66 110 9 48 86
15 56 97 13 53 94 21 64 107 14 54 95 98 60 94 14 54 95 10 49 88 89 61 97 16 57 98 13 53 93 17 59 101 13 54 94 9 47 86 24 69 114 24 69 113 22 66 110
16 58 99 23 68 112 13 53 94 17 59 100 61 65 104 20 63 106 56 66 106 13 53 94 11 50 89 22 67 111 24 68 113 85 62 98 18 61 103 23 68 112 19 61 104 80 63 99
14 55 95 18 60 103 24 69 114 17 59 101 13 53 93 31 69 113 10 50 89 23 68 112 11 50 89 10 49 88 17 59 101 13 54 94 16 57 98 22 26 27 22 26 27 22 26 27
22 26 27 22 26 27 22 26 27 22 26 27 22 26 27 22 26 27 102 103 95 102 104 96 82 85 80 97 99 91 102 104 96 106 107 99 84 87 81 110 111 102 106 107 99 87 90 84
88 90 84 89 91 85 83 86 81 82 85 80 22 26 27 22 26 27 22 26 27 22 26 27 22 26 27 22 26 27 22 26 27 22 26 27 22 26 27 22 26 27 22 26 27 22 26 27
22 26 27 22 26 27 22 26 27 22 26 27 22 26 27 22 26 27 22 26 27 22 26 27 22 26 27 22 26 27 22 26 27 22 26 27 22 26 27 22 26 27 22 26 27 22 26 27
22 26 27 22 26 27 22 26 27 22 26 27 22 26 27 22 26 27 22 26 27 22 26 27 22 26 27 22 26 27 22 26 27 22 26 27 22 26 27 22 26 27 22 26 27 22 26 27
22 26 27 22 26 27 22 26 27 22 26 27 22 26 27 22 26 27 22 26 27 22 26 27 22 26 27 22 26 27 22 26 27 22 26 27 22 26 27 22 26 27 22 26 27 22 26 27
22 26 27 22 26 27 22 26 27 22 26 27 22 26 27 22 26 27 22 26 27 22 26 27 22 26 27 22 26 27 22 26 27 22 26 27 22 26 27 22 26 27 22 26 27 22 26 27
22 26 27 22 26 27 22 26 27 22 26 27 22 26 27 22 26 27 22 26 27 22 26 27 22 26 27 22 26 27 22 26 27 22 26 27 22 26 27 22 26 27 22 26 27 22 26 27
22 26 27 22 26 27 22 26 27 22 26 27 22 26 27 22 26 27 22 26 27 22 26 27 22 26 27 22 26 27 22 26 27 22 26 27 22 26 27 22 26 27 22 26 27 22 26 27
22 26 27 22 26 27 22 26 27 77 81 81 78 82 82 83 87 87 22 26 27 87 91 91 71 75 75 89 93 93 72 76 76 22 26 27 85 89 89 84 88 88 73 77 77 90 94 94
25 68 112 19 59 100 25 68 112 17 57 97 14 53 92 27 71 115 28 73 118 23 66 108 25 68 111 15 54 94 24 66 109 25 69 112 107 66 100 14 53 92 24 67 110 83 69 106
86 68 106 15 54 94 19 59 100 20 61 102 92 68 104 24 67 110 26 70 114 26 69 113 27 72 116 24 67 110 30 75 120 25 68 111 46 73 116 15 54 94 21 62 104 27 72 116
26 69 113 25 69 112 28 72 116 20 62 103 100 67 102 73 70 109 25 69 112 101 66 101 92 68 104 22 64 106 28 73 117 54 72 114 63 71 112 14 53 92 29 74 119 21 63 105
105 66 100 17 57 98 22 65 107 20 61 102 14 53 92 26 70 114 16 55 95 29 74 119 20 62 104 18 58 98 19 60 101 20 61 102 44 74 117 25 69 113 26 70 114 20 62 103
23 66 109 82 69 107 17 58 98 29 75 120 20 62 104 29 73 118 30 75 121 27 71 116 26 70 114 64 71 112 22 64 106 16 56 96 28 73 118 60 72 113 17 57 97 25 69 112
25 68 111 27 71 115 28 73 118 15 54 94 24 66 109 49 73 116 15 54 94 94 67 104 102 66 101 19 59 100 25 68 111 17 57 97 29 74 119 28 72 117 28 73 117 28 72 117
20 61 102 14 53 92 64 71 112 28 73 118 16 55 95 27 71 115 24 67 110 17 58 98 18 59 100 14 53 92 15 54 94 22 64 106 26 69 113 22 26 27 22 26 27 22 26 27
22 26 27 22 26 27 22 26 27 22 26 27 22 26 27 22 26 27 91 93 86 102 103 96 98 100 92 87 90 84 97 99 92 91 93 87 100 101 94 102 103 95 80 83 78 83 85 80
97 99 91 83 86 80 100 102 94 105 106 98 22 26 27 22 26 27 22 26 27 22 26 27 22 26 27 22 26 27 22 26 27 22 26 27 22 26 27 22 26 27 22 26 27 22 26 27
22 26 27 22 26 27 22 26 27 22 26 27 22 26 27 22 26 27 22 26 27 22 26 27 22 26 27 22 26 27 22 26 27 22 26 27 22 26 27 22 26 27 22 26 27 22 26 27
22 26 27 22 26 27 22 26 27 22 26 27 22 26 27 22 26 27 22 26 27 22 26 27 22 26 27 22 26 27 22 26 27 22 26 27 22 26 27 22 26 27 22 26 27 22 26 27
22 26 27 22 26 27 22 26 27 22 26 27 22 26 27 22 26 27 22 26 27 22 26 27 22 26 27 22 26 27 22 26 27 22 26 27 22 26 27 22 26 27 22 26 27 22 26 27
22 26 27 22 26 27 22 26 27 22 26 27 22 26 27 22 26 27 22 26 27 22 26 27 22 26 27 22 26 27 22 26 27 22 26 27 22 26 27 22 26 27 22 26 27 22 26 27
22 26 27 22 26 27 22 26 27 22 26 27 22 26 27 22 26 27 22 26 27 22 26 27 22 26 27 22 26 27 22 26 27 22 26 27 22 26 27 22 26 27 22 26 27 22 26 27
22 26 27 22 26 27 22 26 27 22 26 27 22 26 27 22 26 27 22 26 27 22 26 27 22 26 27 22 26 27 22 26 27 22 26 27 22 26 27 22 26 27 22 26 27 22 26 27
22 26 27 22 26 27 22 26 27 91 95 95 91 95 95 75 79 79 22 26 27 82 86 86 84 88 88 80 84 84 92 96 96 22 26 27 91 95 95 88 92 92 89 93 93 87 91 91
20 60 99 24 66 107 43 80 125 22 62 102 29 73 117 31 75 119 96 74 111 24 65 107 24 66 108 21 62 102 21 62 102 19 59 98 27 70 113 22 62 103 26 68 110 33 78 123
29 73 116 34 80 126 20 59 99 25 66 108 28 72 115 28 71 114 38 81 126 26 68 110 80 76 115 27 70 113 28 72 115 31 76 120 21 61 101 22 62 103 27 69 112 59 78 121
86 75 113 20 60 100 22 63 104 26 69 111 28 71 113 27 70 113 34 79 125 26 68 110 35 81 126 99 73 110 27 69 112 35 81 126 30 74 118 26 68 111 24 65 106 22 63 104
22 62 103 30 74 118 64 78 119 34 80 125 27 70 112 54 79 122 89 74 112 33 78 122 25 67 109 35 80 126 23 63 104 34 80 125 33 77 122 34 79 125 24 65 107 43 80 125
64 78 119 22 63 104 24 65 106 44 80 125 20 60 100 27 69 112 30 74 118 33 78 123 27 70 113 24 65 107 24 65 106 38 81 126 32 77 122 31 75 119 34 79 124 23 63 104
24 66 108 27 69 112 24 65 107 26 68 110 33 78 123 45 80 125 33 78 123 24 66 108 32 76 121 27 70 112 83 75 114 27 70 112 109 72 107 28 71 113 22 63 103 24 65 107
23 64 105 24 66 107 22 63 103 26 68 111 23 64 104 25 67 109 26 68 111 65 77 119 22 62 102 33 79 124 37 81 127 31 76 120 27 70 113 22 26 27 22 26 27 22 26 27
22 26 27 22 26 27 22 26 27 22 26 27 22 26 27 22 26 27 87 89 83 84 87 81 109 110 101 96 98 91 104 106 98 85 87 82 89 91 85 100 102 94 84 86 81 97 99 92
109 110 101 102 104 96 101 102 95 93 95 88 22 26 27 22 26 27 22 26 27 22 26 27 22 26 27 22 26 27 22 26 27 22 26 27 22 26 27 22 26 27 22 26 27 22 26 27
22 26 27 22 26 27 22 26 27 22 26 27 22 26 27 22 26 27 22 26 27 22 26 27 22 26 27 22 26 27 22 26 27 22 26 27 22 26 27 22 26 27 22 26 27 22 26 27
22 26 27 22 26 27 22 26 27 22 26 27 22 26 27 22 26 27 22 26 27 22 26 27 22 26 27 22 26 27 22 26 27 22 26 27 22 26 27 22 26 27 22 26 27 22 26 27
22 26 27 22 26 27 22 26 27 22 26 27 22 26 27 22 26 27 22 26 27 22 26 27 22 26 27 22 26 27 22 26 27 22 26 27 22 26 27 22 26 27 22 26 27 22 26 27
22 26 27 22 26 27 22 26 27 22 26 27 22 26 27 22 26 27 22 26 27 22 26 27 22 26 27 22 26 27 22 26 27 22 26 27 22 26 27 22 26 27 22 26 27 22 26 27
22 26 27 22 26 27 22 26 27 22 26 27 22 26 27 22 26 27 22 26 27 22 26 27 22 26 27 22 26 27 22 26 27 22 26 27 22 26 27 22 26 27 22 26 27 22 26 27
22 26 27 22 26 27 22 26 27 22 26 27 22 26 27 22 26 27 22 26 27 22 26 27 22 26 27 22 26 27 22 26 27 22 26 27 22 26 27 22 26 27 22 26 27 22 26 27
22 26 27 22 26 27 22 26 27 90 94 94 75 79 79 89 93 93 22 26 27 73 77 77 93 97 97 77 81 81 91 95 95 22 26 27 70 74 74 86 90 90 90 94 94 89 93 93
30 73 116 26 67 108 63 82 125 24 64 104 26 67 108 32 76 120 117 75 110 35 80 125 36 81 126 40 85 131 23 63 103 30 73 116 39 85 131 33 77 121 98 78 115 57 83 127
27 68 110 28 70 112 34 79 123 96 78 116 31 74 118 24 65 105 38 84 130 93 78 117 26 67 108 32 75 118 27 68 109 37 83 129 31 74 118 36 81 126 81 80 120 37 83 129
39 85 131 87 79 118 38 84 129 30 73 115 31 74 117 29 72 114 34 78 122 26 67 108 23 63 103 31 74 117 34 79 123 28 70 112 37 82 127 45 84 130 37 83 128 26 67 108
36 81 126 33 77 121 38 84 129 26 68 109 24 64 104 26 67 109 86 79 119 26 68 109 38 84 129 24 64 104 30 73 116 30 73 116 28 70 112 26 68 109 24 65 105 23 63 103
38 84 130 31 74 117 24 65 106 25 66 106 25 66 107 31 75 118 33 76 120 26 68 109 32 76 119 30 73 116 107 77 113 35 79 124 38 84 130 25 66 107 33 76 120 26 66 107
86 79 119 27 69 111 29 71 113 26 67 108 30 73 115 35 80 125 34 79 123 92 79 117 84 80 119 39 85 131 23 63 103 36 82 127 27 68 109 37 82 127 31 74 117 36 82 127
29 72 114 25 66 106 40 85 131 38 83 129 74 81 122 36 81 126 33 77 121 32 75 119 46 84 130 94 78 117 29 71 114 32 75 118 107 77 113 22 26 27 22 26 27 22 26 27
22 26 27 22 26 27 22 26 27 22 26 27 22 26 27 22 26 27 87 89 83 95 97 90 98 100 93 84 87 81 81 84 79 110 111 102 108 109 100 92 94 88 94 96 89 105 106 98
91 93 87 96 98 91 98 100 92 98 100 92 22 26 27 22 26 27 22 26 27 22 26 27 22 26 27 22 26 27 22 26 27 22 26 27 22 26 27 22 26 27 22 26 27 22 26 27
22 26 27 22 26 27 22 26 27 22 26 27 22 26 27 22 26 27 22 26 27 22 26 27 22 26 27 22 26 27 22 26 27 22 26 27 22 26 27 22 26 27 22 26 27 22 26 27
22 26 27 22 26 27 22 26 27 22 26 27 22 26 27 22 26 27 22 26 27 22 26 27 22 26 27 22 26 27 22 26 27 22 26 27 22 26 27 22 26 27 22 26 27 22 26 27
22 26 27 22 26 27 22 26 27 22 26 27 22 26 27 22 26 27 22 26 27 22 26 27 22 26 27 22 26 27 22 26 27 22 26 27 22 26 27 22 26 27 22 26 27 22 26 27
22 26 27 22 26 27 22 26 27 22 26 27 22 26 27 22 26 27 22 26 27 22 26 27 22 26 27 22 26 27 22 26 27 22 26 27 22 26 27 22 26 27 22 26 27 22 26 27
22 26 27 22 26 27 22 26 27 22 26 27 22 26 27 22 26 27 22 26 27 22 26 27 22 26 27 22 26 27 22 26 27 22 26 27 22 26 27 22 26 27 22 26 27 22 26 27
22 26 27 22 26 27 22 26 27 22 26 27 22 26 27 22 26 27 22 26 27 22 26 27 22 26 27 22 26 27 22 26 27 22 26 27 22 26 27 22 26 27 22 26 27 22 26 27
22 26 27 22 26 27 22 26 27 73 77 77 92 96 96 85 89 89 22 26 27 76 80 80 82 86 86 91 95 95 82 86 86 22 26 27 88 92 92 89 93 93 87 91 91 83 87 87
32 75 118 119 78 113 27 68 109 28 70 111 35 80 124 43 87 134 31 73 115 36 80 125 25 65 105 51 86 131 26 66 106 98 80 119 32 75 118 26 66 107 33 76 119 34 77 121
34 77 121 37 82 127 39 85 131 27 68 110 38 83 128 67 84 127 91 81 121 28 69 111 37 82 126 30 73 115 30 72 115 29 71 112 38 84 129 30 72 114 79 83 124 31 74 117
51 86 131 30 71 113 29 70 112 26 67 108 30 73 115 27 68 109 39 85 130 67 84 127 95 81 119 61 85 129 40 87 133 32 75 118 31 73 116 29 71 113 32 75 117 41 87 134
31 74 116 30 71 113 31 74 116 29 70 112 37 82 127 31 74 117 31 74 116 29 71 112 25 65 105 39 84 130 37 82 127 27 67 108 34 78 122 29 71 113 33 76 120 35 80 124
73 84 125 106 79 116 34 77 121 37 81 126 28 70 111 35 79 123 27 68 108 34 78 122 39 85 131 37 82 127 33 76 119 39 84 130 33 77 120 29 71 113 28 70 111 27 68 109
32 75 118 65 85 128 52 86 131 25 65 105 53 86 131 29 71 112 31 74 117 28 70 111 26 66 106 39 85 131 26 67 107 29 70 112 26 66 107 41 87 134 37 81 126 105 79 117
38 83 129 96 81 119 41 87 133 37 81 126 31 73 116 33 76 119 34 78 122 40 86 132 41 87 133 34 77 121 30 71 113 113 79 115 35 79 123 22 26 27 22 26 27 22 26 27
22 26 27 22 26 27 22 26 27 22 26 27 22 26 27 22 26 27 104 106 98 91 93 86 107 108 100 84 86 81 82 85 80 92 94 87 97 99 91 106 107 99 90 92 86 91 93 87
99 100 93 107 108 99 97 99 91 89 91 85 22 26 27 22 26 27 22 26 27 22 26 27 22 26 27 22 26 27 22 26 27 22 26 27 22 26 27 22 26 27 22 26 27 22 26 27
22 26 27 22 26 27 22 26 27 22 26 27 22 26 27 22 26 27 22 26 27 22 26 27 22 26 27 22 26 27 22 26 27 22 26 27 22 26 27 22 26 27 22 26 27 22 26 27
22 26 27 22 26 27 22 26 27 22 26 27 22 26 27 22 26 27 22 26 27 22 26 27 22 26 27 22 26 27 22 26 27 22 26 27 22 26 27 22 26 27 22 26 27 22 26 27
22 26 27 22 26 27 22 26 27 22 26 27 22 26 27 22 26 27 22 26 27 22 26 27 22 26 27 22 26 27 22 26 27 22 26 27 22 26 27 22 26 27 22 26 27 22 26 27
22 26 27 22 26 27 22 26 27 22 26 27 22 26 27 22 26 27 22 26 27 22 26 27 22 26 27 22 26 27 22 26 27 22 26 27 22 26 27 22 26 27 22 26 27 22 26 27
22 26 27 22 26 27 22 26 27 22 26 27 22 26 27 22 26 27 22 26 27 22 26 27 22 26 27 22 26 27 22 26 27 22 26 27 22 26 27 22 26 27 22 26 27 22 26 27
22 26 27 22 26 27 22 26 27 22 26 27 22 26 27 22 26 27 22 26 27 22 26 27 22 26 27 22 26 27 22 26 27 22 26 27 22 26 27 22 26 27 22 26 27 22 26 27
22 26 27 22 26 27 22 26 27 76 80 80 80 84 84 76 80 80 22 26 27 85 89 89 70 74 74 80 84 84 78 82 82 22 26 27 87 91 91 92 96 96 79 83 83 86 90 90
37 81 125 43 89 136 40 85 130 35 78 122 91 83 123 30 72 113 40 85 131 33 75 118 32 74 117 41 87 134 41 87 133 39 85 130 42 88 135 118 80 116 33 75 118 28 69 110
28 69 110 105 82 119 34 78 121 33 76 119 29 69 110 43 89 136 28 69 110 30 71 113 42 88 134 39 84 130 42 88 135 31 73 115 33 75 118 30 72 113 29 70 111 111 81 118
36 80 125 35 79 123 104 82 119 31 74 116 38 83 128 84 84 125 31 73 115 88 84 124 30 72 113 34 77 120 32 74 117 88 84 124 40 85 131 121 80 115 36 80 125 39 85 130
43 89 136 49 89 135 40 85 131 43 89 136 27 68 108 35 79 123 109 81 118 28 68 109 41 87 133 35 79 123 33 76 119 27 67 108 27 68 108 39 84 129 27 68 109 34 78 121
35 79 123 29 70 112 28 69 110 31 72 114 42 89 136 32 74 116 31 72 114 32 75 117 77 85 127 30 72 113 40 85 131 38 83 128 67 86 130 36 79 123 33 76 119 31 73 115
39 84 130 36 80 124 33 75 118 36 80 124 38 82 127 111 81 118 38 82 127 37 82 126 43 89 136 43 89 136 27 68 109 35 78 122 34 77 120 30 71 113 35 78 121 83 84 125
38 83 128 28 69 110 35 78 122 33 75 118 35 79 123 30 72 114 30 71 112 106 81 119 30 72 114 36 80 124 29 71 112 37 82 126 87 84 124 22 26 27 22 26 27 22 26 27
22 26 27 22 26 27 22 26 27 22 26 27 22 26 27 22 26 27 89 92 85 83 86 80 101 103 95 108 109 100 87 90 84 99 101 94 98 100 93 93 95 88 109 110 101 108 109 101
98 100 93 85 88 82 91 93 87 98 100 92 22 26 27 22 26 27 22 26 27 22 26 27 22 26 27 22 26 27 22 26 27 22 26 27 22 26 27 22 26 27 22 26 27 22 26 27
22 26 27 22 26 27 22 26 27 22 26 27 22 26 27 22 26 27 22 26 27 22 26 27 22 26 27 22 26 27 22 26 27 22 26 27 22 26 27 22 26 27 22 26 27 22 26 27
22 26 27 22 26 27 22 26 27 22 26 27 22 26 27 22 26 27 22 26 27 22 26 27 22 26 27 22 26 27 22 26 27 22 26 27 22 26 27 22 26 27 22 26 27 22 26 27
22 26 27 22 26 27 22 26 27 22 26 27 22 26 27 22 26 27 22 26 27 22 26 27 22 26 27 22 26 27 22 26 27 22 26 27 22 26 27 22 26 27 22 26 27 22 26 27
22 26 27 22 26 27 22 26 27 22 26 27 22 26 27 22 26 27 22 26 27 22 26 27 22 26 27 22 26 27 22 26 27 22 26 27 22 26 27 22 26 27 22 26 27 22 26 27
22 26 27 22 26 27 22 26 27 22 26 27 22 26 27 22 26 27 22 26 27 22 26 27 22 26 27 22 26 27 22 26 27 22 26 27 22 26 27 22 26 27 22 26 27 22 26 27
22 26 27 22 26 27 22 26 27 22 26 27 22 26 27 22 26 27 22 26 27 22 26 27 22 26 27 22 26 27 22 26 27 22 26 27 22 26 27 22 26 27 22 26 27 22 26 27
22 26 27 22 26 27 22 26 27 76 80 80 86 90 90 91 95 95 22 26 27 90 94 94 79 83 83 83 87 87 91 95 95 22 26 27 75 79 79 91 95 95 71 75 75 82 86 86
29 69 110 30 71 112 35 77 120 108 84 122 31 72 114 29 69 110 42 87 133 41 86 131 44 90 137 30 71 113 43 89 136 79 88 130 35 77 120 36 79 122 64 90 134 43 89 135
32 73 115 35 78 121 35 78 122 39 84 128 31 73 114 41 87 132 109 84 122 73 89 132 30 70 111 44 90 137 38 82 126 31 72 113 39 83 128 36 79 122 29 70 110 47 92 139
110 84 122 44 91 137 32 74 116 60 90 135 36 79 123 86 87 128 38 82 127 38 81 126 43 89 135 57 91 136 45 91 138 44 91 138 59 90 136 41 86 131 31 72 113 35 78 121
42 88 134 29 70 110 41 86 132 37 80 124 31 72 113 34 77 119 40 85 130 39 83 128 51 91 138 98 85 125 32 74 115 34 76 119 39 83 128 117 83 120 37 80 124 45 91 138
35 78 121 84 87 128 32 74 116 38 82 127 39 83 128 45 92 139 34 77 120 36 79 122 37 80 124 65 90 134 45 91 138 31 72 114 40 85 130 29 69 110 36 79 123 29 70 111
76 88 131 44 90 136 32 74 116 38 82 126 42 88 133 37 80 124 32 73 115 45 92 139 29 69 110 40 85 130 37 80 124 45 92 139 95 86 126 31 72 113 34 76 119 83 87 129
44 90 136 38 82 126 117 83 120 39 84 129 31 72 113 31 72 113 119 83 119 36 79 122 45 91 138 34 77 119 31 72 114 122 82 118 39 83 128 22 26 27 22 26 27 22 26 27
22 26 27 22 26 27 22 26 27 22 26 27 22 26 27 22 26 27 110 111 102 84 86 81 91 93 87 84 87 81 101 103 95 90 92 86 106 107 99 106 108 99 88 90 84 95 97 90
92 94 87 107 108 100 104 105 97 97 99 92 22 26 27 22 26 27 22 26 27 22 26 27 22 26 27 22 26 27 22 26 27 22 26 27 22 26 27 22 26 27 22 26 27 22 26 27
22 26 27 22 26 27 22 26 27 22 26 27 22 26 27 22 26 27 22 26 27 22 26 27 22 26 27 22 26 27 22 26 27 22 26 27 22 26 27 22 26 27 22 26 27 22 26 27
22 26 27 22 26 27 22 26 27 22 26 27 22 26 27 22 26 27 22 26 27 22 26 27 22 26 27 22 26 27 22 26 27 22 26 27 22 26 27 22 26 27 22 26 27 22 26 27
22 26 27 22 26 27 22 26 27 22 26 27 22 26 27 22 26 27 22 26 27 22 26 27 22 26 27 22 26 27 22 26 27 22 26 27 22 26 27 22 26 27 22 26 27 22 26 27
22 26 27 22 26 27 22 26 27 22 26 27 22 26 27 22 26 27 22 26 27 22 26 27 22 26 27 22 26 27 22 26 27 22 26 27 22 26 27 22 26 27 22 26 27 22 26 27
22 26 27 22 26 27 22 26 27 22 26 27 22 26 27 22 26 27 22 26 27 22 26 27 22 26 27 22 26 27 22 26 27 22 26 27 22 26 27 22 26 27 22 26 27 22 26 27
22 26 27 22 26 27 22 26 27 22 26 27 22 26 27 22 26 27 22 26 27 22 26 27 22 26 27 22 26 27 22 26 27 22 26 27 22 26 27 22 26 27 22 26 27 22 26 27
22 26 27 22 26 27 22 26 27 93 97 97 77 81 81 73 77 77 22 26 27 91 95 95 71 75 75 72 76 76 76 80 80 22 26 27 85 89 89 81 85 85 87 91 91 82 86 86
42 87 132 37 80 123 110 88 127 46 92 139 46 91 137 47 94 141 40 83 127 46 92 139 34 75 117 46 91 138 102 90 129 46 92 139 53 96 143 41 85 130 44 88 134 34 75 117
49 96 144 42 86 131 43 88 134 40 83 127 123 87 124 73 93 137 79 92 136 33 74 115 45 90 136 36 78 120 60 95 141 125 87 123 69 94 138 41 86 130 44 90 135 43 88 133
48 95 142 42 86 130 45 90 136 43 88 133 36 78 121 46 93 139 47 93 140 47 94 141 45 91 137 38 81 124 41 85 130 112 88 127 48 95 143 43 87 132 40 84 128 39 82 126
55 96 142 45 90 136 47 94 141 44 89 135 44 89 135 33 74 115 42 87 131 37 80 123 41 84 128 41 85 130 100 90 130 45 90 136 40 83 127 33 74 116 38 81 124 48 95 142
41 85 130 43 88 133 41 84 129 45 91 137 43 87 132 34 76 117 99 90 130 103 89 129 34 76 117 49 96 143 116 88 126 42 86 131 49 96 144 34 75 117 41 85 130 79 92 136
42 86 131 106 89 128 35 77 119 47 93 140 42 87 132 52 96 143 85 92 134 48 95 143 47 94 141 48 95 142 45 90 136 44 90 135 34 75 117 44 90 135 37 80 123 38 80 124
44 89 135 45 91 137 80 92 136 36 79 121 34 75 117 41 85 130 38 81 125 59 95 141 41 84 129 35 77 119 36 78 120 47 93 140 36 78 120 22 26 27 22 26 27 22 26 27
22 26 27 22 26 27 22 26 27 22 26 27 22 26 27 22 26 27 101 102 94 92 94 87 97 99 92 84 87 82 93 95 88 103 104 96 98 100 92 100 101 94 87 90 84 105 107 98
109 110 102 94 96 89 96 98 91 83 86 81 22 26 27 22 26 27 22 26 27 22 26 27 22 26 27 22 26 27 22 26 27 22 26 27 22 26 27 22 26 27 22 26 27 22 26 27
22 26 27 22 26 27 22 26 27 22 26 27 22 26 27 22 26 27 22 26 27 22 26 27 22 26 27 22 26 27 22 26 27 22 26 27 22 26 27 22 26 27 22 26 27 22 26 27
22 26 27 22 26 27 22 26 27 22 26 27 22 26 27 22 26 27 22 26 27 22 26 27 22 26 27 22 26 27 22 26 27 22 26 27 22 26 27 22 26 27 22 26 27 22 26 27
22 26 27 22 26 27 22 26 27 22 26 27 22 26 27 22 26 27 22 26 27 22 26 27 22 26 27 22 26 27 22 26 27 22 26 27 22 26 27 22 26 27 22 26 27 22 26 27
22 26 27 22 26 27 22 26 27 22 26 27 22 26 27 22 26 27 22 26 27 22 26 27 22 26 27 22 26 27 22 26 27 22 26 27 22 26 27 22 26 27 22 26 27 22 26 27
22 26 27 22 26 27 22 26 27 22 26 27 22 26 27 22 26 27 22 26 27 22 26 27 22 26 27 22 26 27 22 26 27 22 26 27 22 26 27 22 26 27 22 26 27 22 26 27
22 26 27 22 26 27 22 26 27 22 26 27 22 26 27 22 26 27 22 26 27 22 26 27 22 26 27 22 26 27 22 26 27 22 26 27 22 26 27 22 26 27 22 26 27 22 26 27
22 26 27 22 26 27 22 26 27 77 81 81 86 90 90 92 96 96 22 26 27 83 87 87 90 94 94 72 76 76 88 92 92 22 26 27 92 96 96 80 84 84 77 81 81 71 75 75
48 93 139 51 97 144 116 94 134 39 80 122 47 91 136 52 98 145 53 99 147 70 100 146 49 95 141 53 100 147 114 94 134 47 92 138 45 89 134 51 98 145 52 99 146 64 101 148
45 89 134 48 93 139 39 80 122 53 100 148 54 101 149 44 87 131 47 91 137 48 93 139 48 93 139 126 93 131 111 95 135 45 89 133 55 102 150 46 90 135 44 87 131 44 88 132
62 101 148 44 88 132 45 89 134 50 96 143 40 82 125 130 92 130 48 94 140 52 99 146 46 90 135 43 85 129 45 88 132 59 101 149 128 93 130 54 102 150 50 96 143 50 95 142
97 97 139 131 92 129 51 97 144 50 95 142 49 94 140 102 96 137 45 88 133 50 95 142 77 99 144 53 100 147 40 81 124 54 102 150 106 95 136 38 79 121 127 93 131 51 96 143
38 79 121 40 81 124 40 82 124 105 96 137 80 99 144 39 80 123 49 94 140 48 93 138 39 81 123 41 82 125 39 81 123 80 99 143 53 100 148 51 96 143 42 85 129 44 87 131
91 97 140 50 96 143 50 95 142 52 98 145 49 95 141 49 94 140 45 88 133 40 82 125 54 102 150 53 100 148 46 90 135 53 100 148 39 80 122 40 81 124 116 94 134 46 90 135
49 95 141 122 93 132 47 91 137 47 91 137 49 94 140 47 92 137 52 98 145 49 94 140 49 95 141 44 88 132 53 100 148 54 101 150 46 90 135 22 26 27 22 26 27 22 26 27
22 26 27 22 26 27 22 26 27 22 26 27 22 26 27 22 26 27 101 103 95 95 97 90 97 99 92 109 110 101 102 103 95 98 99 92 80 83 78 105 107 98 86 88 83 92 94 88
98 99 92 85 88 82 97 99 92 93 95 88 22 26 27 22 26 27 22 26 27 22 26 27 22 26 27 22 26 27 22 26 27 22 26 27 22 26 27 22 26 27 22 26 27 22 26 27
22 26 27 22 26 27 22 26 27 22 26 27 22 26 27 22 26 27 22 26 27 22 26 27 22 26 27 22 26 27 22 26 27 22 26 27 22 26 27 22 26 27 22 26 27 22 26 27
22 26 27 22 26 27 22 26 27 22 26 27 22 26 27 22 26 27 22 26 27 22 26 27 22 26 27 22 26 27 22 26 27 22 26 27 22 26 27 22 26 27 22 26 27 22 26 27
22 26 27 22 26 27 22 26 27 22 26 27 22 26 27 22 26 27 22 26 27 22 26 27 22 26 27 22 26 27 22 26 27 22 26 27 22 26 27 22 26 27 22 26 27 22 26 27
22 26 27 22 26 27 22 26 27 22 26 27 22 26 27 22 26 27 22 26 27 22 26 27 22 26 27 22 26 27 22 26 27 22 26 27 22 26 27 22 26 27 22 26 27 22 26 27
22 26 27 22 26 27 22 26 27 22 26 27 22 26 27 22 26 27 22 26 27 22 26 27 22 26 27 22 26 27 22 26 27 22 26 27 22 26 27 22 26 27 22 26 27 22 26 27
22 26 27 22 26 27 22 26 27 22 26 27 22 26 27 22 26 27 22 26 27 22 26 27 22 26 27 22 26 27 22 26 27 22 26 27 22 26 27 22 26 27 22 26 27 22 26 27
22 26 27 22 26 27 22 26 27 71 75 75 82 86 86 70 74 74 22 26 27 73 77 77 78 82 82 88 92 92 91 95 95 22 26 27 92 96 96 87 91 91 73 77 77 82 86 86
49 92 137 134 99 138 59 106 155 106 103 145 79 106 153 44 86 129 55 100 147 49 92 137 54 100 146 59 107 155 45 86 129 46 88 132 45 87 131 50 94 139 47 90 134 103 103 146
56 102 150 112 102 144 58 105 153 55 101 148 52 96 142 45 87 130 52 97 143 124 100 140 56 102 150 50 93 139 50 94 139 53 97 143 54 100 147 56 102 149 44 86 129 45 87 130
45 86 129 48 90 134 49 93 138 51 94 140 52 96 142 53 97 144 59 106 155 56 102 149 134 99 138 46 87 131 60 108 157 74 107 154 59 107 156 84 105 151 45 86 129 51 95 140
53 98 144 47 90 134 88 105 150 85 105 151 50 94 139 58 105 153 58 105 153 115 101 143 44 86 129 45 87 130 53 98 144 60 108 157 55 101 148 59 106 155 46 89 132 48 91 136
139 98 136 51 96 141 55 101 149 131 100 139 81 106 152 49 92 137 57 103 151 59 106 154 47 90 134 50 94 140 57 104 152 71 107 155 49 92 137 54 100 147 55 101 148 47 90 134
134 99 138 45 87 130 87 105 150 52 96 142 53 97 143 55 100 147 48 90 134 55 100 147 48 91 136 45 86 129 58 105 154 48 91 135 50 94 140 48 91 135 44 86 129 46 88 131
51 95 140 47 89 133 72 107 155 48 91 135 50 94 139 48 91 136 46 88 131 51 95 140 45 86 129 132 99 138 45 87 130 58 105 154 53 97 144 22 26 27 22 26 27 22 26 27
22 26 27 22 26 27 22 26 27 22 26 27 22 26 27 22 26 27 87 89 83 84 87 81 104 106 98 108 109 100 98 100 92 103 104 96 106 107 99 93 95 88 81 84 79 107 108 99
109 110 101 92 94 88 107 108 99 96 98 91 22 26 27 22 26 27 22 26 27 22 26 27 22 26 27 22 26 27 22 26 27 22 26 27 22 26 27 22 26 27 22 26 27 22 26 27
22 26 27 22 26 27 22 26 27 22 26 27 22 26 27 22 26 27 22 26 27 22 26 27 22 26 27 22 26 27 22 26 27 22 26 27 22 26 27 22 26 27 22 26 27 22 26 27
22 26 27 22 26 27 22 26 27 22 26 27 22 26 27 22 26 27 22 26 27 22 26 27 22 26 27 22 26 27 22 26 27 22 26 27 22 26 27 22 26 27 22 26 27 22 26 27
22 26 27 22 26 27 22 26 27 22 26 27 22 26 27 22 26 27 22 26 27 22 26 27 22 26 27 22 26 27 22 26 27 22 26 27 22 26 27 22 26 27 22 26 27 22 26 27
22 26 27 22 26 27 22 26 27 22 26 27 22 26 27 22 26 27 22 26 27 22 26 27 22 26 27 22 26 27 22 26 27 22 26 27 22 26 27 22 26 27 22 26 27 22 26 27
22 26 27 22 26 27 22 26 27 22 26 27 22 26 27 22 26 27 22 26 27 22 26 27 22 26 27 22 26 27 22 26 27 22 26 27 22 26 27 22 26 27 22 26 27 22 26 27
22 26 27 22 26 27 22 26 27 22 26 27 22 26 27 22 26 27 22 26 27 22 26 27 22 26 27 22 26 27 22 26 27 22 26 27 22 26 27 22 26 27 22 26 27 22 26 27
22 26 27 22 26 27 22 26 27 89 93 93 80 84 84 80 84 84 22 26 27 79 83 83 72 76 76 79 83 83 84 88 88 22 26 27 79 83 83 82 86 86 82 86 86 71 75 75
58 103 150 66 114 164 71 114 163 57 102 149 50 92 135 135 105 145 51 94 138 51 93 137 65 113 163 137 105 145 65 113 163 144 104 143 52 94 139 63 110 159 59 104 152 57 101 148
122 107 149 64 111 160 56 101 147 53 97 142 60 107 154 65 113 162 105 109 153 82 112 160 65 112 162 52 94 139 51 94 138 61 107 155 118 108 150 64 112 161 60 106 154 52 95 139
55 99 145 61 108 156 52 94 139 57 101 148 61 108 156 65 113 162 130 106 147 62 109 157 140 105 144 50 92 135 63 110 159 66 114 164 55 99 145 60 106 153 63 111 160 59 104 152
59 104 152 64 111 160 55 99 145 57 101 148 57 102 149 60 106 154 51 93 137 61 108 156 57 102 149 56 101 147 64 112 161 59 105 152 56 100 146 79 112 160 51 94 138 65 112 162
112 108 152 50 93 136 58 103 149 113 108 151 57 102 148 57 101 147 59 104 152 58 103 150 52 95 140 59 104 151 62 109 158 58 103 150 53 96 141 108 109 153 51 94 138 56 100 146
63 110 158 57 101 148 139 105 144 53 96 142 50 92 136 63 109 158 62 109 158 92 111 157 77 113 161 53 96 141 58 103 150 126 106 148 64 111 161 51 93 137 65 113 163 62 109 158
63 110 158 64 112 161 106 109 153 123 107 148 54 98 143 63 110 159 60 105 153 82 112 160 65 113 162 56 100 146 51 94 138 58 103 150 56 101 147 22 26 27 22 26 27 22 26 27
22 26 27 22 26 27 22 26 27 22 26 27 22 26 27 22 26 27 89 91 85 106 108 99 84 87 81 98 100 92 105 106 98 103 104 96 88 90 84 88 91 85 83 85 80 99 101 93
100 102 94 82 85 79 87 90 84 89 92 86 22 26 27 22 26 27 22 26 27 22 26 27 22 26 27 22 26 27 22 26 27 22 26 27 22 26 27 22 26 27 22 26 27 22 26 27
22 26 27 22 26 27 22 26 27 22 26 27 22 26 27 22 26 27 22 26 27 22 26 27 22 26 27 22 26 27 22 26 27 22 26 27 22 26 27 22 26 27 22 26 27 22 26 27
22 26 27 22 26 27 22 26 27 22 26 27 22 26 27 22 26 27 22 26 27 22 26 27 22 26 27 22 26 27 22 26 27 22 26 27 22 26 27 22 26 27 22 26 27 22 26 27
22 26 27 22 26 27 22 26 27 22 26 27 22 26 27 22 26 27 22 26 27 22 26 27 22 26 27 22 26 27 22 26 27 22 26 27 22 26 27 22 26 27 22 26 27 22 26 27
22 26 27 22 26 27 22 26 27 22 26 27 22 26 27 22 26 27 22 26 27 22 26 27 22 26 27 22 26 27 22 26 27 22 26 27 22 26 27 22 26 27 22 26 27 22 26 27
22 26 27 22 26 27 22 26 27 22 26 27 22 26 27 22 26 27 22 26 27 22 26 27 22 26 27 22 26 27 22 26 27 22 26 27 22 26 27 22 26 27 22 26 27 22 26 27
22 26 27 22 26 27 22 26 27 22 26 27 22 26 27 22 26 27 22 26 27 22 26 27 22 26 27 22 26 27 22 26 27 22 26 27 22 26 27 22 26 27 22 26 27 22 26 27
22 26 27 22 26 27 22 26 27 83 87 87 78 82 82 89 93 93 22 26 27 80 84 84 85 89 89 71 75 75 93 97 97 22 26 27 79 83 83 73 77 77 92 96 96 81 85 85
59 103 150 57 101 147 65 111 160 97 114 160 58 102 148 65 112 161 60 105 152 67 115 165 56 99 144 60 104 151 118 111 155 66 114 163 60 105 153 59 103 150 56 100 145 106 113 158
63 109 157 54 97 141 74 117 167 61 106 154 62 108 155 67 115 164 111 112 156 53 95 139 57 101 147 66 113 162 119 111 154 60 104 151 67 115 165 126 110 153 57 101 147 135 109 150
65 112 161 110 112 157 61 106 153 65 112 161 63 110 158 61 106 153 55 98 143 121 111 154 68 116 166 69 117 167 128 110 152 57 100 146 56 99 144 59 104 150 64 111 160 120 111 154
66 113 162 107 113 158 107 113 158 54 97 142 127 110 152 63 110 158 62 108 156 109 112 157 59 104 150 55 98 143 57 100 146 139 109 149 61 107 154 64 111 160 99 114 160 63 109 157
62 108 156 113 112 156 61 106 153 123 111 153 141 108 148 72 117 167 64 111 160 58 102 148 62 108 156 65 111 160 88 115 163 65 112 162 67 114 164 68 117 167 131 110 151 65 112 161
65 111 160 68 116 166 53 95 139 66 113 163 75 117 166 124 111 153 60 104 151 61 106 153 62 108 155 56 100 145 84 116 164 63 110 158 55 98 142 61 106 154 124 110 153 62 107 155
57 101 147 68 116 166 54 97 142 61 107 154 86 115 163 55 98 143 141 108 148 55 99 144 56 100 145 144 108 147 67 115 165 57 100 146 61 106 153 22 26 27 22 26 27 22 26 27
22 26 27 22 26 27 22 26 27 22 26 27 22 26 27 22 26 27 106 107 99 103 105 97 101 102 94 105 106 98 99 101 93 92 94 88 98 100 92 110 111 102 109 110 101 105 107 98
90 93 86 109 110 101 84 87 81 95 97 90 22 26 27 22 26 27 22 26 27 22 26 27 22 26 27 22 26 27 22 26 27 22 26 27 22 26 27 22 26 27 22 26 27 22 26 27
22 26 27 22 26 27 22 26 27 22 26 27 22 26 27 22 26 27 22 26 27 22 26 27 22 26 27 22 26 27 22 26 27 22 26 27 22 26 27 22 26 27 22 26 27 22 26 27
22 26 27 22 26 27 22 26 27 22 26 27 22 26 27 22 26 27 22 26 27 22 26 27 22 26 27 22 26 27 22 26 27 22 26 27 22 26 27 22 26 27 22 26 27 22 26 27
22 26 27 22 26 27 22 26 27 22 26 27 22 26 27 22 26 27 22 26 27 22 26 27 22 26 27 22 26 27 22 26 27 22 26 27 22 26 27 22 26 27 22 26 27 22 26 27
22 26 27 22 26 27 22 26 27 22 26 27 22 26 27 22 26 27 22 26 27 22 26 27 22 26 27 22 26 27 22 26 27 22 26 27 22 26 27 22 26 27 22 26 27 22 26 27
22 26 27 22 26 27 22 26 27 22 26 27 22 26 27 22 26 27 22 26 27 22 26 27 22 26 27 22 26 27 22 26 27 22 26 27 22 26 27 22 26 27 22 26 27 22 26 27
22 26 27 22 26 27 22 26 27 22 26 27 22 26 27 22 26 27 22 26 27 22 26 27 22 26 27 22 26 27 22 26 27 22 26 27 22 26 27 22 26 27 22 26 27 22 26 27
22 26 27 22 26 27 22 26 27 87 91 91 83 87 87 82 86 86 22 26 27 83 87 87 88 92 92 71 75 75 92 96 96 22 26 27 88 92 92 76 80 80 79 83 83 80 84 84
60 104 151 65 111 160 56 99 145 57 101 147 58 102 148 68 117 167 57 101 147 63 109 157 125 110 153 64 111 160 55 98 143 56 99 145 58 102 148 54 97 142 66 113 162 56 99 144
59 104 150 62 108 156 58 102 148 61 106 154 69 117 167 58 102 148 136 109 150 141 108 148 59 104 150 66 113 162 67 114 164 60 105 153 64 110 159 64 110 158 69 117 167 61 107 154
57 100 146 62 107 155 66 113 162 54 97 141 60 105 152 57 101 146 140 109 149 55 98 143 59 104 150 55 98 143 59 103 149 56 99 145 61 106 153 62 108 156 60 105 151 56 100 145
60 105 152 66 113 162 63 109 157 54 96 141 60 104 151 55 98 142 54 96 141 59 103 150 65 112 161 121 111 154 53 95 139 56 99 145 53 95 139 58 102 148 65 112 160 63 110 158
61 107 154 62 108 155 64 111 159 56 100 146 132 110 151 57 100 146 63 110 158 59 104 151 65 111 160 60 106 153 54 96 140 63 109 158 53 96 140 58 103 149 69 117 168 60 105 152
67 115 165 58 102 148 68 116 166 71 117 167 68 116 166 54 96 140 68 116 167 54 97 141 61 107 154 57 101 147 59 103 150 65 112 161 54 97 142 59 103 149 61 106 153 62 108 156
58 102 149 61 106 154 56 100 145 61 106 154 101 114 159 66 113 162 53 95 139 60 104 151 53 95 139 62 107 155 114 112 156 138 109 149 56 99 145 22 26 27 22 26 27 22 26 27
22 26 27 22 26 27 22 26 27 22 26 27 22 26 27 22 26 27 104 105 97 82 85 80 107 108 99 93 96 89 94 96 89 91 93 86 96 98 91 90 92 86 104 106 98 88 90 84
105 106 98 99 101 94 108 109 101 83 86 81 22 26 27 22 26 27 22 26 27 22 26 27 22 26 27 22 26 27 22 26 27 22 26 27 22 26 27 22 26 27 22 26 27 22 26 27
22 26 27 22 26 27 22 26 27 22 26 27 22 26 27 22 26 27 22 26 27 22 26 27 22 26 27 22 26 27 22 26 27 22 26 27 22 26 27 22 26 27 22 26 27 22 26 27
22 26 27 22 26 27 22 26 27 22 26 27 22 26 27 22 26 27 22 26 27 22 26 27 22 26 27 22 26 27 22 26 27 22 26 27 22 26 27 22 26 27 22 26 27 22 26 27
22 26 27 22 26 27 22 26 27 22 26 27 22 26 27 22 26 27 22 26 27 22 26 27 22 26 27 22 26 27 22 26 27 22 26 27 22 26 27 22 26 27 22 26 27 22 26 27
22 26 27 22 26 27 22 26 27 22 26 27 22 26 27 22 26 27 22 26 27 22 26 27 22 26 27 22 26 27 22 26 27 22 26 27 22 26 27 22 26 27 22 26 27 22 26 27
22 26 27 22 26 27 22 26 27 22 26 27 22 26 27 22 26 27 22 26 27 22 26 27 22 26 27 22 26 27 22 26 27 22 26 27 22 26 27 22 26 27 22 26 27 22 26 27
22 26 27 22 26 27 22 26 27 22 26 27 22 26 27 22 26 27 22 26 27 22 26 27 22 26 27 22 26 27 22 26 27 22 26 27 22 26 27 22 26 27 22 26 27 22 26 27
22 26 27 22 26 27 22 26 27 78 82 82 78 82 82 76 80 80 22 26 27 70 74 74 84 88 88 86 90 90 80 84 84 22 26 27 92 96 96 81 85 85 91 95 95 86 90 90
56 101 147 51 94 138 63 110 158 91 111 157 51 93 138 57 102 148 50 92 135 59 104 151 62 108 157 56 101 147 54 97 143 64 112 161 52 95 139 129 106 147 54 98 143 76 113 161
135 105 145 54 97 142 60 106 154 62 109 158 49 91 135 52 95 139 64 112 162 130 106 147 63 110 158 53 97 142 64 112 161 62 109 157 61 107 155 58 103 150 51 93 137 61 108 156
56 101 147 58 103 150 64 112 162 62 108 156 64 112 161 58 103 150 54 97 142 64 112 161 61 107 155 55 100 145 65 113 162 114 108 151 53 97 142 59 105 152 58 103 150 54 98 143
84 112 159 61 107 155 63 110 159 51 93 137 93 111 157 66 114 164 52 95 140 55 99 144 56 100 146 51 94 138 54 98 143 62 108 156 65 112 162 56 101 147 59 104 151 55 99 145
64 112 162 97 110 156 62 109 158 51 93 137 59 105 152 85 112 159 139 105 144 50 92 136 57 102 148 59 105 153 75 113 162 64 111 161 59 105 152 51 94 138 51 94 138 64 112 161
59 104 152 66 114 164 58 103 150 58 103 150 133 106 146 62 109 158 55 99 145 54 98 143 59 105 152 60 105 153 57 102 149 55 98 144 65 113 162 66 114 164 51 93 137 138 105 144
63 110 159 88 111 158 54 97 143 57 102 149 55 99 144 53 96 141 121 107 149 57 102 148 62 109 158 54 98 143 57 102 148 62 108 156 60 105 153 22 26 27 22 26 27 22 26 27
22 26 27 22 26 27 22 26 27 22 26 27 22 26 27 22 26 27 109 110 101 96 98 91 105 107 98 94 96 89 110 111 102 89 92 86 95 97 90 99 100 93 81 84 79 106 108 99
82 85 80 102 104 96 84 87 81 94 96 89 22 26 27 22 26 27 22 26 27 22 26 27 22 26 27 22 26 27 22 26 27 22 26 27 22 26 27 22 26 27 22 26 27 22 26 27
22 26 27 22 26 27 22 26 27 22 26 27 22 26 27 22 26 27 22 26 27 22 26 27 22 26 27 22 26 27 22 26 27 22 26 27 22 26 27 22 26 27 22 26 27 22 26 27
22 26 27 22 26 27 22 26 27 22 26 27 22 26 27 22 26 27 22 26 27 22 26 27 22 26 27 22 26 27 22 26 27 22 26 27 22 26 27 22 26 27 22 26 27 22 26 27
22 26 27 22 26 27 22 26 27 22 26 27 22 26 27 22 26 27 22 26 27 22 26 27 22 26 27 22 26 27 22 26 27 22 26 27 22 26 27 22 26 27 22 26 27 22 26 27
22 26 27 22 26 27 22 26 27 22 26 27 22 26 27 22 26 27 22 26 27 22 26 27 22 26 27 22 26 27 22 26 27 22 26 27 22 26 27 22 26 27 22 26 27 22 26 27
22 26 27 22 26 27 22 26 27 22 26 27 22 26 27 22 26 27 22 26 27 22 26 27 22 26 27 22 26 27 22 26 27 22 26 27 22 26 27 22 26 27 22 26 27 22 26 27
22 26 27 22 26 27 22 26 27 22 26 27 22 26 27 22 26 27 22 26 27 22 26 27 22 26 27 22 26 27 22 26 27 22 26 27 22 26 27 22 26 27 22 26 27 22 26 27
22 26 27 22 26 27 22 26 27 92 96 96 78 82 82 79 83 83 22 26 27 71 75 75 79 83 83 86 90 90 85 89 89 22 26 27 90 94 94 91 95 95 71 75 75 79 83 83
58 105 153 50 94 140 55 100 147 60 108 157 60 108 157 52 97 143 52 96 142 53 98 144 57 103 151 46 89 132 56 102 149 47 89 133 72 107 154 56 102 150 56 102 149 45 87 130
57 103 151 57 104 152 56 102 150 87 105 150 55 101 148 53 98 145 57 103 151 47 89 133 132 99 138 47 90 134 105 103 146 52 97 143 48 91 136 77 106 153 55 101 148 48 90 134
51 95 141 50 94 139 92 104 149 45 86 129 55 100 147 51 95 140 60 108 157 52 96 142 51 95 140 44 86 128 52 96 142 46 88 131 57 104 152 46 89 132 122 101 141 47 89 133
45 87 130 60 107 156 117 101 142 45 87 130 56 102 149 53 98 144 139 99 136 59 107 155 51 95 141 74 107 154 51 95 140 70 107 155 136 99 137 56 102 149 59 106 155 44 86 128
47 89 133 132 99 138 57 103 151 44 86 129 115 102 143 99 104 147 113 102 143 59 107 156 56 103 150 57 103 151 45 86 129 48 91 135 54 100 147 92 104 149 45 86 129 48 90 135
53 97 144 54 99 146 53 98 144 83 106 151 52 96 142 97 104 148 56 102 150 53 98 145 46 89 133 48 91 135 53 98 145 58 105 154 56 103 150 59 106 155 59 107 155 54 100 146
54 99 146 51 95 141 46 88 132 102 103 146 48 90 135 49 93 138 53 98 144 48 91 135 60 108 158 54 100 147 48 91 135 103 103 146 52 97 143 22 26 27 22 26 27 22 26 27
22 26 27 22 26 27 22 26 27 22 26 27 22 26 27 22 26 27 92 94 88 102 103 95 109 110 101 98 100 93 84 87 81 108 109 100 105 106 98 87 90 84 108 109 101 89 92 85
94 96 89 82 85 80 91 93 87 82 85 80 22 26 27 22 26 27 22 26 27 22 26 27 22 26 27 22 26 27 22 26 27 22 26 27 22 26 27 22 26 27 22 26 27 22 26 27
22 26 27 22 26 27 22 26 27 22 26 27 22 26 27 22 26 27 22 26 27 22 26 27 22 26 27 22 26 27 22 26 27 22 26 27 22 26 27 22 26 27 22 26 27 22 26 27
22 26 27 22 26 27 22 26 27 22 26 27 22 26 27 22 26 27 22 26 27 22 26 27 22 26 27 22 26 27 22 26 27 22 26 27 22 26 27 22 26 27 22 26 27 22 26 27
22 26 27 22 26 27 22 26 27 22 26 27 22 26 27 22 26 27 22 26 27 22 26 27 22 26 27 22 26 27 22 26 27 22 26 27 22 26 27 22 26 27 22 26 27 22 26 27
22 26 27 22 26 27 22 26 27 22 26 27 22 26 27 22 26 27 22 26 27 22 26 27 22 26 27 22 26 27 22 26 27 22 26 27 22 26 27 22 26 27 22 26 27 22 26 27
22 26 27 22 26 27 22 26 27 22 26 27 22 26 27 22 26 27 22 26 27 22 26 27 22 26 27 22 26 27 22 26 27 22 26 27 22 26 27 22 26 27 22 26 27 22 26 27
22 26 27 22 26 27 22 26 27 22 26 27 22 26 27 22 26 27 22 26 27 22 26 27 22 26 27 22 26 27 22 26 27 22 26 27 22 26 27 22 26 27 22 26 27 22 26 27
22 26 27 22 26 27 22 26 27 92 96 96 79 83 83 91 95 95 22 26 27 81 85 85 79 83 83 72 76 76 89 93 93 22 26 27 85 89 89 87 91 91 84 88 88 74 78 78
108 95 136 40 82 125 54 101 149 42 84 128 39 80 123 49 95 141 39 81 123 47 91 136 123 93 132 117 94 133 39 80 123 52 98 146 91 97 140 44 88 132 55 102 150 39 80 123
47 92 138 49 94 140 49 95 141 50 96 143 45 89 134 46 90 135 53 100 148 39 81 123 41 83 126 49 94 141 45 89 134 50 95 142 88 98 141 119 94 133 48 93 139 39 81 123
85 98 142 41 83 126 49 95 141 40 81 124 45 88 133 49 94 141 51 98 145 46 90 135 38 79 121 47 91 137 107 95 136 46 91 136 98 96 138 39 81 123 52 99 146 42 84 128
53 99 147 54 101 150 49 94 140 46 90 135 47 92 138 51 98 145 42 84 127 66 101 147 41 83 126 47 92 137 40 81 124 42 85 128 51 97 144 49 95 141 41 83 126 52 98 146
43 87 131 68 100 147 54 101 149 123 93 132 50 95 142 43 86 130 38 79 121 47 91 137 41 83 126 57 102 150 39 80 122 41 83 126 51 97 144 79 99 144 51 97 144 40 81 124
51 97 145 47 92 138 50 96 142 51 97 144 60 101 149 49 94 140 113 95 134 115 94 134 42 84 127 44 87 131 64 101 148 45 89 133 47 91 136 52 98 145 51 97 144 54 102 150
52 99 146 48 93 138 40 81 124 41 83 126 49 95 141 118 94 133 40 82 125 47 92 137 40 81 124 94 97 140 76 99 145 49 94 140 52 99 146 22 26 27 22 26 27 22 26 27
22 26 27 22 26 27 22 26 27 22 26 27 22 26 27 22 26 27 91 93 87 109 110 101 95 97 90 95 97 90 95 97 90 82 85 80 107 108 100 83 86 81 95 97 90 108 109 100
105 106 98 99 101 94 107 108 100 85 88 82 22 26 27 22 26 27 22 26 27 22 26 27 22 26 27 22 26 27 22 26 27 22 26 27 22 26 27 22 26 27 22 26 27 22 26 27
106 107 99 81 84 79 91 93 87 89 91 85 94 96 89 102 104 96 108 109 100 110 111 102 89 91 85 80 83 78 98 99 92 109 110 101 98 100 92 106 107 99 81 84 78 97 99 91
104 106 97 105 106 98 101 102 95 94 96 89 88 91 85 108 109 100 110 111 102 98 100 93 102 103 95 92 94 87 84 87 81 91 93 87 100 101 94 104 106 98 105 106 98 105 106 98
92 94 88 82 85 80 80 83 78 104 106 97 109 110 101 103 105 97 90 93 86 108 109 101 100 102 94 109 110 101 88 90 84 93 95 88 100 101 94 86 89 83 94 96 89 22 26 27
22 26 27 22 26 27 22 26 27 22 26 27 22 26 27 22 26 27 22 26 27 22 26 27 22 26 27 22 26 27 22 26 27 22 26 27 22 26 27 22 26 27 22 26 27 22 26 27
22 26 27 22 26 27 22 26 27 22 26 27 22 26 27 22 26 27 22 26 27 22 26 27 22 26 27 22 26 27 22 26 27 22 26 27 22 26 27 22 26 27 22 26 27 22 26 27
22 26 27 22 26 27 22 26 27 22 26 27 22 26 27 22 26 27 22 26 27 22 26 27 22 26 27 22 26 27 22 26 27 22 26 27 22 26 27 22 26 27 22 26 27 22 26 27
22 26 27 22 26 27 22 26 27 74 78 78 86 90 90 87 91 91 22 26 27 83 87 87 74 78 78 92 96 96 90 94 94 22 26 27 71 75 75 84 88 88 84 88 88 79 83 83
43 87 132 38 81 125 33 74 115 62 95 140 49 95 143 111 88 127 49 96 143 37 80 123 48 94 141 128 86 122 43 87 132 35 76 118 42 87 132 42 86 130 55 95 142 42 86 130
41 85 129 54 96 143 46 91 138 41 85 130 40 84 128 33 74 115 41 85 129 103 89 129 92 91 132 42 87 131 100 90 130 48 95 142 43 88 134 44 89 134 47 94 141 60 95 141
42 86 131 45 90 136 47 94 141 47 93 140 33 74 115 49 95 143 48 95 142 47 93 140 102 90 129 41 85 129 120 87 124 42 86 130 34 75 117 74 93 137 33 74 115 39 82 125
115 88 126 63 94 140 38 80 124 45 90 136 49 96 144 37 79 122 41 85 129 33 74 115 41 85 129 45 91 137 42 86 130 39 83 126 45 90 136 95 90 131 47 94 141 46 91 138
38 80 124 39 82 125 36 78 120 41 85 129 36 77 120 41 84 129 35 77 119 39 82 125 45 90 136 36 78 120 34 75 117 37 79 122 48 95 142 40 84 128 35 76 118 44 89 135
49 96 143 35 76 118 34 75 117 34 74 116 47 94 141 42 86 131 43 87 132 44 89 135 48 95 142 35 76 118 38 81 124 117 88 125 34 75 116 34 75 117 41 85 130 73 93 137
35 76 118 34 75 117 71 93 138 39 81 125 39 82 125 41 85 130 40 84 128 38 81 124 38 81 125 44 89 134 34 75 117 43 88 134 80 92 136 22 26 27 22 26 27 22 26 27
22 26 27 22 26 27 22 26 27 22 26 27 22 26 27 22 26 27 100 102 94 109 110 101 85 88 82 95 97 90 82 85 80 82 85 80 105 106 98 92 94 87 82 85 80 110 111 102
95 97 90 85 88 82 101 103 95 99 101 93 22 26 27 22 26 27 22 26 27 22 26 27 22 26 27 22 26 27 22 26 27 22 26 27 22 26 27 22 26 27 22 26 27 22 26 27
106 107 98 86 88 83 97 99 92 96 97 90 89 91 85 88 90 84 91 93 87 82 85 80 98 100 92 92 94 88 89 91 85 109 110 101 108 109 100 84 87 81 96 98 91 80 83 78
95 97 90 105 106 98 98 99 92 97 99 92 100 102 94 95 97 90 105 107 98 92 94 88 110 111 102 89 92 85 82 85 80 91 93 87 105 107 98 100 101 94 103 104 96 83 86 80
97 99 91 96 98 91 85 88 82 108 109 100 109 110 101 87 90 84 100 102 94 81 84 79 82 85 80 90 93 86 110 111 102 105 106 98 87 90 84 88 91 85 96 98 91 22 26 27
22 26 27 22 26 27 22 26 27 22 26 27 22 26 27 22 26 27 22 26 27 22 26 27 22 26 27 22 26 27 22 26 27 22 26 27 22 26 27 22 26 27 22 26 27 22 26 27
22 26 27 22 26 27 22 26 27 22 26 27 22 26 27 22 26 27 22 26 27 22 26 27 22 26 27 22 26 27 22 26 27 22 26 27 22 26 27 22 26 27 22 26 27 22 26 27
22 26 27 22 26 27 22 26 27 22 26 27 22 26 27 22 26 27 22 26 27 22 26 27 22 26 27 22 26 27 22 26 27 22 26 27 22 26 27 22 26 27 22 26 27 22 26 27
22 26 27 22 26 27 22 26 27 78 82 82 85 89 89 73 77 77 22 26 27 88 92 92 75 79 79 72 76 76 84 88 88 22 26 27 71 75 75 86 90 90 77 81 81 86 90 90
110 84 121 44 91 137 45 91 138 31 72 113 100 85 124 30 71 113 41 86 132 50 92 138 42 87 133 42 87 133 40 84 129 35 78 121 37 81 124 63 90 134 38 82 126 31 72 114
43 89 135 30 71 113 33 75 118 91 86 127 59 90 135 32 74 116 42 87 133 39 84 129 82 87 129 35 78 121 113 83 121 71 89 132 37 81 125 32 74 115 42 87 133 32 73 115
35 78 121 36 80 123 29 70 110 39 84 129 120 83 119 105 84 123 31 73 114 37 81 125 38 83 127 41 87 132 31 72 113 30 70 111 48 92 138 30 71 112 38 83 127 45 92 139
35 78 121 35 77 120 34 76 118 44 90 137 70 89 133 117 83 119 39 83 127 65 90 134 35 78 121 41 86 131 39 84 129 42 88 134 40 85 130 42 87 133 34 76 118 35 78 121
39 83 127 43 88 134 41 86 131 33 75 117 43 90 136 34 77 119 39 84 128 39 84 128 37 81 125 85 87 128 37 80 124 35 78 121 43 89 136 40 85 130 34 76 118 43 88 134
44 90 136 44 90 136 35 78 122 32 74 115 37 81 125 45 92 139 57 91 136 32 74 116 43 89 135 42 87 133 31 73 114 33 75 118 30 70 111 36 80 123 31 72 114 35 78 121
39 83 128 38 82 126 30 71 112 30 71 112 31 73 114 41 87 132 34 77 119 40 85 131 75 88 131 36 79 122 32 73 115 34 76 118 29 69 110 22 26 27 22 26 27 22 26 27
22 26 27 22 26 27 22 26 27 22 26 27 22 26 27 22 26 27 86 89 83 104 105 97 89 92 85 95 97 90 86 88 83 106 107 99 83 86 81 101 103 95 88 91 85 89 92 85
101 103 95 88 91 85 82 85 80 83 85 80 22 26 27 22 26 27 22 26 27 22 26 27 22 26 27 22 26 27 22 26 27 22 26 27 22 26 27 22 26 27 22 26 27 22 26 27
85 87 82 90 92 86 83 86 80 97 99 91 84 87 81 88 90 84 99 101 93 101 102 95 90 93 86 86 89 83 109 110 101 107 108 100 97 99 92 109 110 101 98 100 93 96 98 91
108 109 101 92 94 87 89 91 85 106 108 99 105 107 98 107 108 99 99 100 93 109 110 101 96 98 91 85 88 82 94 96 89 105 106 98 81 84 79 108 109 100 97 99 92 92 94 88
100 102 94 91 93 87 91 93 87 81 84 79 94 96 89 101 103 95 102 104 96 99 101 93 109 110 101 85 88 82 92 94 87 96 98 91 104 106 97 109 110 101 105 106 98 22 26 27
22 26 27 22 26 27 22 26 27 22 26 27 22 26 27 22 26 27 22 26 27 22 26 27 22 26 27 22 26 27 22 26 27 22 26 27 22 26 27 22 26 27 22 26 27 22 26 27
22 26 27 22 26 27 22 26 27 22 26 27 22 26 27 22 26 27 22 26 27 22 26 27 22 26 27 22 26 27 22 26 27 22 26 27 22 26 27 22 26 27 22 26 27 22 26 27
22 26 27 22 26 27 22 26 27 22 26 27 22 26 27 22 26 27 22 26 27 22 26 27 22 26 27 22 26 27 22 26 27 22 26 27 22 26 27 22 26 27 22 26 27 22 26 27
22 26 27 22 26 27 22 26 27 88 92 92 89 93 93 91 95 95 22 26 27 78 82 82 90 94 94 79 83 83 87 91 91 22 26 27 73 77 77 74 78 78 80 84 84 93 97 97
41 88 134 37 81 126 36 80 124 30 72 113 41 88 134 34 78 121 38 83 128 28 69 110 36 79 123 38 83 128 29 71 112 28 68 109 35 79 123 27 67 107 27 67 108 37 81 125
32 75 117 32 74 116 42 88 134 29 71 112 35 79 122 40 86 132 30 71 113 35 79 123 30 71 113 30 71 112 65 87 130 59 87 132 28 69 110 36 80 124 61 87 131 30 72 114
31 73 115 38 82 127 44 89 136 83 84 125 33 76 119 40 85 131 31 74 116 98 82 121 34 77 120 31 73 115 38 83 128 106 81 119 41 88 134 27 68 109 31 73 116 31 73 116
103 82 120 42 89 135 27 67 108 34 77 121 41 88 134 36 80 124 29 70 111 42 88 134 37 81 125 42 88 134 38 83 127 30 71 113 33 75 118 68 86 129 37 82 126 63 87 131
29 70 111 36 80 125 38 83 128 62 87 131 41 87 134 34 76 120 36 80 124 35 79 123 42 88 134 82 85 126 36 79 123 35 78 122 42 89 135 38 83 128 38 83 128 54 88 133
42 89 135 39 84 130 35 79 123 41 87 133 38 83 128 36 80 124 29 70 111 98 83 121 28 68 109 41 87 133 41 87 133 41 88 134 39 85 130 32 75 118 34 78 121 30 72 114
28 69 109 33 76 119 37 82 126 98 82 121 28 69 109 41 87 133 28 69 110 42 89 135 47 89 135 79 85 126 33 75 118 28 68 109 72 86 128 22 26 27 22 26 27 22 26 27
22 26 27 22 26 27 22 26 27 22 26 27 22 26 27 22 26 27 109 110 101 91 93 87 100 102 94 95 97 90 96 98 91 101 103 95 89 91 85 85 88 82 106 108 99 106 107 99
101 103 95 97 99 92 91 93 87 102 104 96 22 26 27 22 26 27 22 26 27 22 26 27 22 26 27 22 26 27 22 26 27 22 26 27 22 26 27 22 26 27 22 26 27 22 26 27
100 102 94 104 106 97 90 92 86 83 86 80 105 106 98 105 107 98 105 106 98 104 105 97 104 105 97 104 105 97 110 111 102 85 88 82 92 94 88 87 90 84 108 109 100 98 100 92
106 108 99 106 108 99 94 96 89 109 110 101 102 103 95 102 103 96 86 89 83 87 89 84 94 96 89 87 89 83 107 108 100 99 100 93 101 103 95 108 109 100 82 85 79 92 94 88
90 92 86 107 108 100 85 87 82 109 110 101 94 96 89 80 83 78 90 92 86 87 90 84 100 101 94 82 85 80 102 104 96 102 103 95 108 109 100 107 108 100 95 97 90 22 26 27
22 26 27 22 26 27 22 26 27 22 26 27 22 26 27 22 26 27 22 26 27 22 26 27 22 26 27 22 26 27 22 26 27 22 26 27 22 26 27 22 26 27 22 26 27 22 26 27
22 26 27 22 26 27 22 26 27 22 26 27 22 26 27 22 26 27 22 26 27 22 26 27 22 26 27 22 26 27 22 26 27 22 26 27 22 26 27 22 26 27 22 26 27 22 26 27
22 26 27 22 26 27 22 26 27 22 26 27 22 26 27 22 26 27 22 26 27 22 26 27 22 26 27 22 26 27 22 26 27 22 26 27 22 26 27 22 26 27 22 26 27 22 26 27
22 26 27 22 26 27 22 26 27 83 87 87 81 85 85 81 85 85 22 26 27 85 89 89 73 77 77 84 88 88 82 86 86 22 26 27 84 88 88 82 86 86 93 97 97 76 80 80
32 75 118 34 78 122 52 86 131 59 85 129 36 80 125 35 79 123 39 84 130 25 65 105 37 82 127 33 76 119 100 80 118 34 78 122 36 80 125 39 85 131 31 73 115 28 69 110
37 83 128 39 84 130 25 66 106 37 82 127 26 67 108 40 86 132 41 87 134 29 71 113 34 78 122 36 80 125 36 81 126 49 87 132 38 83 128 38 83 128 32 75 118 25 65 105
40 85 131 114 78 114 86 82 122 39 85 131 51 86 132 35 80 124 28 69 111 36 81 126 38 83 129 28 70 111 34 78 121 34 77 121 25 66 106 34 78 122 39 84 130 34 78 122
35 79 124 31 73 115 108 79 116 33 76 120 79 83 124 65 85 128 25 65 105 95 81 119 35 79 123 28 69 110 40 87 133 38 83 129 36 80 125 25 65 106 29 71 113 37 83 128
32 75 118 73 84 125 40 86 133 41 87 133 31 74 116 80 83 123 30 72 114 30 72 114 37 81 126 38 83 129 31 73 115 38 84 129 31 74 117 39 85 130 35 79 124 41 87 133
30 71 113 38 83 128 32 75 118 39 84 130 33 77 120 30 73 115 75 83 125 38 84 129 27 68 109 27 68 109 105 80 117 25 65 105 40 86 132 33 76 119 90 81 121 36 80 125
25 66 106 35 79 124 64 85 128 55 86 130 72 84 126 29 71 113 26 66 107 28 69 111 31 74 116 30 72 114 59 85 129 28 70 111 37 82 126 22 26 27 22 26 27 22 26 27
22 26 27 22 26 27 22 26 27 22 26 27 22 26 27 22 26 27 85 88 82 85 87 82 83 86 80 82 85 80 102 104 96 90 93 86 82 85 80 90 92 86 103 104 96 102 103 96
93 95 88 89 91 85 83 86 80 110 111 102 22 26 27 22 26 27 22 26 27 22 26 27 22 26 27 22 26 27 22 26 27 22 26 27 22 26 27 22 26 27 22 26 27 22 26 27
106 107 99 81 84 79 106 107 99 110 111 102 106 107 99 108 109 100 93 95 89 91 93 87 108 109 100 99 101 93 94 96 90 97 99 92 94 96 89 86 89 83 106 107 99 107 108 99
96 98 91 99 101 94 91 93 87 92 94 88 110 111 102 93 95 88 84 87 82 93 95 89 103 105 97 98 99 92 109 110 101 88 91 85 83 86 80 94 96 89 87 90 84 90 93 86
93 95 88 81 84 79 88 90 84 82 85 80 110 111 102 98 100 92 109 110 102 89 91 85 108 109 100 88 91 85 103 105 97 109 110 101 99 101 93 106 107 99 100 102 94 22 26 27
22 26 27 22 26 27 22 26 27 22 26 27 22 26 27 22 26 27 22 26 27 22 26 27 22 26 27 22 26 27 22 26 27 22 26 27 22 26 27 22 26 27 22 26 27 22 26 27
22 26 27 22 26 27 22 26 27 22 26 27 22 26 27 22 26 27 22 26 27 22 26 27 22 26 27 22 26 27 22 26 27 22 26 27 22 26 27 22 26 27 22 26 27 22 26 27
22 26 27 22 26 27 22 26 27 22 26 27 22 26 27 22 26 27 22 26 27 22 26 27 22 26 27 22 26 27 22 26 27 22 26 27 22 26 27 22 26 27 22 26 27 22 26 27
22 26 27 22 26 27 22 26 27 82 86 86 90 94 94 92 96 96 22 26 27 89 93 93 77 81 81 79 83 83 86 90 90 22 26 27 85 89 89 80 84 84 82 86 86 77 81 81
26 67 108 27 68 109 97 78 116 26 67 108 27 68 110 38 83 129 38 84 130 39 85 131 32 76 120 24 64 104 27 68 109 33 77 122 27 69 110 27 68 110 26 67 108 27 69 110
24 64 104 28 70 112 33 77 121 37 83 128 61 82 126 37 82 127 35 79 124 33 78 122 33 77 121 72 81 123 25 65 106 33 78 122 27 68 110 26 66 107 28 70 111 36 81 126
24 65 105 35 79 124 34 78 122 36 81 126 24 65 106 24 64 105 28 70 112 27 69 111 37 82 128 32 76 119 33 77 121 113 76 111 37 83 129 36 81 126 75 81 122 55 83 127
34 78 122 79 80 121 38 84 130 26 67 108 24 64 104 33 77 120 26 67 108 29 71 113 27 68 110 31 74 117 113 76 111 62 82 125 28 70 112 26 67 108 33 77 121 35 80 125
34 78 123 35 80 125 30 73 115 57 83 127 66 82 124 24 64 104 26 68 109 23 63 102 34 79 123 26 67 109 25 65 106 68 82 124 28 70 112 63 82 125 68 82 124 24 65 105
25 65 106 38 85 131 47 84 129 94 78 117 39 85 131 36 82 127 27 68 110 25 66 107 26 67 109 25 65 106 36 81 126 35 80 124 74 81 122 38 84 129 35 80 125 30 72 115
26 67 109 30 72 115 32 76 119 24 64 105 36 81 126 26 67 109 35 80 124 31 74 117 23 63 103 26 67 108 36 82 127 31 75 118 38 83 129 22 26 27 22 26 27 22 26 27
22 26 27 22 26 27 22 26 27 22 26 27 22 26 27 22 26 27 100 102 94 99 100 93 99 101 93 85 87 82 86 88 83 90 92 86 84 87 81 94 96 89 88 91 85 103 104 96
103 104 96 84 87 81 88 91 85 106 107 99 22 26 27 22 26 27 22 26 27 22 26 27 22 26 27 22 26 27 22 26 27 22 26 27 22 26 27 22 26 27 22 26 27 22 26 27
102 104 96 94 96 89 97 99 92 95 97 90 93 95 88 102 103 95 93 95 88 103 104 96 99 100 93 94 96 89 94 97 90 82 85 80 95 97 90 83 86 80 108 109 100 105 106 98
101 102 94 81 84 79 91 94 87 103 104 96 82 85 80 81 84 79 102 104 96 90 92 86 102 104 96 83 85 80 97 99 91 81 84 79 103 104 96 97 99 91 104 105 97 85 87 82
99 101 93 83 86 80 105 106 98 95 97 90 106 107 99 93 95 88 80 83 78 109 110 101 81 84 79 103 105 97 94 96 89 105 106 98 81 84 79 105 106 98 92 94 87 22 26 27
22 26 27 22 26 27 22 26 27 22 26 27 22 26 27 22 26 27 22 26 27 22 26 27 22 26 27 22 26 27 22 26 27 22 26 27 22 26 27 22 26 27 22 26 27 22 26 27
22 26 27 22 26 27 22 26 27 22 26 27 22 26 27 22 26 27 22 26 27 22 26 27 22 26 27 22 26 27 22 26 27 22 26 27 22 26 27 22 26 27 22 26 27 22 26 27
22 26 27 22 26 27 22 26 27 22 26 27 22 26 27 22 26 27 22 26 27 22 26 27 22 26 27 22 26 27 22 26 27 22 26 27 22 26 27 22 26 27 22 26 27 22 26 27
22 26 27 22 26 27 22 26 27 92 96 96 77 81 81 72 76 76 22 26 27 70 74 74 74 78 78 79 83 83 91 95 95 22 26 27 88 92 92 92 96 96 89 93 93 76 80 80
91 74 112 35 81 127 31 75 120 56 79 122 24 65 107 21 62 102 31 75 119 32 76 120 28 71 115 35 80 126 67 77 119 29 72 115 34 80 125 34 80 125 33 78 123 21 62 102
29 73 116 28 70 113 48 80 124 30 74 118 32 76 120 26 68 110 46 80 124 40 81 126 110 72 107 28 71 114 33 77 122 21 62 102 24 65 106 26 68 111 31 75 119 29 73 116
21 61 101 27 70 113 26 69 111 33 78 122 29 73 116 26 68 111 33 79 124 20 60 100 28 71 114 35 81 127 28 71 114 25 67 108 23 64 105 38 81 126 29 73 117 24 65 107
20 60 100 100 73 109 31 75 119 34 80 125 32 76 121 33 78 124 30 74 118 34 80 125 36 81 127 77 76 116 26 69 111 20 60 100 23 65 106 72 77 117 61 78 120 30 74 118
20 59 99 31 76 120 40 81 126 64 78 119 22 63 104 24 65 106 46 80 124 36 81 127 24 65 107 21 61 101 31 75 119 31 75 119 35 80 126 34 80 126 28 71 114 93 74 111
30 73 117 60 78 120 27 69 112 28 71 114 22 62 102 20 60 99 27 70 112 32 77 122 24 66 108 46 80 124 28 70 113 27 70 113 33 78 123 101 73 109 32 77 122 19 58 98
39 81 126 26 68 110 86 75 113 30 74 118 24 65 107 29 72 116 27 70 113 36 81 127 31 76 120 105 72 108 27 70 112 89 74 113 35 80 126 22 26 27 22 26 27 22 26 27
22 26 27 22 26 27 22 26 27 22 26 27 22 26 27 22 26 27 108 109 100 108 109 100 96 98 90 107 108 100 94 96 89 99 101 93 88 91 85 103 104 96 83 86 81 90 92 86
89 92 85 82 85 79 108 109 101 83 86 80 22 26 27 22 26 27 22 26 27 22 26 27 22 26 27 22 26 27 22 26 27 22 26 27 22 26 27 22 26 27 22 26 27 22 26 27
106 107 99 100 101 94 88 91 85 95 97 90 104 106 98 103 104 96 81 84 79 108 109 101 105 106 98 90 92 86 101 103 95 98 100 92 103 104 96 104 106 98 95 97 90 103 105 97
105 106 98 102 103 95 83 85 80 101 103 95 85 87 82 82 85 80 82 85 79 88 90 84 104 106 97 84 87 81 97 99 92 88 90 84 81 84 79 100 102 94 90 93 86 82 85 80
85 88 82 103 105 97 96 98 91 97 99 91 82 85 80 88 90 84 101 103 95 104 105 97 106 108 99 100 101 94 90 93 86 82 85 80 91 93 87 103 104 96 94 97 90 22 26 27
22 26 27 22 26 27 22 26 27 22 26 27 22 26 27 22 26 27 22 26 27 22 26 27 22 26 27 22 26 27 22 26 27 22 26 27 22 26 27 22 26 27 22 26 27 22 26 27
22 26 27 22 26 27 22 26 27 22 26 27 22 26 27 22 26 27 22 26 27 22 26 27 22 26 27 22 26 27 22 26 27 22 26 27 22 26 27 22 26 27 22 26 27 22 26 27
22 26 27 22 26 27 22 26 27 22 26 27 22 26 27 22 26 27 22 26 27 22 26 27 22 26 27 22 26 27 22 26 27 22 26 27 22 26 27 22 26 27 22 26 27 22 26 27
22 26 27 22 26 27 22 26 27 81 85 85 90 94 94 69 73 73 22 26 27 78 82 82 70 74 74 72 76 76 86 90 90 22 26 27 71 75 75 88 92 92 80 84 84 90 94 94
26 69 113 21 63 105 108 66 100 22 64 107 26 70 114 30 75 120 76 70 108 14 53 92 16 56 96 22 65 107 18 58 99 15 54 93 26 70 114 29 74 119 25 68 111 25 68 112
25 69 112 23 66 109 15 55 95 22 64 107 28 72 117 76 70 108 72 70 109 25 69 112 21 63 105 20 61 103 15 55 94 24 66 109 16 56 96 17 57 97 22 65 107 29 73 118
26 70 114 26 70 114 20 62 103 23 65 107 16 56 96 22 64 106 18 58 99 64 71 112 16 56 96 22 64 107 19 60 101 21 63 104 29 74 118 23 65 107 18 59 99 30 75 120
22 64 107 30 75 121 14 53 92 19 60 101 22 64 106 15 54 94 58 72 113 24 67 110 27 71 115 27 72 116 23 65 108 27 71 115 15 54 93 30 75 121 18 59 100 14 53 92
16 56 96 22 65 107 16 56 96 17 58 98 19 59 100 15 55 95 68 71 111 19 60 100 14 53 91 25 68 112 15 54 93 29 74 119 17 58 98 21 63 105 18 59 99 17 57 98
16 56 95 25 69 113 27 71 115 16 56 96 69 70 110 71 70 110 16 56 96 19 60 101 14 53 93 27 71 115 29 75 120 29 75 120 26 70 114 25 68 111 15 54 93 14 53 92
55 72 114 24 67 110 15 55 94 26 69 113 35 75 119 22 64 106 23 66 109 25 69 113 17 58 98 34 75 120 21 63 104 18 59 100 14 53 91 22 26 27 22 26 27 22 26 27
22 26 27 22 26 27 22 26 27 22 26 27 22 26 27 22 26 27 87 89 83 92 94 88 109 110 101 89 92 85 89 91 85 91 93 87 90 93 86 110 111 102 99 101 93 107 108 100
93 95 88 87 90 84 83 86 81 87 90 84 22 26 27 22 26 27 22 26 27 22 26 27 22 26 27 22 26 27 22 26 27 22 26 27 22 26 27 22 26 27 22 26 27 22 26 27
92 94 87 84 87 81 95 97 90 85 88 82 103 104 96 95 97 90 84 87 81 100 102 94 85 88 82 96 98 91 110 111 102 83 86 80 106 108 99 81 84 79 99 101 93 104 106 97
90 93 86 104 105 97 83 86 81 109 110 101 86 88 83 109 110 102 95 97 90 86 89 83 87 89 83 92 94 88 87 89 83 102 103 95 105 106 98 104 105 97 81 84 79 89 91 85
85 87 82 105 107 98 105 106 98 82 85 79 84 87 82 98 100 92 103 104 96 100 102 94 82 85 79 106 107 99 89 91 85 87 90 84 90 92 86 108 109 100 82 84 79 22 26 27
22 26 27 22 26 27 22 26 27 109 110 101 101 103 95 83 85 80 109 110 101 101 103 95 87 89 83 100 102 94 94 96 89 89 92 85 86 89 83 102 103 95 103 104 96 97 99 92
89 91 85 82 84 79 101 102 95 96 97 90 96 98 91 91 93 87 22 26 27 22 26 27 22 26 27 22 26 27 22 26 27 22 26 27 22 26 27 22 26 27 22 26 27 22 26 27
22 26 27 22 26 27 22 26 27 22 26 27 22 26 27 22 26 27 22 26 27 22 26 27 22 26 27 22 26 27 22 26 27 22 26 27 22 26 27 22 26 27 22 26 27 22 26 27
22 26 27 22 26 27 22 26 27 71 75 75 74 78 78 88 92 92 22 26 27 75 79 79 71 75 75 79 83 83 74 78 78 22 26 27 82 86 86 91 95 95 70 74 74 89 93 93
17 59 100 89 61 97 80 63 99 29 69 113 22 66 110 22 66 109 22 65 109 13 53 93 21 65 109 17 59 101 94 61 95 20 63 106 13 54 94 24 69 114 11 50 90 20 63 106
26 69 114 21 65 108 9 48 87 13 53 93 11 50 90 17 58 100 12 52 92 17 59 101 20 63 106 17 59 100 97 60 95 18 60 103 19 62 104 22 66 110 21 65 108 14 54 95
15 57 98 17 60 102 24 68 113 19 61 104 19 61 103 41 68 110 11 51 90 13 53 93 12 52 92 15 56 98 14 54 95 9 48 87 17 59 100 21 64 108 12 51 91 88 62 97
21 64 108 15 57 98 64 65 104 41 68 110 17 59 101 20 63 106 23 68 112 20 63 106 62 65 104 19 62 104 93 61 96 22 66 110 21 64 107 17 59 101 10 49 87 21 65 108
14 54 95 24 69 114 9 48 86 15 56 96 92 61 96 20 62 105 19 61 103 16 57 98 89 61 97 37 68 111 41 67 110 20 62 105 15 56 97 17 59 101 13 53 93 10 49 89
24 68 112 21 64 107 10 49 88 68 64 103 17 58 100 16 58 99 21 64 108 17 59 100 16 57 99 12 52 92 20 63 107 26 69 114 28 69 114 38 68 111 73 63 101 13 54 94
23 67 112 72 64 101 10 49 88 13 53 94 22 66 110 21 65 108 24 69 113 12 52 92 13 53 93 17 59 101 22 66 110 12 52 92 19 62 105 22 26 27 22 26 27 22 26 27
22 26 27 22 26 27 22 26 27 22 26 27 22 26 27 22 26 27 85 88 82 107 108 100 89 91 85 85 88 82 108 109 101 100 102 94 108 109 100 85 88 82 97 99 92 101 102 95
110 111 102 82 85 79 88 91 85 99 101 93 22 26 27 22 26 27 22 26 27 22 26 27 22 26 27 22 26 27 22 26 27 22 26 27 22 26 27 22 26 27 22 26 27 22 26 27
99 101 93 87 90 84 81 84 79 93 95 89 85 88 82 88 90 84 81 84 79 81 84 79 103 105 97 109 110 101 97 98 91 92 94 88 100 102 94 104 106 97 95 97 90 94 96 89
89 92 85 105 106 98 90 92 86 91 93 87 106 107 99 95 97 90 96 98 91 88 90 84 93 95 89 98 100 93 93 95 89 86 89 83 104 105 97 83 85 80 88 91 85 96 98 91
95 97 90 107 109 100 89 91 85 94 96 89 101 102 94 86 89 83 87 89 84 104 105 97 89 92 85 103 105 97 96 98 90 109 110 101 92 94 87 94 96 89 87 89 84 22 26 27
22 26 27 22 26 27 22 26 27 100 102 94 106 107 99 96 98 91 94 96 89 87 89 83 82 85 79 104 106 98 102 103 95 81 84 79 103 105 97 106 108 99 86 88 83 107 108 100
92 94 87 89 91 85 82 85 79 108 109 101 88 91 85 98 99 92 22 26 27 22 26 27 22 26 27 22 26 27 22 26 27 22 26 27 22 26 27 22 26 27 22 26 27 22 26 27
22 26 27 22 26 27 22 26 27 22 26 27 22 26 27 22 26 27 22 26 27 22 26 27 22 26 27 22 26 27 22 26 27 22 26 27 22 26 27 22 26 27 22 26 27 22 26 27
22 26 27 22 26 27 22 26 27 83 87 87 89 93 93 90 94 94 22 26 27 73 77 77 81 85 85 71 75 75 93 97 97 22 26 27 75 79 79 85 89 89 72 76 76 72 76 76
11 52 92 10 50 90 19 63 106 16 59 101 13 54 95 6 45 83 12 53 93 13 55 96 6 45 83 17 59 102 12 52 93 8 47 86 10 51 91 79 59 95 6 44 82 6 45 83
16 59 101 91 57 92 21 65 110 29 65 109 7 46 84 19 63 106 13 54 95 15 57 99 10 51 91 9 49 88 7 46 85 7 46 85 10 50 90 8 47 86 6 44 83 15 57 99
5 43 81 95 57 91 14 56 97 20 65 109 13 54 96 65 61 99 86 58 93 19 62 106 40 64 106 13 55 96 16 59 101 10 50 89 21 65 109 17 60 103 57 62 101 20 64 108
71 60 97 6 45 83 10 51 91 17 59 102 16 58 100 17 60 102 13 54 95 14 55 97 12 53 94 30 65 108 58 62 101 58 62 101 17 60 103 15 57 99 13 54 96 20 65 109
6 45 84 18 62 105 10 50 90 9 49 89 13 55 96 23 66 110 15 56 98 14 56 98 6 45 83 14 56 98 6 44 83 15 57 99 72 60 97 11 51 91 9 49 88 18 60 103
91 57 92 18 61 104 13 55 96 17 60 102 52 62 102 21 65 109 6 45 84 13 54 95 9 48 87 5 43 82 12 53 94 28 65 109 20 64 107 18 61 104 21 65 109 15 57 99
22 66 111 12 53 93 10 50 90 7 45 84 18 61 103 20 64 108 52 62 102 13 55 96 11 51 91 5 43 81 7 46 85 21 66 110 15 57 99 22 26 27 22 26 27 22 26 27
22 26 27 22 26 27 22 26 27 22 26 27 22 26 27 22 26 27 82 85 80 107 108 100 101 103 95 105 106 98 81 84 79 82 85 79 82 84 79 93 95 88 106 107 99 90 92 86
90 92 86 80 83 78 104 105 97 88 91 84 22 26 27 22 26 27 22 26 27 22 26 27 22 26 27 22 26 27 22 26 27 22 26 27 22 26 27 22 26 27 22 26 27 22 26 27
92 94 88 95 97 90 98 100 92 105 106 98 105 107 98 99 101 93 82 85 80 102 103 95 105 106 98 84 87 81 100 102 94 89 92 85 88 91 85 98 100 93 92 94 88 108 109 101
101 103 95 81 84 78 98 100 92 102 103 95 84 87 81 97 98 91 85 88 82 102 103 95 94 96 89 93 96 89 83 85 80 100 101 94 89 91 85 102 103 96 101 102 94 96 98 91
100 101 94 105 106 98 84 87 81 101 103 95 93 95 88 82 85 80 83 86 81 85 87 82 90 92 86 89 91 85 109 110 101 94 96 89 98 100 93 82 84 79 97 99 92 22 26 27
22 26 27 22 26 27 22 26 27 95 97 90 84 87 81 101 102 95 104 106 98 101 103 95 98 100 92 91 93 87 88 91 85 94 96 89 86 88 82 80 83 78 101 102 95 88 90 84
100 101 94 88 91 85 110 111 102 88 90 84 95 97 90 96 98 91 22 26 27 22 26 27 22 26 27 22 26 27 22 26 27 22 26 27 22 26 27 22 26 27 22 26 27 22 26 27
22 26 27 22 26 27 22 26 27 22 26 27 22 26 27 22 26 27 22 26 27 22 26 27 22 26 27 22 26 27 22 26 27 22 26 27 22 26 27 22 26 27 22 26 27 22 26 27
22 26 27 22 26 27 22 26 27 89 93 93 75 79 79 91 95 95 22 26 27 80 84 84 73 77 77 92 96 96 91 95 95 22 26 27 93 97 97 82 86 86 77 81 81 93 97 97
11 51 91 11 51 91 19 63 106 18 61 104 75 60 97 16 58 100 22 67 111 21 65 109 8 47 85 11 51 91 15 56 98 13 54 95 34 66 109 18 61 104 15 56 98 38 65 107
18 60 103 26 26 24 26 26 24 26 26 24 26 26 24 26 26 24 26 26 24 26 26 24 26 26 24 26 26 24 26 26 24 26 26 24 26 26 24 26 26 24 16 18 18 16 18 18
16 18 18 26 26 24 26 26 24 26 26 24 26 26 24 26 26 24 26 26 24 26 26 24 26 26 24 26 26 24 16 18 18 16 18 18 16 18 18 26 26 24 26 26 24 26 26 24
26 26 24 26 26 24 26 26 24 26 26 24 16 18 18 16 18 18 16 18 18 26 26 24 26 26 24 26 26 24 26 26 24 26 26 24 26 26 24 26 26 24 16 18 18 16 18 18
16 18 18 26 26 24 26 26 24 26 26 24 26 26 24 26 26 24 26 26 24 26 26 24 26 26 24 26 26 24 26 26 24 26 26 24 26 26 24 26 26 24 26 26 24 26 26 24
26 26 24 26 26 24 26 26 24 26 26 24 26 26 24 26 26 24 26 26 24 26 26 24 26 26 24 26 26 24 26 26 24 26 26 24 26 26 24 26 26 24 14 55 97 17 59 102
12 52 92 13 54 95 88 59 94 15 56 98 7 45 84 10 50 90 19 62 105 19 63 106 12 53 93 18 61 104 11 51 91 11 50 90 8 46 85 22 26 27 22 26 27 22 26 27
22 26 27 22 26 27 22 26 27 22 26 27 22 26 27 22 26 27 105 106 98 103 104 96 106 107 99 91 93 86 84 87 81 92 94 88 102 104 96 108 109 100 88 90 84 85 88 82
84 87 81 83 86 81 100 102 94 102 104 96 22 26 27 22 26 27 22 26 27 22 26 27 22 26 27 22 26 27 22 26 27 22 26 27 22 26 27 22 26 27 22 26 27 22 26 27
107 108 99 98 100 92 109 111 102 107 108 99 87 90 84 96 97 90 95 97 90 110 111 102 101 102 95 99 101 93 83 86 80 104 106 97 86 89 83 96 98 91 82 85 80 97 99 92
103 104 96 87 89 83 97 99 91 91 93 87 108 109 100 106 107 99 102 103 95 106 107 99 85 88 82 108 109 100 101 102 95 97 99 92 103 105 97 83 85 80 103 105 97 99 100 93
80 83 78 101 102 95 84 87 81 101 103 95 107 108 100 85 88 82 96 98 91 84 87 81 90 93 86 103 104 96 109 110 101 91 93 87 82 84 79 80 83 78 92 94 88 22 26 27
22 26 27 22 26 27 22 26 27 102 104 96 105 106 98 82 85 79 90 92 86 85 88 82 99 101 93 82 85 80 105 106 98 109 110 101 101 103 95 103 105 97 107 108 99 108 109 100
90 92 86 90 93 86 87 90 84 103 104 96 81 84 79 103 105 97 22 26 27 22 26 27 22 26 27 22 26 27 22 26 27 22 26 27 22 26 27 22 26 27 22 26 27 22 26 27
22 26 27 22 26 27 22 26 27 22 26 27 22 26 27 22 26 27 22 26 27 22 26 27 22 26 27 22 26 27 22 26 27 22 26 27 22 26 27 22 26 27 22 26 27 22 26 27
22 26 27 22 26 27 22 26 27 80 84 84 75 79 79 79 83 83 22 26 27 70 74 74 90 94 94 92 96 96 78 82 82 22 26 27 75 79 79 77 81 81 88 92 92 89 93 93
24 68 112 17 58 99 90 64 100 11 50 88 11 50 89 15 55 95 19 61 103 20 62 104 44 70 112 26 71 116 12 51 90 21 63 106 22 66 109 17 58 99 20 63 106 24 69 113
20 62 104 26 26 24 26 26 24 26 26 24 26 26 24 26 26 24 26 26 24 26 26 24 26 26 24 26 26 24 26 26 24 26 26 24 26 26 24 26 26 24 16 18 18 16 18 18
16 18 18 26 26 24 26 26 24 26 26 24 26 26 24 26 26 24 26 26 24 26 26 24 26 26 24 26 26 24 16 18 18 16 18 18 16 18 18 26 26 24 26 26 24 26 26 24
26 26 24 26 26 24 26 26 24 26 26 24 16 18 18 16 18 18 16 18 18 26 26 24 26 26 24 26 26 24 26 26 24 26 26 24 26 26 24 26 26 24 16 18 18 16 18 18
16 18 18 26 26 24 26 26 24 26 26 24 26 26 24 26 26 24 26 26 24 26 26 24 26 26 24 26 26 24 26 26 24 26 26 24 26 26 24 26 26 24 26 26 24 26 26 24
26 26 24 26 26 24 26 26 24 26 26 24 26 26 24 26 26 24 26 26 24 26 26 24 26 26 24 26 26 24 26 26 24 26 26 24 26 26 24 26 26 24 22 65 108 16 57 98
16 57 98 14 54 94 86 64 101 70 66 105 22 65 108 14 54 95 12 51 90 11 50 89 44 70 112 20 62 104 15 55 95 16 57 98 11 49 88 22 26 27 22 26 27 22 26 27
22 26 27 22 26 27 22 26 27 22 26 27 22 26 27 22 26 27 89 91 85 91 94 87 87 90 84 101 103 95 89 92 85 97 99 91 107 108 99 88 91 85 107 108 100 82 85 80
96 98 91 100 102 94 94 96 89 87 90 84 22 26 27 22 26 27 22 26 27 22 26 27 22 26 27 22 26 27 22 26 27 22 26 27 22 26 27 22 26 27 22 26 27 22 26 27
94 96 89 82 85 80 80 83 78 98 100 92 99 100 93 81 84 79 87 89 84 87 90 84 95 97 90 106 107 99 89 91 85 110 111 102 91 93 87 110 111 102 102 104 96 94 96 89
100 101 94 96 98 91 96 98 91 106 108 99 91 93 87 82 85 79 102 104 96 109 110 101 103 104 96 93 96 89 109 110 101 88 90 84 102 104 96 89 92 85 96 98 91 94 96 90
101 103 95 107 108 99 98 100 93 104 105 97 93 95 88 105 106 98 81 84 79 86 88 83 85 87 82 110 111 102 85 87 82 103 104 96 93 95 88 110 111 102 104 106 98 22 26 27
22 26 27 22 26 27 22 26 27 93 95 89 95 97 90 104 106 98 98 100 92 90 93 86 81 83 78 100 102 94 99 101 93 105 107 98 93 95 88 92 94 87 95 97 90 89 91 85
92 94 87 90 92 86 102 103 96 102 103 95 96 98 91 91 93 87 22 26 27 22 26 27 22 26 27 22 26 27 22 26 27 22 26 27 22 26 27 22 26 27 22 26 27 22 26 27
22 26 27 22 26 27 22 26 27 22 26 27 22 26 27 22 26 27 22 26 27 22 26 27 22 26 27 22 26 27 22 26 27 22 26 27 22 26 27 22 26 27 22 26 27 22 26 27
22 26 27 22 26 27 22 26 27 73 77 77 92 96 96 79 83 83 22 26 27 93 97 97 77 81 81 88 92 92 74 78 78 22 26 27 92 96 96 89 93 93 69 73 73 72 76 76
19 59 99 47 76 119 27 71 114 104 69 104 16 56 95 20 60 101 17 57 97 21 62 103 30 75 120 16 55 94 28 71 115 24 66 108 21 62 103 18 58 98 22 63 104 22 64 105
104 69 104 26 26 24 26 26 24 26 26 24 26 26 24 26 26 24 26 26 24 26 26 24 26 26 24 26 26 24 26 26 24 26 26 24 26 26 24 26 26 24 16 18 18 16 18 18
16 18 18 26 26 24 26 26 24 26 26 24 26 26 24 26 26 24 26 26 24 26 26 24 26 26 24 26 26 24 16 18 18 16 18 18 16 18 18 26 26 24 26 26 24 26 26 24
26 26 24 26 26 24 26 26 24 26 26 24 16 18 18 16 18 18 16 18 18 26 26 24 26 26 24 26 26 24 26 26 24 26 26 24 26 26 24 26 26 24 16 18 18 16 18 18
16 18 18 26 26 24 26 26 24 26 26 24 26 26 24 26 26 24 26 26 24 26 26 24 26 26 24 26 26 24 26 26 24 26 26 24 26 26 24 26 26 24 26 26 24 26 26 24
26 26 24 26 26 24 26 26 24 26 26 24 26 26 24 26 26 24 26 26 24 26 26 24 26 26 24 26 26 24 26 26 24 26 26 24 26 26 24 26 26 24 22 64 106 19 59 100
25 68 110 17 56 95 24 67 109 41 77 121 31 76 121 61 74 116 30 74 119 21 63 104 23 65 107 28 72 116 22 63 105 110 68 102 101 69 105 22 26 27 22 26 27 22 26 27
22 26 27 22 26 27 22 26 27 22 26 27 22 26 27 22 26 27 97 99 91 83 86 80 104 105 97 93 95 88 87 90 84 96 98 91 92 94 87 94 96 89 96 98 91 81 84 79
81 84 79 100 102 94 109 110 101 108 109 100 22 26 27 22 26 27 22 26 27 22 26 27 22 26 27 22 26 27 22 26 27 22 26 27 22 26 27 22 26 27 22 26 27 22 26 27
106 108 99 81 84 79 94 96 89 102 104 96 98 99 92 109 110 101 84 86 81 106 107 99 98 100 93 87 89 83 93 95 88 91 93 87 108 109 100 91 93 87 88 91 84 98 100 92
93 95 88 82 85 79 91 93 87 98 100 92 83 86 80 93 95 88 109 110 101 84 87 81 80 83 78 97 99 91 101 102 95 105 106 98 84 87 81 98 99 92 82 85 80 84 87 81
86 89 83 107 108 99 101 103 95 83 86 80 94 96 89 92 95 88 108 109 101 101 103 95 102 103 95 88 90 84 88 91 85 110 111 102 86 89 83 95 97 90 99 100 93 22 26 27
22 26 27 22 26 27 22 26 27 106 107 99 101 103 95 109 110 101 88 90 84 86 89 83 109 110 101 106 107 99 98 100 92 110 111 102 88 91 85 99 101 93 96 97 90 104 105 97
87 90 84 103 104 96 100 102 94 89 91 85 109 110 101 85 88 82 22 26 27 22 26 27 22 26 27 22 26 27 22 26 27 22 26 27 22 26 27 22 26 27 22 26 27 22 26 27
22 26 27 22 26 27 22 26 27 22 26 27 22 26 27 22 26 27 22 26 27 22 26 27 22 26 27 22 26 27 22 26 27 22 26 27 22 26 27 22 26 27 22 26 27 22 26 27
22 26 27 22 26 27 22 26 27 70 74 74 90 94 94 90 94 94 22 26 27 72 76 76 70 74 74 87 91 91 76 80 80 22 26 27 91 95 95 81 85 85 77 81 81 86 90 90
105 74 110 27 69 111 29 72 115 22 62 102 21 60 100 27 70 112 26 68 110 24 65 106 35 80 125 26 67 109 24 65 106 25 66 107 31 74 118 21 61 101 21 61 101 24 64 105
44 82 127 26 26 24 26 26 24 26 26 24 26 26 24 210 184 48 207 185 48 213 180 48 208 177 48 215 184 48 213 178 48 209 183 48 207 185 48 207 181 48 16 18 18 16 18 18
16 18 18 213 184 48 209 176 48 209 184 48 206 184 48 209 178 48 205 184 48 207 178 48 212 181 48 214 178 48 16 18 18 16 18 18 16 18 18 213 181 48 215 178 48 211 181 48
205 180 48 208 180 48 211 177 48 206 181 48 16 18 18 16 18 18 16 18 18 210 181 48 215 176 48 205 184 48 215 180 48 207 180 48 211 178 48 209 181 48 16 18 18 16 18 18
16 18 18 206 185 48 210 176 48 210 178 48 210 181 48 212 177 48 205 180 48 215 182 48 210 177 48 211 184 48 208 182 48 211 178 48 207 183 48 205 182 48 205 180 48 208 180 48
214 177 48 205 179 48 213 179 48 211 181 48 216 181 48 213 176 48 210 184 48 205 176 48 215 184 48 205 180 48 26 26 24 26 26 24 26 26 24 26 26 24 35 80 125 51 81 125
86 77 116 36 81 127 33 78 122 24 65 107 66 79 121 28 71 114 98 75 112 23 63 103 34 79 123 28 70 113 25 66 107 33 77 122 22 62 102 22 26 27 22 26 27 22 26 27
22 26 27 22 26 27 22 26 27 22 26 27 22 26 27 22 26 27 84 87 81 81 84 79 91 93 87 90 93 86 90 92 86 107 108 100 84 87 81 85 87 82 110 111 102 85 88 82
90 92 86 96 98 91 91 93 87 91 94 87 22 26 27 22 26 27 22 26 27 22 26 27 22 26 27 22 26 27 22 26 27 22 26 27 22 26 27 22 26 27 22 26 27 22 26 27
109 110 101 87 90 84 104 105 97 107 108 100 92 94 88 100 102 94 94 96 90 93 95 88 97 99 92 92 94 87 102 103 96 100 101 94 89 92 85 99 101 93 105 106 98 94 96 89
84 87 81 106 108 99 93 95 89 84 87 81 82 85 79 90 93 86 81 84 79 83 86 80 85 88 82 88 90 84 105 106 98 97 99 92 84 87 81 100 102 94 104 106 97 106 107 98
96 98 90 92 95 88 88 90 84 81 84 79 94 96 89 107 108 99 91 94 87 97 99 91 86 89 83 108 109 100 110 111 102 87 89 83 95 97 90 84 87 81 101 103 95 22 26 27
22 26 27 22 26 27 22 26 27 88 90 84 102 104 96 102 103 95 84 87 81 96 98 91 88 90 84 82 85 80 85 88 82 95 97 90 101 102 95 105 106 98 83 86 81 87 89 83
90 92 86 93 96 89 107 108 99 96 98 91 95 97 90 85 88 82 22 26 27 22 26 27 22 26 27 22 26 27 22 26 27 22 26 27 22 26 27 22 26 27 22 26 27 22 26 27
22 26 27 22 26 27 22 26 27 22 26 27 22 26 27 22 26 27 22 26 27 22 26 27 22 26 27 22 26 27 22 26 27 22 26 27 22 26 27 22 26 27 22 26 27 22 26 27
22 26 27 22 26 27 22 26 27 75 79 79 80 84 84 77 81 81 22 26 27 93 97 97 76 80 80 82 86 86 74 78 78 22 26 27 87 91 91 70 74 74 78 82 82 83 87 87
36 81 126 81 81 122 38 84 129 33 77 121 33 77 120 37 83 128 26 67 108 33 76 119 36 81 126 26 67 108 25 65 106 104 78 115 31 74 117 29 72 114 39 85 132 109 78 114
27 69 110 26 26 24 26 26 24 26 26 24 26 26 24 216 181 48 211 180 48 214 181 48 216 181 48 212 177 48 212 184 48 213 178 48 211 177 48 205 179 48 16 18 18 16 18 18
16 18 18 213 184 48 212 183 48 213 178 48 212 177 48 211 185 48 214 182 48 211 184 48 205 184 48 206 179 48 16 18 18 16 18 18 16 18 18 215 177 48 213 181 48 215 176 48
210 180 48 216 177 48 216 181 48 208 178 48 16 18 18 16 18 18 16 18 18 211 176 48 205 181 48 211 178 48 209 183 48 216 183 48 209 184 48 214 178 48 16 18 18 16 18 18
16 18 18 215 184 48 210 178 48 216 178 48 211 177 48 205 184 48 208 178 48 210 178 48 216 177 48 212 184 48 210 182 48 213 185 48 206 178 48 209 181 48 213 185 48 214 176 48
214 179 48 213 180 48 207 182 48 211 178 48 212 177 48 211 182 48 214 180 48 207 178 48 215 181 48 214 176 48 26 26 24 26 26 24 26 26 24 26 26 24 29 71 113 39 86 132
77 82 123 116 77 112 31 74 117 36 81 126 35 80 125 33 77 120 35 79 123 93 80 118 38 83 129 104 78 115 39 85 130 30 72 114 111 77 113 22 26 27 22 26 27 22 26 27
22 26 27 22 26 27 22 26 27 22 26 27 22 26 27 22 26 27 104 106 97 96 98 91 90 92 86 89 91 85 99 101 94 107 108 99 96 98 90 107 108 100 97 99 91 100 102 94
82 85 80 99 101 94 86 89 83 99 101 93 22 26 27 22 26 27 22 26 27 22 26 27 22 26 27 22 26 27 22 26 27 22 26 27 22 26 27 22 26 27 22 26 27 22 26 27
85 88 82 99 101 93 84 87 81 90 92 86 104 105 97 82 85 80 98 99 92 100 102 94 87 90 84 87 90 84 104 106 97 81 84 78 96 98 91 99 100 93 81 84 79 86 88 83
102 103 95 87 89 83 103 105 97 83 85 80 97 99 92 92 94 88 83 86 80 92 94 88 97 99 92 83 86 80 93 95 89 93 96 89 98 100 93 94 96 89 98 100 93 104 106 97
109 110 101 110 111 102 108 109 101 109 110 101 95 97 90 98 100 93 104 106 97 101 103 95 96 98 91 87 90 84 86 88 83 89 91 85 80 83 78 101 102 95 82 85 80 22 26 27
22 26 27 22 26 27 22 26 27 87 89 83 83 85 80 86 89 83 94 96 89 86 89 83 106 107 99 92 95 88 93 95 88 89 91 85 103 105 97 94 96 89 100 102 94 85 88 82
106 108 99 108 109 100 93 95 88 109 110 102 105 106 98 106 108 99 22 26 27 22 26 27 22 26 27 22 26 27 22 26 27 22 26 27 22 26 27 22 26 27 22 26 27 22 26 27
22 26 27 22 26 27 22 26 27 22 26 27 22 26 27 22 26 27 22 26 27 22 26 27 22 26 27 22 26 27 22 26 27 22 26 27 22 26 27 22 26 27 22 26 27 22 26 27
22 26 27 22 26 27 22 26 27 74 78 78 69 73 73 83 87 87 22 26 27 71 75 75 73 77 77 72 76 76 87 91 91 22 26 27 79 83 83 81 85 85 81 85 85 72 76 76
34 78 121 30 72 114 30 72 114 88 82 122 39 85 131 37 82 127 40 86 132 90 82 122 41 87 133 40 86 132 37 81 126 40 87 133 27 67 108 29 70 112 36 81 125 32 75 118
28 70 111 26 26 24 26 26 24 26 26 24 26 26 24 209 179 48 213 183 48 209 181 48 207 180 48 207 182 48 205 178 48 214 177 48 212 181 48 211 180 48 16 18 18 16 18 18
16 18 18 209 182 48 211 184 48 208 184 48 206 185 48 208 177 48 211 183 48 208 179 48 210 185 48 213 182 48 16 18 18 16 18 18 16 18 18 213 182 48 214 185 48 211 184 48
209 184 48 206 184 48 209 178 48 211 183 48 16 18 18 16 18 18 16 18 18 214 180 48 209 177 48 212 185 48 212 185 48 213 183 48 211 181 48 205 176 48 16 18 18 16 18 18
16 18 18 207 180 48 206 177 48 213 177 48 214 177 48 210 182 48 205 184 48 210 176 48 210 177 48 206 185 48 216 177 48 213 177 48 206 183 48 214 183 48 209 184 48 215 181 48
213 182 48 211 180 48 207 185 48 208 181 48 209 178 48 210 185 48 208 179 48 211 183 48 205 185 48 213 177 48 26 26 24 26 26 24 26 26 24 26 26 24 90 82 122 33 75 118
38 83 128 75 84 126 33 76 119 29 70 112 33 76 119 42 88 135 42 88 135 29 70 112 39 84 130 32 75 118 34 78 121 47 88 134 37 82 127 22 26 27 22 26 27 22 26 27
22 26 27 22 26 27 22 26 27 22 26 27 22 26 27 22 26 27 95 97 90 109 110 102 104 105 97 91 93 87 104 106 97 92 94 88 86 89 83 94 96 89 89 92 85 104 105 97
82 85 80 85 88 82 87 90 84 94 96 89 22 26 27 22 26 27 22 26 27 22 26 27 22 26 27 22 26 27 22 26 27 22 26 27 22 26 27 22 26 27 22 26 27 22 26 27
101 102 95 92 94 88 101 103 95 92 94 88 103 105 97 96 98 91 92 94 87 106 107 99 100 102 94 86 89 83 99 101 93 110 111 102 105 106 98 91 93 87 86 88 83 100 102 94
102 104 96 102 104 96 94 96 89 98 100 93 107 108 99 87 89 84 81 84 79 107 109 100 92 94 88 87 90 84 90 93 86 103 104 96 101 102 95 87 89 83 101 102 95 100 101 94
93 95 88 90 93 86 95 97 90 107 108 100 101 103 95 91 94 87 87 90 84 80 83 78 88 90 84 92 94 88 103 105 97 86 89 83 100 102 94 85 88 82 93 95 88 22 26 27
22 26 27 22 26 27 22 26 27 88 91 84 104 105 97 96 98 91 91 93 87 87 90 84 81 84 79 82 85 80 83 86 80 90 92 86 84 87 81 92 94 87 98 100 93 90 92 86
94 96 89 96 98 91 82 85 80 102 104 96 85 87 82 96 98 91 22 26 27 22 26 27 22 26 27 22 26 27 22 26 27 22 26 27 22 26 27 22 26 27 22 26 27 22 26 27
22 26 27 22 26 27 22 26 27 22 26 27 22 26 27 22 26 27 22 26 27 22 26 27 22 26 27 22 26 27 22 26 27 22 26 27 22 26 27 22 26 27 22 26 27 22 26 27
22 26 27 22 26 27 22 26 27 82 86 86 86 90 90 77 81 81 22 26 27 81 85 85 71 75 75 77 81 81 69 73 73 22 26 27 86 90 90 71 75 75 81 85 85 90 94 94
76 86 128 39 83 128 28 69 110 31 73 115 37 81 125 34 76 119 37 81 125 34 77 120 42 87 134 40 86 131 38 82 127 42 89 135 68 87 131 33 75 118 28 68 109 32 74 116
38 83 128 26 26 24 26 26 24 26 26 24 26 26 24 206 183 48 211 180 48 208 182 48 215 181 48 208 180 48 210 178 48 206 178 48 215 182 48 207 181 48 16 18 18 16 18 18
16 18 18 216 181 48 216 184 48 214 179 48 214 180 48 213 185 48 215 180 48 213 185 48 212 182 48 207 181 48 16 18 18 16 18 18 16 18 18 207 178 48 215 178 48 216 178 48
205 179 48 212 184 48 205 181 48 210 177 48 16 18 18 16 18 18 16 18 18 215 184 48 206 182 48 209 183 48 215 181 48 214 183 48 210 179 48 208 180 48 16 18 18 16 18 18
16 18 18 208 185 48 206 183 48 215 184 48 215 177 48 205 178 48 209 183 48 207 181 48 213 178 48 205 178 48 208 179 48 209 179 48 205 179 48 215 177 48 206 176 48 207 176 48
210 176 48 206 179 48 211 185 48 210 182 48 208 181 48 212 179 48 215 182 48 209 181 48 216 183 48 211 177 48 26 26 24 26 26 24 26 26 24 26 26 24 39 83 128 115 81 118
39 84 129 87 85 125 27 68 108 63 88 132 31 73 115 80 86 127 29 71 112 28 69 110 35 79 122 35 79 122 50 89 135 41 86 132 72 87 130 22 26 27 22 26 27 22 26 27
22 26 27 22 26 27 22 26 27 22 26 27 22 26 27 22 26 27 100 102 94 101 102 95 90 93 86 96 98 91 108 109 100 88 90 84 91 93 87 84 86 81 86 88 83 80 83 78
100 102 94 105 106 98 80 83 78 90 92 86 22 26 27 22 26 27 22 26 27 22 26 27 22 26 27 22 26 27 22 26 27 22 26 27 22 26 27 22 26 27 22 26 27 22 26 27
99 101 93 99 100 93 82 85 80 102 103 95 97 99 92 85 88 82 87 89 83 87 89 83 108 110 101 102 103 95 82 85 79 96 98 91 100 102 94 86 88 83 94 96 90 101 103 95
94 96 89 109 110 102 99 101 93 92 94 87 103 104 96 92 94 88 96 98 91 93 96 89 104 106 97 98 100 92 83 85 80 87 90 84 100 102 94 83 85 80 91 93 86 101 103 95
93 95 88 107 108 100 105 107 98 90 92 86 94 97 90 93 96 89 104 106 97 84 87 81 105 106 98 89 92 85 102 104 96 110 111 102 105 106 98 86 89 83 95 97 90 22 26 27
22 26 27 22 26 27 22 26 27 90 92 86 103 104 96 87 90 84 99 101 93 107 108 100 88 91 84 93 95 89 90 93 86 99 101 93 82 85 80 97 99 92 90 92 86 107 109 100
104 106 97 104 106 98 97 99 92 102 103 95 104 106 97 91 94 87 22 26 27 22 26 27 22 26 27 22 26 27 22 26 27 22 26 27 22 26 27 22 26 27 22 26 27 22 26 27
22 26 27 22 26 27 22 26 27 22 26 27 22 26 27 22 26 27 22 26 27 22 26 27 22 26 27 22 26 27 22 26 27 22 26 27 22 26 27 22 26 27 22 26 27 22 26 27
22 26 27 22 26 27 22 26 27 84 88 88 92 96 96 80 84 84 22 26 27 78 82 82 79 83 83 70 74 74 91 95 95 22 26 27 82 86 86 75 79 79 74 78 78 79 83 83
92 88 128 43 88 134 34 75 117 37 80 124 110 85 123 115 85 122 95 87 127 45 91 137 32 73 114 38 82 126 31 71 112 35 77 120 37 81 124 43 89 134 35 77 120 37 80 123
47 93 141 26 26 24 26 26 24 26 26 24 26 26 24 212 185 48 208 185 48 210 177 48 211 178 48 211 177 48 211 181 48 206 177 48 208 179 48 215 178 48 16 18 18 16 18 18
16 18 18 209 185 48 216 176 48 205 184 48 206 182 48 211 185 48 211 183 48 208 177 48 207 179 48 207 176 48 16 18 18 16 18 18 16 18 18 207 180 48 210 178 48 210 183 48
205 182 48 207 185 48 208 179 48 215 178 48 16 18 18 16 18 18 16 18 18 215 181 48 214 178 48 213 184 48 210 179 48 211 183 48 207 182 48 207 178 48 16 18 18 16 18 18
16 18 18 206 181 48 207 183 48 207 185 48 209 179 48 209 185 48 209 179 48 207 180 48 214 183 48 207 182 48 210 185 48 213 177 48 207 182 48 206 182 48 210 183 48 213 185 48
210 176 48 210 183 48 206 177 48 209 183 48 210 180 48 215 180 48 210 183 48 209 183 48 216 185 48 210 183 48 26 26 24 26 26 24 26 26 24 26 26 24 35 77 119 36 79 122
36 78 121 32 72 114 32 73 114 33 74 116 45 92 139 72 90 134 39 83 127 33 75 117 38 81 125 73 90 134 34 76 119 30 71 111 36 79 122 22 26 27 22 26 27 22 26 27
22 26 27 22 26 27 22 26 27 22 26 27 22 26 27 22 26 27 92 94 88 94 96 89 105 107 98 108 109 100 98 100 92 105 106 98 94 96 89 103 105 96 86 89 83 110 111 102
81 84 79 86 88 83 93 95 88 96 98 91 22 26 27 22 26 27 22 26 27 22 26 27 22 26 27 22 26 27 22 26 27 22 26 27 22 26 27 22 26 27 22 26 27 22 26 27
110 111 102 105 106 98 95 97 90 96 98 91 90 92 86 108 109 101 94 96 89 88 90 84 81 84 79 94 96 89 93 95 88 100 102 94 82 85 79 109 110 101 90 92 86 84 87 81
108 109 101 96 98 91 90 92 86 108 109 100 92 94 88 108 109 100 97 99 92 110 111 102 99 101 93 81 84 79 83 86 80 99 101 93 105 107 98 83 86 81 97 99 92 94 96 89
86 89 83 80 83 78 86 88 83 109 110 101 97 99 92 103 104 96 91 93 87 86 89 83 102 104 96 105 107 98 91 93 87 98 100 92 90 93 86 108 109 100 104 105 97 22 26 27
22 26 27 22 26 27 22 26 27 85 88 82 81 84 79 82 85 80 107 109 100 106 107 98 93 95 89 107 108 99 85 88 82 94 96 90 91 93 87 93 95 89 100 102 94 83 86 81
102 104 96 88 91 85 101 103 95 90 92 86 95 97 90 92 94 88 22 26 27 22 26 27 22 26 27 22 26 27 22 26 27 22 26 27 22 26 27 22 26 27 22 26 27 22 26 27
22 26 27 22 26 27 22 26 27 22 26 27 22 26 27 22 26 27 22 26 27 22 26 27 22 26 27 22 26 27 22 26 27 22 26 27 22 26 27 22 26 27 22 26 27 22 26 27
22 26 27 22 26 27 22 26 27 85 89 89 69 73 73 81 85 85 22 26 27 85 89 89 79 83 83 80 84 84 76 80 80 22 26 27 91 95 95 72 76 76 79 83 83 80 84 84
36 77 119 50 97 144 44 89 134 43 87 132 42 85 130 38 80 123 46 91 136 122 89 127 38 80 123 35 76 118 44 89 134 39 81 124 40 83 127 47 92 139 43 87 132 47 93 140
43 86 131 26 26 24 26 26 24 26 26 24 26 26 24 216 182 48 207 183 48 206 179 48 216 177 48 214 177 48 215 176 48 214 185 48 216 176 48 207 179 48 16 18 18 16 18 18
16 18 18 205 185 48 213 184 48 216 181 48 211 176 48 212 181 48 213 182 48 207 182 48 213 176 48 214 182 48 16 18 18 16 18 18 16 18 18 212 181 48 213 176 48 209 179 48
215 183 48 214 185 48 213 178 48 214 185 48 16 18 18 16 18 18 16 18 18 209 178 48 215 185 48 208 180 48 205 178 48 209 184 48 213 178 48 205 184 48 16 18 18 16 18 18
16 18 18 215 176 48 212 180 48 207 176 48 216 179 48 207 178 48 210 177 48 213 179 48 213 180 48 209 181 48 215 184 48 208 176 48 208 184 48 206 177 48 216 179 48 206 176 48
210 178 48 206 179 48 209 183 48 206 180 48 208 178 48 211 182 48 208 183 48 216 177 48 207 178 48 216 178 48 26 26 24 26 26 24 26 26 24 26 26 24 41 84 128 38 80 123
42 86 130 90 93 136 45 90 135 49 95 142 125 89 126 44 88 133 38 80 122 35 76 118 42 86 131 39 81 124 122 89 127 36 77 119 127 89 125 22 26 27 22 26 27 22 26 27
22 26 27 22 26 27 22 26 27 22 26 27 22 26 27 22 26 27 96 98 91 81 84 79 96 98 91 110 111 102 104 105 97 102 103 95 86 88 83 95 97 90 83 85 80 93 95 89
99 100 93 89 91 85 83 85 80 104 105 97 22 26 27 22 26 27 22 26 27 22 26 27 22 26 27 22 26 27 22 26 27 22 26 27 22 26 27 22 26 27 22 26 27 22 26 27
98 100 92 93 95 89 99 101 93 101 102 95 107 108 100 92 95 88 106 107 99 107 108 99 109 110 101 101 103 95 100 102 94 105 106 98 103 105 97 85 88 82 80 83 78 95 97 90
104 105 97 94 96 89 98 99 92 94 96 89 96 98 91 104 105 97 109 110 101 98 100 92 98 100 93 107 108 100 99 101 93 103 104 96 105 106 98 88 90 84 82 85 80 89 92 85
103 105 97 88 90 84 100 101 94 88 90 84 99 101 93 94 96 89 93 95 88 83 85 80 102 103 95 108 109 100 94 96 89 107 108 100 92 95 88 92 94 87 92 95 88 22 26 27
22 26 27 22 26 27 22 26 27 107 108 100 80 83 78 96 98 91 107 108 99 83 86 81 92 95 88 89 92 85 88 90 84 102 103 95 98 99 92 95 97 90 106 107 99 96 98 91
106 107 99 106 107 99 91 93 87 98 100 92 109 110 101 90 92 86 22 26 27 22 26 27 22 26 27 22 26 27 22 26 27 22 26 27 22 26 27 22 26 27 22 26 27 22 26 27
22 26 27 22 26 27 22 26 27 22 26 27 22 26 27 22 26 27 22 26 27 22 26 27 22 26 27 22 26 27 22 26 27 22 26 27 22 26 27 22 26 27 22 26 27 22 26 27
22 26 27 22 26 27 22 26 27 89 93 93 76 80 80 69 73 73 22 26 27 80 84 84 82 86 86 88 92 92 85 89 89 22 26 27 80 84 84 77 81 81 77 81 81 87 91 91
46 89 134 42 84 127 53 100 147 44 86 130 41 82 125 54 101 148 42 83 126 46 90 134 77 102 148 47 91 136 51 96 143 44 87 130 42 84 127 46 89 134 53 99 146 41 82 124
134 95 132 26 26 24 26 26 24 26 26 24 26 26 24 213 184 48 216 179 48 216 179 48 210 185 48 209 184 48 211 182 48 211 181 48 207 185 48 214 177 48 16 18 18 16 18 18
16 18 18 214 177 48 214 182 48 215 183 48 214 177 48 214 182 48 216 185 48 215 184 48 208 184 48 209 179 48 16 18 18 16 18 18 16 18 18 215 185 48 209 180 48 208 179 48
206 179 48 207 178 48 207 177 48 211 178 48 16 18 18 16 18 18 16 18 18 213 181 48 215 183 48 212 183 48 213 177 48 213 176 48 216 180 48 212 180 48 16 18 18 16 18 18
16 18 18 208 179 48 215 176 48 214 179 48 208 179 48 207 180 48 209 179 48 205 178 48 208 183 48 209 181 48 209 184 48 206 181 48 212 184 48 214 179 48 210 184 48 207 179 48
210 177 48 214 182 48 210 176 48 208 181 48 210 181 48 209 180 48 205 180 48 208 177 48 213 178 48 213 184 48 26 26 24 26 26 24 26 26 24 26 26 24 54 100 148 50 95 142
53 100 147 56 104 152 44 86 130 42 84 127 105 98 140 44 86 130 52 98 144 52 97 144 57 104 153 91 100 144 54 101 149 95 100 143 85 101 145 22 26 27 22 26 27 22 26 27
22 26 27 22 26 27 22 26 27 22 26 27 22 26 27 22 26 27 87 90 84 93 96 89 103 104 96 88 91 85 107 108 99 101 103 95 96 98 91 87 90 84 107 108 100 102 104 96
92 95 88 92 95 88 95 97 90 86 89 83 22 26 27 22 26 27 22 26 27 22 26 27 22 26 27 22 26 27 22 26 27 22 26 27 22 26 27 22 26 27 22 26 27 22 26 27
91 93 87 98 100 93 98 100 92 88 91 85 95 97 90 83 86 80 107 108 99 83 85 80 100 101 94 92 95 88 86 89 83 95 97 90 98 100 92 96 98 90 93 96 89 103 105 97
96 98 91 107 108 99 93 95 89 100 101 94 106 108 99 91 93 87 82 85 80 86 88 82 89 92 85 99 100 93 83 86 80 89 92 85 105 107 98 89 92 85 98 100 92 84 86 81
83 86 80 109 110 101 106 108 99 104 105 97 89 92 85 81 84 79 82 85 80 84 87 81 85 88 82 94 96 89 106 107 98 85 88 82 90 92 86 99 101 93 110 111 102 22 26 27
22 26 27 22 26 27 22 26 27 92 94 87 105 106 98 103 104 96 87 89 83 94 96 89 106 108 99 93 95 88 100 101 94 101 102 94 107 109 100 101 103 95 88 90 84 90 92 86
82 85 79 99 101 93 101 102 95 94 96 89 109 110 101 96 98 91 22 26 27 22 26 27 22 26 27 22 26 27 22 26 27 22 26 27 22 26 27 22 26 27 22 26 27 22 26 27
22 26 27 22 26 27 22 26 27 22 26 27 22 26 27 22 26 27 22 26 27 22 26 27 22 26 27 22 26 27 22 26 27 22 26 27 22 26 27 22 26 27 22 26 27 22 26 27
22 26 27 22 26 27 22 26 27 91 95 95 78 82 82 78 82 82 22 26 27 86 90 90 72 76 76 82 86 86 73 77 77 22 26 27 74 78 78 87 91 91 92 96 96 78 82 82
47 89 132 62 110 159 52 95 141 48 91 134 48 90 133 47 88 132 52 95 141 48 90 133 54 99 145 49 92 137 129 102 142 54 99 145 58 104 151 48 90 134 55 101 147 47 89 132
62 110 159 26 26 24 26 26 24 26 26 24 26 26 24 214 178 48 205 178 48 211 180 48 208 185 48 208 180 48 210 183 48 216 179 48 211 176 48 208 185 48 16 18 18 16 18 18
16 18 18 213 177 48 215 181 48 210 177 48 216 181 48 214 183 48 212 182 48 210 177 48 205 176 48 215 179 48 16 18 18 16 18 18 16 18 18 208 177 48 216 180 48 216 181 48
208 177 48 215 177 48 212 180 48 205 176 48 16 18 18 16 18 18 16 18 18 209 179 48 216 184 48 212 183 48 211 179 48 215 185 48 206 182 48 213 183 48 16 18 18 16 18 18
16 18 18 208 180 48 205 180 48 211 178 48 209 177 48 208 182 48 207 176 48 209 179 48 211 179 48 205 184 48 209 178 48 209 178 48 214 181 48 215 180 48 208 182 48 216 183 48
209 185 48 216 181 48 210 178 48 207 176 48 207 176 48 212 185 48 206 183 48 212 179 48 216 176 48 216 180 48 26 26 24 26 26 24 26 26 24 26 26 24 100 106 150 51 95 140
50 93 137 73 110 158 59 106 154 106 105 149 66 110 160 107 105 148 85 108 154 49 91 135 128 103 143 58 104 151 68 110 159 55 100 147 51 94 139 22 26 27 22 26 27 22 26 27
22 26 27 22 26 27 22 26 27 22 26 27 22 26 27 22 26 27 106 107 99 97 98 91 106 107 99 81 84 79 106 107 99 97 99 92 95 97 90 98 100 93 83 85 80 90 92 86
86 88 82 102 103 95 89 91 85 82 85 80 22 26 27 22 26 27 22 26 27 22 26 27 22 26 27 22 26 27 22 26 27 22 26 27 22 26 27 22 26 27 22 26 27 22 26 27
104 105 97 88 91 84 95 97 90 84 87 81 86 89 83 94 96 89 86 88 82 92 95 88 89 91 85 108 109 100 86 88 82 96 98 91 93 95 88 93 95 88 104 105 97 98 99 92
95 97 90 98 100 92 103 104 96 109 110 101 100 102 94 101 103 95 90 92 86 89 92 85 89 91 85 98 100 92 107 108 99 104 105 97 107 108 99 88 91 85 83 86 80 104 106 97
107 108 99 101 103 95 95 97 90 103 105 97 107 109 100 86 88 83 91 93 87 97 99 92 107 109 100 105 107 98 83 86 80 84 87 81 96 98 91 80 83 78 85 88 82 22 26 27
22 26 27 22 26 27 22 26 27 89 91 85 87 90 84 107 108 100 97 99 92 93 95 88 97 99 92 88 90 84 80 83 78 103 105 97 96 98 91 105 107 98 100 102 94 86 89 83
86 89 83 109 110 101 92 94 87 80 83 78 93 95 89 92 94 88 22 26 27 22 26 27 22 26 27 22 26 27 22 26 27 22 26 27 22 26 27 22 26 27 22 26 27 22 26 27
22 26 27 22 26 27 22 26 27 22 26 27 22 26 27 22 26 27 22 26 27 22 26 27 22 26 27 22 26 27 22 26 27 22 26 27 22 26 27 22 26 27 22 26 27 22 26 27
22 26 27 22 26 27 22 26 27 72 76 76 92 96 96 80 84 84 22 26 27 92 96 96 87 91 91 87 91 91 83 87 87 22 26 27 70 74 74 84 88 88 77 81 81 92 96 96
53 95 139 67 116 166 59 104 150 57 101 147 103 111 156 53 95 140 61 106 154 58 102 148 144 106 145 54 97 142 52 95 139 64 111 160 91 113 160 52 95 139 60 105 152 63 110 159
55 99 145 26 26 24 26 26 24 26 26 24 26 26 24 207 184 48 210 177 48 207 184 48 205 185 48 214 183 48 209 177 48 214 180 48 211 183 48 210 180 48 16 18 18 16 18 18
16 18 18 207 182 48 213 176 48 214 177 48 209 185 48 205 178 48 206 179 48 210 180 48 214 183 48 208 183 48 16 18 18 16 18 18 16 18 18 206 183 48 209 177 48 211 178 48
212 184 48 212 177 48 209 180 48 205 182 48 16 18 18 16 18 18 16 18 18 213 181 48 214 182 48 212 181 48 205 181 48 216 179 48 212 182 48 205 182 48 16 18 18 16 18 18
16 18 18 206 185 48 206 180 48 208 182 48 214 183 48 210 182 48 214 178 48 209 181 48 216 185 48 210 181 48 206 178 48 208 180 48 213 181 48 216 179 48 213 184 48 209 185 48
213 179 48 215 183 48 213 179 48 213 176 48 213 178 48 209 177 48 216 176 48 210 182 48 212 178 48 208 177 48 26 26 24 26 26 24 26 26 24 26 26 24 60 105 152 51 93 137
58 103 149 56 100 146 54 98 143 63 109 157 66 114 163 56 100 146 51 94 137 53 96 140 61 106 154 56 100 146 59 105 152 55 99 144 66 114 163 22 26 27 22 26 27 22 26 27
22 26 27 22 26 27 22 26 27 22 26 27 22 26 27 22 26 27 101 102 95 100 102 94 84 86 81 102 103 95 107 109 100 104 105 97 107 109 100 91 94 87 82 85 80 83 86 81
96 98 91 107 108 99 91 93 87 100 102 94 22 26 27 22 26 27 22 26 27 22 26 27 22 26 27 22 26 27 22 26 27 22 26 27 22 26 27 22 26 27 22 26 27 22 26 27
105 106 98 88 91 84 101 103 95 109 110 101 82 85 80 89 92 85 93 95 88 82 85 80 96 98 91 101 103 95 107 108 99 87 89 83 105 106 98 85 88 82 105 107 98 109 110 101
89 91 85 89 91 85 101 103 95 95 97 90 104 105 97 103 104 96 92 94 88 87 89 83 90 92 86 88 90 84 97 99 92 102 103 95 93 95 88 106 107 98 86 89 83 97 98 91
84 86 81 101 102 95 94 96 89 83 86 80 85 88 82 102 103 95 93 95 89 81 84 79 85 88 82 103 104 96 87 90 84 103 105 97 105 106 98 81 84 78 101 102 95 22 26 27
22 26 27 22 26 27 22 26 27 94 96 89 106 108 99 99 101 93 102 103 95 99 100 93 110 111 102 109 110 102 88 91 85 89 91 85 110 111 102 87 89 83 102 104 96 87 89 83
97 99 92 88 90 84 90 92 86 83 86 81 94 96 89 94 96 89 22 26 27 22 26 27 22 26 27 22 26 27 22 26 27 22 26 27 22 26 27 22 26 27 22 26 27 22 26 27
22 26 27 22 26 27 22 26 27 22 26 27 22 26 27 22 26 27 22 26 27 22 26 27 22 26 27 22 26 27 22 26 27 22 26 27 22 26 27 22 26 27 22 26 27 22 26 27
22 26 27 22 26 27 22 26 27 69 73 73 71 75 75 74 78 78 22 26 27 79 83 83 86 90 90 92 96 96 83 87 87 22 26 27 74 78 78 89 93 93 75 79 79 88 92 92
118 112 155 67 114 164 61 106 153 99 114 160 73 118 168 53 95 140 63 109 158 108 113 158 63 109 157 69 117 168 60 105 152 60 105 152 56 99 144 59 104 150 61 106 153 59 104 150
54 97 141 26 26 24 26 26 24 26 26 24 26 26 24 205 180 48 215 185 48 215 182 48 207 182 48 212 183 48 209 181 48 214 183 48 216 184 48 212 182 48 16 18 18 16 18 18
16 18 18 207 182 48 216 179 48 206 180 48 209 178 48 216 184 48 214 185 48 212 176 48 208 179 48 205 183 48 16 18 18 16 18 18 16 18 18 212 176 48 208 185 48 207 176 48
206 178 48 209 181 48 207 179 48 214 176 48 16 18 18 16 18 18 16 18 18 216 180 48 210 180 48 205 184 48 211 185 48 206 181 48 214 177 48 211 176 48 16 18 18 16 18 18
16 18 18 215 182 48 216 177 48 207 176 48 212 177 48 211 179 48 211 180 48 215 176 48 211 180 48 206 176 48 213 181 48 212 184 48 205 176 48 205 183 48 212 185 48 215 180 48
213 177 48 208 181 48 209 177 48 210 179 48 213 183 48 205 184 48 212 184 48 213 185 48 205 181 48 214 176 48 26 26 24 26 26 24 26 26 24 26 26 24 66 114 163 60 105 151
86 116 164 55 97 142 66 113 162 65 112 161 56 99 144 60 105 152 60 104 151 69 118 168 64 110 159 54 96 140 63 109 157 116 112 156 63 109 156 22 26 27 22 26 27 22 26 27
22 26 27 22 26 27 22 26 27 22 26 27 22 26 27 22 26 27 104 105 97 102 104 96 99 101 93 100 102 94 90 92 86 90 92 86 81 84 79 87 90 84 83 86 81 103 104 96
108 110 101 84 87 81 94 96 89 91 94 87 22 26 27 22 26 27 22 26 27 22 26 27 22 26 27 22 26 27 22 26 27 22 26 27 22 26 27 22 26 27 22 26 27 22 26 27
99 101 93 95 97 90 93 95 88 101 103 95 105 106 98 102 103 95 103 105 97 104 106 98 104 106 98 83 86 80 84 87 82 89 92 86 100 102 94 98 99 92 93 95 88 99 101 94
110 111 102 93 95 88 84 87 81 85 88 82 95 97 90 103 104 96 90 93 86 91 94 87 82 85 80 103 105 97 82 85 80 108 109 100 94 96 89 89 92 85 101 103 95 103 104 96
91 93 87 92 94 87 107 108 100 82 85 80 93 95 88 103 104 96 89 91 85 83 86 81 107 108 99 97 99 91 94 96 90 109 110 101 83 86 80 81 84 79 88 90 84 22 26 27
22 26 27 22 26 27 22 26 27 86 89 83 84 87 81 95 97 90 108 109 101 95 97 90 92 94 88 106 107 98 80 83 78 93 95 89 108 109 100 110 111 102 98 100 93 88 90 84
106 107 99 88 91 85 91 94 87 101 102 94 83 86 80 92 94 88 22 26 27 22 26 27 22 26 27 22 26 27 22 26 27 22 26 27 22 26 27 22 26 27 22 26 27 22 26 27
22 26 27 22 26 27 22 26 27 22 26 27 22 26 27 22 26 27 22 26 27 22 26 27 22 26 27 22 26 27 22 26 27 22 26 27 22 26 27 22 26 27 22 26 27 22 26 27
22 26 27 22 26 27 22 26 27 73 77 77 81 85 85 92 96 96 22 26 27 77 81 81 81 85 85 92 96 96 90 94 94 22 26 27 83 87 87 76 80 80 86 90 90 87 91 91
54 97 142 54 97 142 54 97 142 61 107 154 53 95 139 52 95 139 57 101 147 110 111 156 61 107 154 101 112 158 104 112 157 52 95 139 65 113 162 61 106 154 53 96 140 66 113 163
57 101 147 26 26 24 26 26 24 26 26 24 26 26 24 207 181 48 205 183 48 206 179 48 216 181 48 209 182 48 205 179 48 215 176 48 213 179 48 209 182 48 16 18 18 16 18 18
16 18 18 215 180 48 207 176 48 207 179 48 214 179 48 211 178 48 211 180 48 207 178 48 210 183 48 212 184 48 16 18 18 16 18 18 16 18 18 215 180 48 211 177 48 213 176 48
213 178 48 216 182 48 205 179 48 205 180 48 16 18 18 16 18 18 16 18 18 212 180 48 209 183 48 207 183 48 215 181 48 214 181 48 209 176 48 207 178 48 16 18 18 16 18 18
16 18 18 212 180 48 206 185 48 209 178 48 216 180 48 214 184 48 215 179 48 207 179 48 207 176 48 211 183 48 209 179 48 208 184 48 205 176 48 209 181 48 210 182 48 212 176 48
212 182 48 211 183 48 209 183 48 209 183 48 212 183 48 208 177 48 214 177 48 214 176 48 207 183 48 209 181 48 26 26 24 26 26 24 26 26 24 26 26 24 59 104 151 59 104 151
131 109 150 63 110 158 65 112 161 61 107 155 53 96 141 68 116 166 101 112 158 115 111 154 61 106 153 61 107 154 59 104 150 66 114 163 65 113 162 22 26 27 22 26 27 22 26 27
22 26 27 22 26 27 22 26 27 22 26 27 22 26 27 22 26 27 84 86 81 104 105 97 84 87 81 98 100 92 99 101 93 100 102 94 84 86 81 101 102 95 105 106 98 85 87 82
106 107 99 109 110 101 87 89 84 109 110 101 22 26 27 22 26 27 22 26 27 80 83 78 87 89 84 82 85 79 94 96 89 86 89 83 22 26 27 22 26 27 22 26 27 22 26 27
100 102 94 93 95 89 92 94 87 85 88 82 109 110 101 95 97 90 82 85 79 106 107 99 98 100 93 95 97 90 93 95 89 83 85 80 83 86 81 107 108 100 84 87 81 88 90 84
94 97 90 90 92 86 91 93 87 103 104 96 107 108 100 83 85 80 110 111 102 101 103 95 88 90 84 105 106 98 108 109 100 88 91 84 109 110 101 107 108 100 86 89 83 99 101 94
100 102 94 108 109 100 88 90 84 88 90 84 100 101 94 83 86 81 103 105 97 109 110 102 107 108 100 106 107 98 90 92 86 89 91 85 101 103 95 94 96 89 83 85 80 22 26 27
22 26 27 22 26 27 22 26 27 97 98 91 107 108 99 93 95 88 90 93 86 102 104 96 107 109 100 86 88 83 108 110 101 93 95 89 105 106 98 104 105 97 83 86 80 92 94 88
101 102 95 83 86 81 98 99 92 102 104 96 102 103 95 93 95 88 22 26 27 22 26 27 22 26 27 22 26 27 22 26 27 22 26 27 22 26 27 22 26 27 22 26 27 22 26 27
22 26 27 22 26 27 22 26 27 22 26 27 22 26 27 22 26 27 22 26 27 22 26 27 22 26 27 22 26 27 22 26 27 22 26 27 22 26 27 22 26 27 22 26 27 22 26 27
22 26 27 22 26 27 22 26 27 85 89 89 90 94 94 89 93 93 22 26 27 84 88 88 73 77 77 82 86 86 73 77 77 22 26 27 74 78 78 80 84 84 92 96 96 86 90 90
57 102 149 49 91 135 52 95 140 51 94 139 54 98 143 57 102 149 55 99 145 64 112 161 51 94 138 66 112 161 52 96 141 57 102 149 60 107 155 50 93 138 48 89 133 63 110 159
58 104 151 26 26 24 26 26 24 26 26 24 26 26 24 209 176 48 205 178 48 206 185 48 205 180 48 216 180 48 205 184 48 215 177 48 214 179 48 212 184 48 16 18 18 16 18 18
16 18 18 214 184 48 210 180 48 214 185 48 206 183 48 207 182 48 206 185 48 206 177 48 216 177 48 210 184 48 16 18 18 16 18 18 16 18 18 216 179 48 211 182 48 206 182 48
215 176 48 205 179 48 207 183 48 212 181 48 16 18 18 16 18 18 16 18 18 213 183 48 215 177 48 205 180 48 213 184 48 212 183 48 210 176 48 213 180 48 16 18 18 16 18 18
16 18 18 216 182 48 207 182 48 209 179 48 206 183 48 206 179 48 212 177 48 208 179 48 210 179 48 215 182 48 215 179 48 207 178 48 213 183 48 215 183 48 213 184 48 207 178 48
210 181 48 214 184 48 211 182 48 211 178 48 208 179 48 205 179 48 215 182 48 206 185 48 208 181 48 211 177 48 26 26 24 26 26 24 26 26 24 26 26 24 60 107 156 90 109 155
63 111 160 50 92 136 56 102 148 49 91 134 138 103 142 74 111 159 69 111 160 52 95 140 51 95 139 66 112 161 53 97 143 48 90 133 90 109 155 22 26 27 22 26 27 22 26 27
22 26 27 22 26 27 22 26 27 22 26 27 22 26 27 22 26 27 97 98 91 109 110 101 105 106 98 109 110 101 82 85 79 107 108 100 97 99 91 88 90 84 99 101 93 103 104 96
82 85 80 105 106 98 92 94 88 110 111 102 22 26 27 22 26 27 22 26 27 92 94 87 89 92 86 83 86 80 91 94 87 80 83 78 22 26 27 22 26 27 22 26 27 22 26 27
102 104 96 90 92 86 83 86 81 88 91 85 97 99 92 87 90 84 103 104 96 101 102 95 106 108 99 98 100 92 89 91 85 105 106 98 96 98 91 83 86 80 104 105 97 88 90 84
103 104 96 104 106 98 108 109 100 92 94 87 103 104 96 105 106 98 90 93 86 108 109 100 86 88 83 99 101 94 84 87 82 84 87 82 94 96 89 93 95 89 86 89 83 104 106 98
84 87 81 104 105 97 91 93 87 87 89 83 92 94 88 86 88 82 110 111 102 81 84 79 86 88 83 109 110 101 101 102 95 107 109 100 108 109 100 83 85 80 97 99 91 22 26 27
22 26 27 22 26 27 22 26 27 90 93 86 97 99 92 85 87 82 101 103 95 109 110 101 89 91 85 94 96 89 92 94 88 80 83 78 82 85 80 94 96 89 92 94 88 107 108 99
81 84 79 85 88 82 91 93 87 89 91 85 110 111 102 90 92 86 22 26 27 22 26 27 22 26 27 22 26 27 22 26 27 22 26 27 22 26 27 22 26 27 22 26 27 22 26 27
22 26 27 22 26 27 22 26 27 22 26 27 22 26 27 22 26 27 22 26 27 22 26 27 22 26 27 22 26 27 22 26 27 22 26 27 22 26 27 22 26 27 22 26 27 22 26 27
22 26 27 22 26 27 22 26 27 71 75 75 87 91 91 77 81 81 22 26 27 69 73 73 78 82 82 83 87 87 77 81 81 22 26 27 81 85 85 88 92 92 90 94 94 76 80 80
42 84 127 51 96 142 120 98 138 42 84 127 49 93 138 72 104 151 48 92 137 50 94 140 55 102 150 48 91 136 46 89 133 111 99 140 50 94 140 56 102 150 55 102 149 46 89 133
54 100 147 26 26 24 26 26 24 26 26 24 26 26 24 213 184 48 215 183 48 209 176 48 215 183 48 215 183 48 206 183 48 210 177 48 212 179 48 215 181 48 16 18 18 16 18 18
16 18 18 216 182 48 208 177 48 211 181 48 207 185 48 209 176 48 210 185 48 205 184 48 216 181 48 211 185 48 16 18 18 16 18 18 16 18 18 206 177 48 216 179 48 216 176 48
215 183 48 210 179 48 215 181 48 212 181 48 16 18 18 16 18 18 16 18 18 213 182 48 211 178 48 215 181 48 210 180 48 216 184 48 207 177 48 211 178 48 16 18 18 16 18 18
16 18 18 208 177 48 213 177 48 209 176 48 212 177 48 214 178 48 215 182 48 212 184 48 211 183 48 205 176 48 205 176 48 213 183 48 207 178 48 213 176 48 206 181 48 212 178 48
208 184 48 216 185 48 210 176 48 206 184 48 211 176 48 213 178 48 207 183 48 210 185 48 214 176 48 215 179 48 26 26 24 26 26 24 26 26 24 26 26 24 51 97 143 52 98 144
42 84 126 56 103 151 109 99 141 58 106 155 125 97 136 49 93 138 46 89 134 50 94 140 84 103 148 45 87 131 88 102 147 57 104 152 51 96 142 22 26 27 22 26 27 22 26 27
22 26 27 22 26 27 22 26 27 22 26 27 22 26 27 22 26 27 83 86 80 107 108 99 100 102 94 94 96 89 107 108 100 100 102 94 88 90 84 88 90 84 101 103 95 99 101 93
82 85 80 104 105 97 102 103 95 81 84 78 22 26 27 22 26 27 22 26 27 81 84 79 102 104 96 103 104 96 109 110 101 95 97 90 22 26 27 22 26 27 22 26 27 22 26 27
96 98 91 109 110 101 100 102 94 89 91 85 105 107 98 99 101 94 96 98 91 82 85 80 94 96 89 82 85 79 98 100 93 91 93 87 106 107 99 93 95 88 86 89 83 101 102 95
109 110 101 88 91 85 102 103 95 82 84 79 106 107 99 98 100 93 87 89 83 93 95 88 87 89 83 85 87 82 82 85 80 105 106 98 98 100 92 89 92 85 103 104 96 86 89 83
89 92 85 97 99 92 90 92 86 89 91 85 97 99 91 104 106 98 94 96 89 108 109 100 89 92 86 97 99 92 109 110 101 109 110 101 110 111 102 101 103 95 96 98 90 22 26 27
22 26 27 22 26 27 22 26 27 109 110 101 104 106 97 92 94 88 109 110 101 93 95 88 92 94 87 82 85 79 81 84 79 84 87 81 95 97 90 98 100 93 94 96 89 103 105 97
105 107 98 86 89 83 107 108 99 84 87 81 101 102 95 95 97 90 22 26 27 22 26 27 22 26 27 22 26 27 22 26 27 22 26 27 22 26 27 22 26 27 22 26 27 22 26 27
22 26 27 22 26 27 22 26 27 22 26 27 22 26 27 22 26 27 22 26 27 22 26 27 22 26 27 22 26 27 22 26 27 22 26 27 22 26 27 22 26 27 22 26 27 22 26 27
22 26 27 22 26 27 22 26 27 89 93 93 81 85 85 91 95 95 22 26 27 84 88 88 73 77 77 76 80 80 73 77 77 22 26 27 74 78 78 83 87 87 71 75 75 87 91 91
39 80 123 38 80 123 51 98 146 49 94 141 36 77 118 43 87 132 38 79 121 106 93 133 52 99 147 44 88 132 46 91 137 121 91 129 49 94 141 48 93 140 40 83 127 87 95 138
44 89 133 26 26 24 26 26 24 26 26 24 26 26 24 206 184 48 213 179 48 214 177 48 208 176 48 210 182 48 207 180 48 212 181 48 205 180 48 209 178 48 16 18 18 16 18 18
16 18 18 207 182 48 213 176 48 205 179 48 215 176 48 212 182 48 215 184 48 213 177 48 208 185 48 210 183 48 16 18 18 16 18 18 16 18 18 209 180 48 208 181 48 214 182 48
207 179 48 216 183 48 216 184 48 214 184 48 16 18 18 16 18 18 16 18 18 212 185 48 210 177 48 212 182 48 209 183 48 210 179 48 213 177 48 216 176 48 16 18 18 16 18 18
16 18 18 211 179 48 213 184 48 207 184 48 213 177 48 207 177 48 209 183 48 210 184 48 208 185 48 213 176 48 211 179 48 214 184 48 205 183 48 208 179 48 215 183 48 209 179 48
210 184 48 210 181 48 207 180 48 212 183 48 205 181 48 213 179 48 211 178 48 211 181 48 214 183 48 211 184 48 26 26 24 26 26 24 26 26 24 26 26 24 52 99 148 40 82 126
39 82 125 44 87 132 41 84 127 50 96 143 40 83 126 39 81 123 93 94 137 51 98 146 40 82 125 43 87 132 37 79 121 45 90 135 49 96 143 22 26 27 22 26 27 22 26 27
22 26 27 22 26 27 22 26 27 22 26 27 22 26 27 22 26 27 104 105 97 81 84 79 110 111 102 85 87 82 110 111 102 97 99 92 95 97 90 83 86 81 95 97 90 94 96 89
97 99 92 107 108 99 94 96 89 91 93 87 22 26 27 22 26 27 22 26 27 86 89 83 82 85 80 97 99 92 95 97 90 82 85 80 22 26 27 22 26 27 22 26 27 22 26 27
83 85 80 85 88 82 82 84 79 101 103 95 89 91 85 93 95 88 82 84 79 84 87 81 83 86 81 99 100 93 83 85 80 84 87 81 98 99 92 105 106 98 90 92 86 85 88 82
90 93 86 82 84 79 108 109 100 104 105 97 101 103 95 85 88 82 93 95 88 101 103 95 81 84 79 80 83 78 110 111 102 97 98 91 110 111 102 90 92 86 102 104 96 84 87 81
84 87 81 98 100 92 93 96 89 93 95 88 105 107 98 103 104 96 92 94 87 100 101 94 99 101 93 102 103 96 102 104 96 97 99 92 84 87 81 101 103 95 86 89 83 22 26 27
22 26 27 22 26 27 22 26 27 107 108 100 90 92 86 99 100 93 109 110 101 92 94 87 83 86 81 80 83 78 88 90 84 104 105 97 90 92 86 93 95 88 109 110 101 87 89 83
107 108 99 97 99 91 103 104 96 106 107 99 83 86 81 85 88 82 22 26 27 22 26 27 22 26 27 22 26 27 22 26 27 22 26 27 22 26 27 22 26 27 22 26 27 22 26 27
22 26 27 22 26 27 22 26 27 22 26 27 22 26 27 22 26 27 22 26 27 22 26 27 22 26 27 22 26 27 22 26 27 22 26 27 22 26 27 22 26 27 22 26 27 22 26 27
22 26 27 22 26 27 22 26 27 70 74 74 88 92 92 86 90 90 22 26 27 73 77 77 86 90 90 79 83 83 78 82 82 22 26 27 86 90 90 71 75 75 83 87 87 69 73 73
41 85 130 42 86 131 47 94 141 47 94 142 40 84 129 36 79 122 43 88 133 91 89 130 33 75 116 40 85 129 35 76 119 107 87 126 40 83 128 31 71 112 46 92 139 34 76 118
35 77 119 26 26 24 26 26 24 26 26 24 26 26 24 211 184 48 212 181 48 210 183 48 211 177 48 214 181 48 213 180 48 205 184 48 205 183 48 212 176 48 16 18 18 16 18 18
16 18 18 215 181 48 216 184 48 207 181 48 208 184 48 213 180 48 210 176 48 211 179 48 207 178 48 209 182 48 16 18 18 16 18 18 16 18 18 208 182 48 211 181 48 212 178 48
206 182 48 211 184 48 209 184 48 210 184 48 16 18 18 16 18 18 16 18 18 212 182 48 207 177 48 210 176 48 213 185 48 206 178 48 215 179 48 214 180 48 16 18 18 16 18 18
16 18 18 216 182 48 215 179 48 206 177 48 213 180 48 208 185 48 215 180 48 212 178 48 215 183 48 215 182 48 213 180 48 215 182 48 212 176 48 214 184 48 206 177 48 215 181 48
209 177 48 208 179 48 213 183 48 212 180 48 212 179 48 215 179 48 216 181 48 205 185 48 214 176 48 208 185 48 26 26 24 26 26 24 26 26 24 26 26 24 38 82 126 45 91 137
88 89 131 46 93 140 40 85 129 44 89 135 43 88 134 40 84 128 45 91 137 96 88 128 46 92 139 32 72 114 32 73 114 32 73 115 34 75 117 22 26 27 22 26 27 22 26 27
22 26 27 22 26 27 22 26 27 22 26 27 22 26 27 22 26 27 106 107 99 97 99 92 83 85 80 85 88 82 82 85 79 105 106 98 81 83 78 102 103 96 103 104 96 88 90 84
92 94 88 106 107 98 106 108 99 93 96 89 22 26 27 22 26 27 22 26 27 85 88 82 81 84 78 87 90 84 81 84 79 93 96 89 22 26 27 22 26 27 22 26 27 22 26 27
107 108 100 105 106 98 93 95 88 84 87 81 98 100 92 93 95 89 100 101 94 95 97 90 84 86 81 97 99 91 84 87 81 88 91 84 103 105 97 81 84 79 89 91 85 81 84 79
92 94 87 108 109 100 84 87 81 92 94 88 98 100 93 82 85 80 94 96 89 101 103 95 96 98 91 83 85 80 95 97 90 97 98 91 83 86 81 105 106 98 90 93 86 84 87 82
90 92 86 85 88 82 86 89 83 95 97 90 86 89 83 85 87 82 106 107 99 106 107 99 102 104 96 109 110 101 97 99 92 99 101 93 88 90 84 102 103 95 93 95 89 22 26 27
22 26 27 22 26 27 22 26 27 85 88 82 88 90 84 89 91 85 95 97 90 97 99 92 107 109 100 89 91 85 99 101 93 96 98 91 87 90 84 93 95 88 104 106 98 108 109 100
109 110 101 104 105 97 83 86 80 100 102 94 106 108 99 103 105 97 22 26 27 22 26 27 22 26 27 22 26 27 22 26 27 22 26 27 22 26 27 22 26 27 22 26 27 22 26 27
22 26 27 22 26 27 22 26 27 22 26 27 22 26 27 22 26 27 22 26 27 22 26 27 22 26 27 22 26 27 22 26 27 22 26 27 22 26 27 22 26 27 22 26 27 22 26 27
22 26 27 22 26 27 22 26 27 92 96 96 90 94 94 87 91 91 22 26 27 69 73 73 91 95 95 71 75 75 92 96 96 22 26 27 80 84 84 89 93 93 82 86 86 83 87 87
99 84 123 36 79 122 42 88 134 97 84 123 39 83 128 40 86 131 32 73 115 40 85 130 34 77 120 33 75 118 45 91 138 41 86 132 102 84 122 34 77 120 35 78 121 38 82 126
41 86 132 30 31 28 30 31 28 30 31 28 30 31 28 30 31 28 30 31 28 30 31 28 30 31 28 30 31 28 30 31 28 30 31 28 30 31 28 30 31 28 30 31 28 30 31 28
30 31 28 30 31 28 30 31 28 30 31 28 30 31 28 30 31 28 30 31 28 30 31 28 30 31 28 30 31 28 30 31 28 30 31 28 30 31 28 30 31 28 30 31 28 30 31 28
30 31 28 30 31 28 30 31 28 30 31 28 30 31 28 30 31 28 30 31 28 30 31 28 30 31 28 30 31 28 30 31 28 30 31 28 30 31 28 30 31 28 30 31 28 30 31 28
30 31 28 30 31 28 30 31 28 30 31 28 30 31 28 30 31 28 30 31 28 30 31 28 30 31 28 30 31 28 30 31 28 30 31 28 30 31 28 30 31 28 30 31 28 30 31 28
30 31 28 30 31 28 30 31 28 30 31 28 30 31 28 30 31 28 30 31 28 30 31 28 30 31 28 30 31 28 30 31 28 30 31 28 30 31 28 30 31 28 33 75 117 33 76 119
32 74 117 36 80 124 69 88 131 38 82 127 39 84 129 43 89 136 36 80 123 33 75 118 43 89 136 39 84 129 39 84 129 64 88 132 30 70 112 22 26 27 22 26 27 22 26 27
22 26 27 22 26 27 22 26 27 22 26 27 22 26 27 22 26 27 93 95 89 95 97 90 87 89 83 92 94 88 106 107 99 98 100 92 91 93 87 85 87 82 99 101 93 98 99 92
83 86 80 105 106 98 92 94 87 87 90 84 22 26 27 22 26 27 22 26 27 105 106 98 108 110 101 105 107 98 104 105 97 90 93 86 22 26 27 22 26 27 22 26 27 22 26 27
104 105 97 90 93 86 89 91 85 95 97 90 80 83 78 86 88 82 108 109 100 108 109 100 108 109 100 100 102 94 80 83 78 104 106 97 81 84 79 97 99 91 89 92 86 105 106 98
90 92 86 100 101 94 91 93 87 104 105 97 101 102 95 98 100 92 109 110 101 88 90 84 93 95 88 81 84 79 85 88 82 101 102 94 86 88 82 82 85 80 83 86 80 92 95 88
88 90 84 81 83 78 83 86 81 87 90 84 84 86 81 87 90 84 96 98 91 106 107 99 97 99 92 89 92 85 104 105 97 101 102 95 85 87 82 98 100 92 81 84 79 22 26 27
22 26 27 22 26 27 22 26 27 22 26 27 22 26 27 22 26 27 22 26 27 22 26 27 22 26 27 22 26 27 22 26 27 22 26 27 22 26 27 22 26 27 22 26 27 22 26 27
22 26 27 22 26 27 22 26 27 22 26 27 22 26 27 22 26 27 22 26 27 22 26 27 22 26 27 22 26 27 22 26 27 22 26 27 22 26 27 22 26 27 22 26 27 22 26 27
22 26 27 22 26 27 22 26 27 22 26 27 22 26 27 22 26 27 22 26 27 22 26 27 22 26 27 22 26 27 22 26 27 22 26 27 22 26 27 22 26 27 22 26 27 22 26 27
22 26 27 22 26 27 22 26 27 71 75 75 87 91 91 74 78 78 22 26 27 86 90 90 79 83 83 76 80 80 81 85 85 22 26 27 72 76 76 88 92 92 74 78 78 87 91 91
34 77 121 29 70 112 40 85 131 46 88 134 37 82 127 37 81 126 32 75 118 46 88 134 34 78 121 30 72 114 32 75 117 33 76 119 32 74 117 29 70 112 29 71 113 115 79 115
39 85 130 30 31 28 30 31 28 30 31 28 30 31 28 30 31 28 30 31 28 30 31 28 30 31 28 30 31 28 30 31 28 30 31 28 30 31 28 30 31 28 30 31 28 30 31 28
30 31 28 30 31 28 30 31 28 30 31 28 30 31 28 30 31 28 30 31 28 30 31 28 30 31 28 30 31 28 30 31 28 30 31 28 30 31 28 30 31 28 30 31 28 30 31 28
30 31 28 30 31 28 30 31 28 30 31 28 30 31 28 30 31 28 30 31 28 30 31 28 30 31 28 30 31 28 30 31 28 30 31 28 30 31 28 30 31 28 30 31 28 30 31 28
30 31 28 30 31 28 30 31 28 30 31 28 30 31 28 30 31 28 30 31 28 30 31 28 30 31 28 30 31 28 30 31 28 30 31 28 30 31 28 30 31 28 30 31 28 30 31 28
30 31 28 30 31 28 30 31 28 30 31 28 30 31 28 30 31 28 30 31 28 30 31 28 30 31 28 30 31 28 30 31 28 30 31 28 30 31 28 30 31 28 68 85 128 40 85 131
27 67 108 107 80 118 66 86 129 38 83 129 30 71 113 31 73 115 54 87 132 35 79 123 46 88 134 32 75 118 54 87 132 38 84 129 27 67 107 22 26 27 22 26 27 22 26 27
22 26 27 22 26 27 22 26 27 22 26 27 22 26 27 22 26 27 82 85 79 104 106 97 94 96 89 109 110 101 93 95 88 99 101 94 103 105 97 88 91 85 110 111 102 96 98 91
85 88 82 105 107 98 101 102 95 100 102 94 22 26 27 22 26 27 22 26 27 93 95 88 99 100 93 102 103 95 99 101 93 88 91 85 22 26 27 22 26 27 22 26 27 22 26 27
104 106 97 106 107 99 105 106 98 99 101 93 87 89 83 88 90 84 96 98 91 90 93 86 100 101 94 86 88 83 92 95 88 100 102 94 84 87 81 80 83 78 86 89 83 107 108 100
104 106 97 109 111 102 101 102 94 92 94 87 104 106 97 100 101 94 97 99 92 88 91 85 106 107 98 105 107 98 105 106 98 82 85 80 101 103 95 107 108 100 103 104 96 92 94 88
107 108 100 92 94 88 109 110 101 98 100 93 94 96 89 94 96 89 86 89 83 106 107 99 82 84 79 110 111 102 104 106 97 101 102 95 95 97 90 101 103 95 104 106 97 22 26 27
22 26 27 22 26 27 22 26 27 22 26 27 22 26 27 22 26 27 22 26 27 22 26 27 22 26 27 22 26 27 22 26 27 22 26 27 22 26 27 22 26 27 22 26 27 22 26 27
22 26 27 22 26 27 22 26 27 22 26 27 22 26 27 22 26 27 22 26 27 22 26 27 22 26 27 22 26 27 22 26 27 22 26 27 22 26 27 22 26 27 22 26 27 22 26 27
22 26 27 22 26 27 22 26 27 22 26 27 22 26 27 22 26 27 22 26 27 22 26 27 22 26 27 22 26 27 22 26 27 22 26 27 22 26 27 22 26 27 22 26 27 22 26 27
22 26 27 22 26 27 22 26 27 88 92 92 72 76 76 78 82 82 22 26 27 70 74 74 89 93 93 72 76 76 86 90 90 22 26 27 86 90 90 76 80 80 73 77 77 86 90 90
67 83 126 30 72 114 111 78 114 79 82 123 35 79 123 40 87 133 31 73 116 34 77 121 38 83 129 101 79 117 117 77 112 98 80 118 36 80 125 24 64 104 35 79 124 24 64 104
105 79 115 220 175 40 220 175 40 220 175 40 220 175 40 220 175 40 220 175 40 220 175 40 30 31 28 30 31 28 30 31 28 30 31 28 30 31 28 30 31 28 220 175 40 220 175 40
220 175 40 220 175 40 220 175 40 220 175 40 30 31 28 30 31 28 30 31 28 30 31 28 30 31 28 30 31 28 30 31 28 220 175 40 220 175 40 220 175 40 220 175 40 220 175 40
220 175 40 30 31 28 30 31 28 30 31 28 30 31 28 30 31 28 30 31 28 30 31 28 220 175 40 220 175 40 220 175 40 220 175 40 220 175 40 220 175 40 30 31 28 30 31 28
30 31 28 30 31 28 30 31 28 30 31 28 220 175 40 220 175 40 220 175 40 220 175 40 220 175 40 220 175 40 220 175 40 30 31 28 30 31 28 30 31 28 30 31 28 30 31 28
30 31 28 220 175 40 220 175 40 220 175 40 220 175 40 220 175 40 220 175 40 220 175 40 30 31 28 30 31 28 30 31 28 30 31 28 30 31 28 30 31 28 29 71 113 40 86 132
57 85 129 38 84 129 118 77 112 34 79 123 37 81 126 37 81 126 28 69 111 39 85 131 36 81 126 35 79 124 116 77 113 36 81 126 40 86 133 22 26 27 22 26 27 22 26 27
22 26 27 22 26 27 22 26 27 22 26 27 22 26 27 22 26 27 102 104 96 96 98 91 102 103 96 87 89 83 106 107 99 100 102 94 98 100 92 85 87 82 102 103 96 107 108 100
101 102 95 100 101 94 80 83 78 109 110 101 22 26 27 22 26 27 22 26 27 95 97 90 97 99 91 107 108 99 98 100 93 86 89 83 22 26 27 22 26 27 22 26 27 22 26 27
86 88 83 101 103 95 108 109 100 90 93 86 90 92 86 98 100 92 97 99 92 101 103 95 83 86 81 90 92 86 93 95 88 100 102 94 102 104 96 86 88 83 95 97 90 107 108 100
90 93 86 110 111 102 87 90 84 80 83 78 110 111 102 81 84 79 81 84 79 83 85 80 103 105 97 96 98 91 107 108 100 96 97 90 91 94 87 83 86 80 94 97 90 89 91 85
94 96 89 81 84 79 82 85 80 100 102 94 97 99 92 103 105 97 92 95 88 101 103 95 82 84 79 107 108 100 110 111 102 106 107 99 108 109 100 101 103 95 100 102 94 22 26 27
22 26 27 22 26 27 22 26 27 22 26 27 22 26 27 22 26 27 22 26 27 22 26 27 22 26 27 22 26 27 22 26 27 22 26 27 22 26 27 22 26 27 22 26 27 22 26 27
22 26 27 22 26 27 22 26 27 22 26 27 22 26 27 22 26 27 22 26 27 22 26 27 22 26 27 22 26 27 22 26 27 22 26 27 22 26 27 22 26 27 22 26 27 22 26 27
22 26 27 22 26 27 22 26 27 22 26 27 22 26 27 22 26 27 22 26 27 22 26 27 22 26 27 22 26 27 22 26 27 22 26 27 22 26 27 22 26 27 22 26 27 22 26 27
22 26 27 22 26 27 22 26 27 91 95 95 72 76 76 69 73 73 22 26 27 84 88 88 78 82 82 74 78 78 85 89 89 22 26 27 90 94 94 72 76 76 84 88 88 76 80 80
36 82 127 91 77 115 28 70 112 23 63 103 37 83 129 27 70 112 23 64 104 23 63 104 34 79 123 33 77 121 33 78 122 23 63 103 41 83 129 21 61 101 31 75 118 38 84 130
25 66 107 220 175 40 220 175 40 220 175 40 220 175 40 220 175 40 220 175 40 220 175 40 30 31 28 30 31 28 30 31 28 30 31 28 30 31 28 30 31 28 220 175 40 220 175 40
220 175 40 220 175 40 220 175 40 220 175 40 30 31 28 30 31 28 30 31 28 30 31 28 30 31 28 30 31 28 30 31 28 220 175 40 220 175 40 220 175 40 220 175 40 220 175 40
220 175 40 30 31 28 30 31 28 30 31 28 30 31 28 30 31 28 30 31 28 30 31 28 220 175 40 220 175 40 220 175 40 220 175 40 220 175 40 220 175 40 30 31 28 30 31 28
30 31 28 30 31 28 30 31 28 30 31 28 220 175 40 220 175 40 220 175 40 220 175 40 220 175 40 220 175 40 220 175 40 30 31 28 30 31 28 30 31 28 30 31 28 30 31 28
30 31 28 220 175 40 220 175 40 220 175 40 220 175 40 220 175 40 220 175 40 220 175 40 30 31 28 30 31 28 30 31 28 30 31 28 30 31 28 30 31 28 34 78 123 34 79 124
30 73 116 23 64 104 36 82 128 24 65 106 39 84 130 29 72 115 36 82 127 29 72 115 31 74 118 22 62 102 24 65 105 36 82 128 37 82 128 22 26 27 22 26 27 22 26 27
22 26 27 22 26 27 22 26 27 22 26 27 22 26 27 22 26 27 95 97 90 83 85 80 95 97 90 109 110 102 85 87 82 89 91 85 109 110 101 102 103 95 110 111 102 82 85 80
85 87 82 96 97 90 110 111 102 81 84 79 22 26 27 22 26 27 22 26 27 104 105 97 106 107 99 101 103 95 104 106 97 86 89 83 22 26 27 22 26 27 22 26 27 22 26 27
82 85 79 99 100 93 102 104 96 99 101 93 83 86 80 89 92 85 91 93 87 81 84 79 92 94 88 83 86 80 85 87 82 99 101 93 89 91 85 90 92 86 85 87 82 107 108 100
105 106 98 82 85 80 81 84 79 81 84 79 100 102 94 100 102 94 82 85 80 86 88 83 92 94 87 87 90 84 105 107 98 103 105 97 97 99 92 100 102 94 82 85 80 109 110 101
99 100 93 102 104 96 93 95 88 93 95 88 92 94 87 85 88 82 88 91 84 99 100 93 103 105 96 98 100 92 84 87 82 89 92 86 109 110 101 86 89 83 98 100 92 22 26 27
22 26 27 22 26 27 22 26 27 22 26 27 22 26 27 22 26 27 22 26 27 22 26 27 22 26 27 22 26 27 22 26 27 22 26 27 22 26 27 22 26 27 22 26 27 22 26 27
22 26 27 22 26 27 22 26 27 22 26 27 22 26 27 22 26 27 22 26 27 22 26 27 22 26 27 22 26 27 22 26 27 22 26 27 22 26 27 22 26 27 22 26 27 22 26 27
22 26 27 22 26 27 22 26 27 22 26 27 22 26 27 22 26 27 22 26 27 22 26 27 22 26 27 22 26 27 22 26 27 22 26 27 22 26 27 22 26 27 22 26 27 22 26 27
22 26 27 22 26 27 22 26 27 69 73 73 77 81 81 92 96 96 22 26 27 74 78 78 70 74 74 79 83 83 92 96 96 22 26 27 81 85 85 87 91 91 92 96 96 85 89 89
18 57 96 23 65 107 25 68 110 31 76 120 32 77 122 23 65 106 22 63 104 20 60 100 20 61 101 20 61 101 27 70 113 25 68 110 112 69 103 107 70 105 25 68 110 32 77 122
25 68 110 220 175 40 220 175 40 220 175 40 220 175 40 220 175 40 220 175 40 220 175 40 30 31 28 30 31 28 30 31 28 30 31 28 30 31 28 30 31 28 220 175 40 220 175 40
220 175 40 220 175 40 220 175 40 220 175 40 30 31 28 30 31 28 30 31 28 30 31 28 30 31 28 30 31 28 30 31 28 220 175 40 220 175 40 220 175 40 220 175 40 220 175 40
220 175 40 30 31 28 30 31 28 30 31 28 30 31 28 30 31 28 30 31 28 30 31 28 220 175 40 220 175 40 220 175 40 220 175 40 220 175 40 220 175 40 30 31 28 30 31 28
30 31 28 30 31 28 30 31 28 30 31 28 220 175 40 220 175 40 220 175 40 220 175 40 220 175 40 220 175 40 220 175 40 30 31 28 30 31 28 30 31 28 30 31 28 30 31 28
30 31 28 220 175 40 220 175 40 220 175 40 220 175 40 220 175 40 220 175 40 220 175 40 30 31 28 30 31 28 30 31 28 30 31 28 30 31 28 30 31 28 79 73 112 49 77 121
22 63 105 25 67 109 27 70 114 24 67 109 33 78 123 32 77 122 25 67 110 23 65 106 33 78 124 32 77 122 25 67 110 27 70 113 63 75 117 22 26 27 22 26 27 22 26 27
22 26 27 22 26 27 22 26 27 22 26 27 22 26 27 22 26 27 102 103 95 109 110 101 93 95 89 89 91 85 89 91 85 80 83 78 81 84 79 97 99 92 87 90 84 96 98 91
89 91 85 80 83 78 103 104 96 109 110 101 22 26 27 22 26 27 22 26 27 95 97 90 95 97 90 108 109 100 89 91 85 86 89 83 22 26 27 22 26 27 22 26 27 22 26 27
100 101 94 99 101 93 84 87 81 94 96 89 86 89 83 105 107 98 83 86 81 92 94 87 87 90 84 82 85 80 106 107 99 87 90 84 89 91 85 103 105 97 100 102 94 90 92 86
84 87 81 86 88 83 85 88 82 105 106 98 99 100 93 94 96 89 86 88 83 98 100 92 91 93 86 84 87 81 100 102 94 100 102 94 108 109 100 88 91 85 94 96 89 100 102 94
107 108 100 103 104 96 89 91 85 97 99 92 103 104 96 82 85 80 99 101 94 101 103 95 96 98 91 107 108 100 104 106 97 106 107 99 87 89 83 105 107 98 90 93 86 22 26 27
22 26 27 22 26 27 22 26 27 22 26 27 22 26 27 22 26 27 22 26 27 22 26 27 22 26 27 22 26 27 22 26 27 22 26 27 22 26 27 22 26 27 22 26 27 22 26 27
22 26 27 22 26 27 22 26 27 22 26 27 22 26 27 22 26 27 22 26 27 22 26 27 22 26 27 22 26 27 22 26 27 22 26 27 22 26 27 22 26 27 22 26 27 22 26 27
22 26 27 22 26 27 22 26 27 22 26 27 22 26 27 22 26 27 22 26 27 22 26 27 22 26 27 22 26 27 22 26 27 22 26 27 22 26 27 22 26 27 22 26 27 22 26 27
22 26 27 22 26 27 22 26 27 69 73 73 75 79 79 71 75 75 22 26 27 78 82 82 69 73 73 73 77 77 71 75 75 22 26 27 88 92 92 83 87 87 82 86 86 84 88 88
26 70 114 16 56 97 12 51 89 18 59 100 12 50 89 17 58 98 20 62 104 22 64 107 26 71 115 23 67 110 27 72 117 98 64 99 25 69 113 20 62 104 23 67 110 40 71 115
15 56 96 220 175 40 220 175 40 220 175 40 220 175 40 220 175 40 220 175 40 220 175 40 30 31 28 30 31 28 30 31 28 30 31 28 30 31 28 30 31 28 220 175 40 220 175 40
220 175 40 220 175 40 220 175 40 220 175 40 30 31 28 30 31 28 30 31 28 30 31 28 30 31 28 30 31 28 30 31 28 220 175 40 220 175 40 220 175 40 220 175 40 220 175 40
220 175 40 30 31 28 30 31 28 30 31 28 30 31 28 30 31 28 30 31 28 30 31 28 220 175 40 220 175 40 220 175 40 220 175 40 220 175 40 220 175 40 30 31 28 30 31 28
30 31 28 30 31 28 30 31 28 30 31 28 220 175 40 220 175 40 220 175 40 220 175 40 220 175 40 220 175 40 220 175 40 30 31 28 30 31 28 30 31 28 30 31 28 30 31 28
30 31 28 220 175 40 220 175 40 220 175 40 220 175 40 220 175 40 220 175 40 220 175 40 30 31 28 30 31 28 30 31 28 30 31 28 30 31 28 30 31 28 24 68 112 58 69 110
12 51 90 15 54 94 20 62 104 26 70 115 28 73 118 21 64 107 14 54 93 14 54 94 23 66 110 12 50 89 85 66 102 24 67 111 17 58 99 22 26 27 22 26 27 22 26 27
22 26 27 22 26 27 22 26 27 22 26 27 22 26 27 22 26 27 88 90 84 93 95 89 88 90 84 101 103 95 92 94 87 100 101 94 81 84 79 81 84 78 96 98 91 85 87 82
94 96 90 100 102 94 97 99 92 84 86 81 22 26 27 22 26 27 22 26 27 97 99 92 84 87 81 98 100 92 106 107 99 92 95 88 22 26 27 22 26 27 22 26 27 22 26 27
104 105 97 84 87 81 87 90 84 102 104 96 99 101 93 108 109 100 104 105 97 84 87 81 102 103 95 84 87 82 86 88 82 92 94 88 80 83 78 95 97 90 81 84 79 100 102 94
95 97 90 92 94 88 97 99 91 98 99 92 103 104 96 104 106 98 109 110 101 95 97 90 108 109 101 87 90 84 87 89 83 98 100 92 84 87 81 94 97 90 102 104 96 100 101 94
87 90 84 83 86 80 92 94 87 83 86 80 102 104 96 105 106 98 106 108 99 103 104 96 84 87 82 101 102 95 90 93 86 97 98 91 105 107 98 93 95 88 92 94 87 22 26 27
22 26 27 22 26 27 22 26 27 22 26 27 22 26 27 22 26 27 22 26 27 22 26 27 22 26 27 22 26 27 22 26 27 22 26 27 22 26 27 22 26 27 22 26 27 22 26 27
22 26 27 22 26 27 22 26 27 22 26 27 22 26 27 22 26 27 22 26 27 22 26 27 22 26 27 22 26 27 22 26 27 22 26 27 22 26 27 22 26 27 22 26 27 22 26 27
22 26 27 22 26 27 22 26 27 22 26 27 22 26 27 22 26 27 22 26 27 22 26 27 22 26 27 22 26 27 22 26 27 22 26 27 22 26 27 22 26 27 22 26 27 22 26 27
22 26 27 22 26 27 22 26 27 93 97 97 81 85 85 78 82 82 22 26 27 78 82 82 79 83 83 91 95 95 77 81 81 22 26 27 80 84 84 87 91 91 76 80 80 85 89 89
8 47 86 10 50 89 21 65 109 7 45 84 8 47 86 8 47 86 17 59 101 17 59 102 23 67 112 12 52 92 8 47 85 21 65 109 7 45 83 19 63 106 16 57 99 16 58 100
11 50 90 30 31 28 30 31 28 30 31 28 30 31 28 30 31 28 30 31 28 30 31 28 30 31 28 30 31 28 30 31 28 30 31 28 30 31 28 30 31 28 30 31 28 30 31 28
30 31 28 30 31 28 30 31 28 30 31 28 30 31 28 30 31 28 30 31 28 30 31 28 30 31 28 30 31 28 30 31 28 30 31 28 30 31 28 30 31 28 30 31 28 30 31 28
30 31 28 30 31 28 30 31 28 30 31 28 30 31 28 30 31 28 30 31 28 30 31 28 30 31 28 30 31 28 30 31 28 30 31 28 30 31 28 30 31 28 30 31 28 30 31 28
30 31 28 30 31 28 30 31 28 30 31 28 30 31 28 30 31 28 30 31 28 30 31 28 30 31 28 30 31 28 30 31 28 30 31 28 30 31 28 30 31 28 30 31 28 30 31 28
30 31 28 30 31 28 30 31 28 30 31 28 30 31 28 30 31 28 30 31 28 30 31 28 30 31 28 30 31 28 30 31 28 30 31 28 30 31 28 30 31 28 17 59 101 23 67 112
44 65 107 44 65 107 16 57 99 13 53 94 12 52 93 17 60 103 9 49 88 21 65 109 23 67 112 14 55 96 65 63 101 14 55 96 23 67 112 22 26 27 22 26 27 22 26 27
22 26 27 22 26 27 22 26 27 22 26 27 22 26 27 22 26 27 81 84 79 87 90 84 89 92 85 99 101 93 88 91 85 97 99 92 93 95 88 100 101 94 83 86 80 107 108 99
81 84 79 94 96 89 109 110 101 84 87 82 22 26 27 22 26 27 22 26 27 99 101 93 104 105 97 109 110 101 99 101 93 105 106 98 22 26 27 22 26 27 22 26 27 22 26 27
93 95 88 87 89 83 101 103 95 99 101 93 108 109 100 91 94 87 99 100 93 87 90 84 94 96 89 81 84 79 106 107 99 81 84 79 86 89 83 106 107 99 106 108 99 103 104 96
97 98 91 84 87 81 105 107 98 82 85 79 83 85 80 103 104 96 104 105 97 88 90 84 80 83 78 102 104 96 88 90 84 99 101 94 93 95 88 86 89 83 97 99 92 95 97 90
87 90 84 85 88 82 100 102 94 96 98 91 91 93 87 108 110 101 106 107 99 110 111 102 103 104 96 105 106 98 87 90 84 88 90 84 98 100 92 103 105 97 106 108 99 22 26 27
22 26 27 22 26 27 22 26 27 22 26 27 22 26 27 22 26 27 22 26 27 22 26 27 22 26 27 22 26 27 22 26 27 22 26 27 22 26 27 22 26 27 22 26 27 22 26 27
22 26 27 22 26 27 22 26 27 22 26 27 22 26 27 22 26 27 22 26 27 22 26 27 22 26 27 22 26 27 22 26 27 22 26 27 22 26 27 22 26 27 22 26 27 22 26 27
22 26 27 22 26 27 22 26 27 22 26 27 22 26 27 22 26 27 22 26 27 22 26 27 22 26 27 22 26 27 22 26 27 22 26 27 22 26 27 22 26 27 22 26 27 22 26 27
22 26 27 22 26 27 22 26 27 76 80 80 88 92 92 76 80 80 22 26 27 84 88 88 86 90 90 75 79 79 85 89 89 22 26 27 89 93 93 82 86 86 79 83 83 80 84 84
10 51 91 13 54 95 14 56 98 46 63 104 10 50 90 10 49 89 9 49 88 10 50 91 9 49 88 18 61 104 9 49 89 19 63 107 16 58 100 19 62 105 15 56 98 34 64 107
16 59 101 30 31 28 30 31 28 30 31 28 30 31 28 30 31 28 30 31 28 30 31 28 30 31 28 30 31 28 30 31 28 30 31 28 30 31 28 30 31 28 30 31 28 30 31 28
30 31 28 30 31 28 30 31 28 30 31 28 30 31 28 30 31 28 30 31 28 30 31 28 30 31 28 30 31 28 30 31 28 30 31 28 30 31 28 30 31 28 30 31 28 30 31 28
30 31 28 30 31 28 30 31 28 30 31 28 30 31 28 30 31 28 30 31 28 30 31 28 30 31 28 30 31 28 30 31 28 30 31 28 30 31 28 30 31 28 30 31 28 30 31 28
30 31 28 30 31 28 30 31 28 30 31 28 30 31 28 30 31 28 30 31 28 30 31 28 30 31 28 30 31 28 30 31 28 30 31 28 30 31 28 30 31 28 30 31 28 30 31 28
30 31 28 30 31 28 30 31 28 30 31 28 30 31 28 30 31 28 30 31 28 30 31 28 30 31 28 30 31 28 30 31 28 30 31 28 30 31 28 30 31 28 10 50 91 40 64 105
20 64 108 44 63 104 56 62 101 16 58 101 13 55 96 12 53 94 14 55 97 7 46 85 6 44 82 19 63 106 20 65 109 69 60 97 12 53 94 22 26 27 22 26 27 22 26 27
22 26 27 22 26 27 22 26 27 22 26 27 22 26 27 22 26 27 89 91 85 89 91 85 99 100 93 81 84 79 89 91 85 109 110 101 80 83 78 87 89 83 103 104 96 95 97 90
103 105 97 81 83 78 99 101 93 98 100 93 22 26 27 22 26 27 22 26 27 88 91 85 103 105 97 92 94 88 87 89 83 108 110 101 22 26 27 22 26 27 22 26 27 22 26 27
96 98 91 84 87 81 84 86 81 90 92 86 85 87 82 85 88 82 109 110 101 91 93 87 105 106 98 89 91 85 93 95 88 81 84 79 97 99 92 102 103 96 107 109 100 101 103 95
97 98 91 100 101 94 110 111 102 100 102 94 97 99 92 93 95 88 96 98 91 101 103 95 87 89 83 84 87 81 104 105 97 93 95 89 85 88 82 86 88 82 89 92 86 82 85 79
91 93 87 98 100 92 86 88 83 91 94 87 97 99 92 103 104 96 103 105 97 96 98 91 98 100 92 99 101 94 84 87 81 94 96 90 88 91 85 100 101 94 83 86 80 22 26 27
22 26 27 22 26 27 22 26 27 22 26 27 22 26 27 22 26 27 22 26 27 22 26 27 22 26 27 22 26 27 22 26 27 22 26 27 22 26 27 22 26 27 22 26 27 22 26 27
22 26 27 22 26 27 22 26 27 22 26 27 22 26 27 22 26 27 22 26 27 22 26 27 22 26 27 22 26 27 22 26 27 22 26 27 22 26 27 22 26 27 22 26 27 22 26 27
22 26 27 22 26 27 22 26 27 22 26 27 22 26 27 22 26 27 22 26 27 22 26 27 22 26 27 22 26 27 22 26 27 22 26 27 22 26 27 22 26 27 22 26 27 22 26 27
22 26 27 22 26 27 22 26 27 76 80 80 75 79 79 74 78 78 22 26 27 77 81 81 93 97 97 80 84 84 69 73 73 22 26 27 71 75 75 71 75 75 82 86 86 87 91 91
16 58 99 100 59 93 19 62 105 12 52 92 10 49 89 9 48 86 21 65 109 23 67 111 11 50 90 34 67 111 14 55 96 22 66 110 38 67 110 62 64 103 72 63 100 22 66 110
24 68 113 26 26 24 26 26 24 26 26 24 26 26 24 216 184 48 213 177 48 215 183 48 211 179 48 212 180 48 210 182 48 210 180 48 205 184 48 211 181 48 16 18 18 16 18 18
16 18 18 207 176 48 205 176 48 205 177 48 208 180 48 208 180 48 216 176 48 209 176 48 209 184 48 213 179 48 16 18 18 16 18 18 16 18 18 209 181 48 210 176 48 208 185 48
210 180 48 216 176 48 206 185 48 205 181 48 16 18 18 16 18 18 16 18 18 212 184 48 208 183 48 209 176 48 212 181 48 215 181 48 206 184 48 209 179 48 16 18 18 16 18 18
16 18 18 208 177 48 214 181 48 211 180 48 213 179 48 207 185 48 207 179 48 208 181 48 212 180 48 216 182 48 206 183 48 216 177 48 216 180 48 211 181 48 216 176 48 205 185 48
206 180 48 208 180 48 213 182 48 207 181 48 214 184 48 215 176 48 213 176 48 215 184 48 209 180 48 208 184 48 26 26 24 26 26 24 26 26 24 26 26 24 30 68 112 14 55 96
9 48 87 20 63 107 20 63 106 8 46 85 11 51 90 9 49 88 22 67 111 22 67 111 9 47 86 49 65 106 19 62 105 8 46 84 85 61 97 22 26 27 22 26 27 22 26 27
22 26 27 22 26 27 22 26 27 22 26 27 22 26 27 22 26 27 91 93 87 96 98 90 87 89 83 82 84 79 102 103 96 93 95 88 83 86 81 90 93 86 88 91 85 90 92 86
83 85 80 84 86 81 89 91 85 103 105 96 22 26 27 22 26 27 22 26 27 84 87 81 82 85 79 94 96 89 99 100 93 81 84 79 22 26 27 22 26 27 22 26 27 22 26 27
105 106 98 109 110 101 109 110 101 96 98 91 103 104 96 83 86 80 103 105 97 105 107 98 84 87 81 98 100 92 102 104 96 88 91 84 88 90 84 89 91 85 89 91 85 99 100 93
106 107 99 96 98 91 80 83 78 108 109 101 93 95 88 84 86 81 82 85 80 106 107 99 103 104 96 94 96 89 103 105 96 108 109 100 87 90 84 98 100 93 100 102 94 92 94 88
85 88 82 82 85 80 91 93 87 106 108 99 83 85 80 98 100 92 94 96 89 94 96 89 87 90 84 108 109 100 92 95 88 110 111 102 105 107 98 86 89 83 80 83 78 22 26 27
22 26 27 22 26 27 22 26 27 22 26 27 22 26 27 22 26 27 22 26 27 22 26 27 22 26 27 22 26 27 22 26 27 22 26 27 22 26 27 22 26 27 22 26 27 22 26 27
22 26 27 22 26 27 22 26 27 22 26 27 22 26 27 22 26 27 22 26 27 22 26 27 22 26 27 22 26 27 22 26 27 22 26 27 22 26 27 22 26 27 22 26 27 22 26 27
22 26 27 22 26 27 22 26 27 22 26 27 22 26 27 22 26 27 22 26 27 22 26 27 22 26 27 22 26 27 22 26 27 22 26 27 22 26 27 22 26 27 22 26 27 22 26 27
22 26 27 22 26 27 22 26 27 74 78 78 70 74 74 90 94 94 22 26 27 79 83 83 88 92 92 91 95 95 81 85 85 22 26 27 86 90 90 86 90 90 88 92 92 91 95 95
23 66 109 55 71 112 26 71 115 16 56 96 24 68 111 30 74 119 55 71 112 25 68 112 13 52 91 24 67 110 20 61 103 22 65 108 71 69 108 16 56 96 65 70 110 15 55 94
27 71 115 26 26 24 26 26 24 26 26 24 26 26 24 213 176 48 210 184 48 214 183 48 211 182 48 213 184 48 213 176 48 212 183 48 216 184 48 214 184 48 16 18 18 16 18 18
16 18 18 214 183 48 216 183 48 214 176 48 207 178 48 214 180 48 216 176 48 215 185 48 211 180 48 205 179 48 16 18 18 16 18 18 16 18 18 214 176 48 207 176 48 214 181 48
211 180 48 214 180 48 211 177 48 205 182 48 16 18 18 16 18 18 16 18 18 207 179 48 211 184 48 206 176 48 212 178 48 208 177 48 207 181 48 208 185 48 16 18 18 16 18 18
16 18 18 211 184 48 216 176 48 213 185 48 216 185 48 207 178 48 208 183 48 206 185 48 208 182 48 211 176 48 213 178 48 212 178 48 205 183 48 214 183 48 205 183 48 212 180 48
205 179 48 207 179 48 209 178 48 205 185 48 216 183 48 207 179 48 210 177 48 210 179 48 205 176 48 209 180 48 26 26 24 26 26 24 26 26 24 26 26 24 22 65 107 19 60 101
18 59 100 13 52 91 24 67 111 15 55 94 28 72 117 28 73 118 28 73 117 17 58 99 21 63 105 13 52 90 13 52 91 28 73 118 23 66 109 22 26 27 22 26 27 22 26 27
22 26 27 22 26 27 22 26 27 22 26 27 22 26 27 22 26 27 89 91 85 102 104 96 95 97 90 88 90 84 101 103 95 95 97 90 85 88 82 109 110 101 102 103 95 80 83 78
95 97 90 108 109 101 99 101 93 92 94 87 22 26 27 22 26 27 22 26 27 93 95 88 95 97 90 92 94 87 107 108 100 98 100 92 22 26 27 22 26 27 22 26 27 22 26 27
99 101 93 85 87 82 80 83 78 102 103 95 80 83 78 96 98 91 109 110 101 99 100 93 89 92 86 81 84 79 106 107 99 91 93 87 86 89 83 86 89 83 95 97 90 99 101 93
108 109 100 99 100 93 96 98 91 93 95 89 108 109 101 89 92 86 107 108 99 109 110 101 81 84 79 106 107 99 84 87 81 87 89 83 106 107 98 92 95 88 103 104 96 109 110 101
106 107 98 90 93 86 92 94 87 89 91 85 104 105 97 106 107 99 103 105 97 90 92 86 91 93 86 86 88 82 88 90 84 103 105 96 100 102 94 97 99 92 90 92 86 22 26 27
22 26 27 22 26 27 22 26 27 22 26 27 22 26 27 22 26 27 22 26 27 22 26 27 22 26 27 22 26 27 22 26 27 22 26 27 22 26 27 22 26 27 22 26 27 22 26 27
22 26 27 22 26 27 22 26 27 22 26 27 22 26 27 22 26 27 22 26 27 22 26 27 22 26 27 22 26 27 22 26 27 22 26 27 22 26 27 22 26 27 22 26 27 22 26 27
22 26 27 22 26 27 22 26 27 22 26 27 22 26 27 22 26 27 22 26 27 22 26 27 22 26 27 22 26 27 22 26 27 22 26 27 22 26 27 22 26 27 22 26 27 22 26 27
22 26 27 22 26 27 22 26 27 72 76 76 81 85 85 70 74 74 22 26 27 90 94 94 88 92 92 78 82 82 86 90 90 22 26 27 71 75 75 91 95 95 76 80 80 79 83 83
31 76 121 25 67 109 24 65 107 24 66 107 24 66 108 20 60 100 28 71 114 32 77 122 25 67 109 27 70 113 26 68 111 43 79 124 31 76 120 25 67 110 24 66 107 32 77 122
25 67 109 26 26 24 26 26 24 26 26 24 26 26 24 205 184 48 211 177 48 213 177 48 215 183 48 207 184 48 214 184 48 213 181 48 212 181 48 206 179 48 16 18 18 16 18 18
16 18 18 207 176 48 214 182 48 206 183 48 208 180 48 212 183 48 210 183 48 215 180 48 210 178 48 211 185 48 16 18 18 16 18 18 16 18 18 216 180 48 207 180 48 205 181 48
208 181 48 212 183 48 216 177 48 216 183 48 16 18 18 16 18 18 16 18 18 211 179 48 210 180 48 215 183 48 215 180 48 205 178 48 207 178 48 207 177 48 16 18 18 16 18 18
16 18 18 205 183 48 207 183 48 206 181 48 214 180 48 207 185 48 215 183 48 210 185 48 206 179 48 205 184 48 212 179 48 206 181 48 209 184 48 215 181 48 216 179 48 207 177 48
210 176 48 210 181 48 213 177 48 213 177 48 207 185 48 216 184 48 214 180 48 215 178 48 210 179 48 212 182 48 26 26 24 26 26 24 26 26 24 26 26 24 31 75 119 19 59 98
24 65 107 29 73 117 28 71 115 33 78 124 25 67 110 33 79 124 93 73 110 28 72 115 21 61 102 19 59 99 89 73 111 18 57 97 31 75 120 22 26 27 22 26 27 22 26 27
22 26 27 22 26 27 22 26 27 22 26 27 22 26 27 22 26 27 89 91 85 94 96 89 102 103 95 92 95 88 101 102 95 106 107 99 98 99 92 104 106 97 109 110 102 81 84 79
81 84 79 93 95 88 98 100 92 108 109 100 22 26 27 22 26 27 22 26 27 88 90 84 90 93 86 87 90 84 96 98 91 93 95 89 22 26 27 22 26 27 22 26 27 22 26 27
102 104 96 83 86 80 92 94 87 92 95 88 100 102 94 83 86 80 105 106 98 84 87 81 84 86 81 100 101 94 93 95 88 104 105 97 109 110 101 87 90 84 104 105 97 90 93 86
87 90 84 96 98 91 103 105 97 98 100 92 102 103 95 85 87 82 95 97 90 100 101 94 108 109 101 91 93 87 104 105 97 87 89 83 97 98 91 89 91 85 84 86 81 100 102 94
84 87 81 84 87 82 84 87 81 84 87 81 91 93 87 109 110 101 106 107 99 92 94 88 97 99 92 94 96 89 89 92 86 96 98 91 90 92 86 107 108 100 85 88 82 22 26 27
22 26 27 22 26 27 22 26 27 22 26 27 22 26 27 22 26 27 22 26 27 22 26 27 22 26 27 22 26 27 22 26 27 22 26 27 22 26 27 22 26 27 22 26 27 22 26 27
22 26 27 22 26 27 22 26 27 22 26 27 22 26 27 22 26 27 22 26 27 22 26 27 22 26 27 22 26 27 22 26 27 22 26 27 22 26 27 22 26 27 22 26 27 22 26 27
22 26 27 22 26 27 22 26 27 22 26 27 22 26 27 22 26 27 22 26 27 22 26 27 22 26 27 22 26 27 22 26 27 22 26 27 22 26 27 22 26 27 22 26 27 22 26 27
22 26 27 22 26 27 22 26 27 72 76 76 83 87 87 75 79 79 22 26 27 73 77 77 73 77 77 77 81 81 90 94 94 22 26 27 85 89 89 86 90 90 92 96 96 81 85 85
24 65 105 35 80 125 35 80 124 24 64 105 38 84 130 27 68 110 30 72 115 26 68 109 31 74 118 29 72 115 25 65 106 40 84 130 32 75 119 34 78 123 49 83 128 38 84 130
26 67 108 26 26 24 26 26 24 26 26 24 26 26 24 205 181 48 211 181 48 208 180 48 215 178 48 213 181 48 206 184 48 205 181 48 210 184 48 216 185 48 16 18 18 16 18 18
16 18 18 211 177 48 206 182 48 210 176 48 213 181 48 208 180 48 216 181 48 209 180 48 205 176 48 208 179 48 16 18 18 16 18 18 16 18 18 216 184 48 208 183 48 213 184 48
214 185 48 205 177 48 216 178 48 211 176 48 16 18 18 16 18 18 16 18 18 213 178 48 214 180 48 207 179 48 212 182 48 209 177 48 210 178 48 208 184 48 16 18 18 16 18 18
16 18 18 205 181 48 209 181 48 214 176 48 206 185 48 209 183 48 212 181 48 213 182 48 205 179 48 216 178 48 210 184 48 209 181 48 207 177 48 205 178 48 215 177 48 213 180 48
212 177 48 207 183 48 205 176 48 206 183 48 215 185 48 214 183 48 206 176 48 210 179 48 215 183 48 214 183 48 26 26 24 26 26 24 26 26 24 26 26 24 27 69 111 34 79 123
86 79 118 26 67 108 28 70 112 25 67 108 37 83 128 73 80 121 23 64 104 64 81 124 32 75 119 22 62 102 27 69 111 28 70 112 35 80 124 22 26 27 22 26 27 22 26 27
22 26 27 22 26 27 22 26 27 22 26 27 22 26 27 22 26 27 87 89 84 98 100 92 100 101 94 91 94 87 96 98 91 100 101 94 109 110 101 109 110 101 110 111 102 107 108 99
106 107 99 102 103 95 97 99 92 109 110 101 22 26 27 22 26 27 22 26 27 94 96 89 85 87 82 100 102 94 107 108 100 104 106 97 22 26 27 22 26 27 22 26 27 22 26 27
103 105 97 98 100 93 101 102 95 87 89 83 109 110 101 82 84 79 104 106 97 86 88 82 89 91 85 104 105 97 92 94 88 81 84 79 80 83 78 87 90 84 102 104 96 83 85 80
101 103 95 97 99 92 110 111 102 95 97 90 101 103 95 83 86 80 81 84 79 90 92 86 99 100 93 109 110 101 107 108 99 82 85 80 81 84 79 99 101 94 96 98 91 93 96 89
101 103 95 90 92 86 85 87 82 92 94 88 85 88 82 104 106 98 106 107 99 91 93 87 104 106 97 84 87 81 86 89 83 82 85 80 87 89 83 101 103 95 92 95 88 22 26 27
22 26 27 22 26 27 22 26 27 22 26 27 22 26 27 22 26 27 22 26 27 22 26 27 22 26 27 22 26 27 22 26 27 22 26 27 22 26 27 22 26 27 22 26 27 22 26 27
22 26 27 22 26 27 22 26 27 22 26 27 22 26 27 22 26 27 22 26 27 22 26 27 22 26 27 22 26 27 22 26 27 22 26 27 22 26 27 22 26 27 22 26 27 22 26 27
22 26 27 22 26 27 22 26 27 22 26 27 22 26 27 22 26 27 22 26 27 22 26 27 22 26 27 22 26 27 22 26 27 22 26 27 22 26 27 22 26 27 22 26 27 22 26 27
22 26 27 22 26 27 22 26 27 84 88 88 91 95 95 92 96 96 22 26 27 93 97 97 86 90 90 89 93 93 88 92 92 22 26 27 74 78 78 87 91 91 77 81 81 77 81 81
26 66 106 35 79 123 95 80 119 39 85 131 33 76 120 113 78 114 37 82 127 73 83 125 32 75 118 103 79 117 38 84 129 36 81 126 30 72 114 30 72 114 30 72 114 31 73 116
29 70 112 26 26 24 26 26 24 26 26 24 26 26 24 211 181 48 212 176 48 215 180 48 215 181 48 214 185 48 208 180 48 209 181 48 210 183 48 211 178 48 16 18 18 16 18 18
16 18 18 214 183 48 215 176 48 207 185 48 206 178 48 208 182 48 210 179 48 216 185 48 212 176 48 214 185 48 16 18 18 16 18 18 16 18 18 216 180 48 211 180 48 210 185 48
207 177 48 213 176 48 215 181 48 212 181 48 16 18 18 16 18 18 16 18 18 205 181 48 207 178 48 207 177 48 211 184 48 206 185 48 209 183 48 214 177 48 16 18 18 16 18 18
16 18 18 213 180 48 207 184 48 210 179 48 214 183 48 214 180 48 206 177 48 208 177 48 205 177 48 206 185 48 207 180 48 205 179 48 213 179 48 210 177 48 205 183 48 215 176 48
213 184 48 205 180 48 215 184 48 206 176 48 207 180 48 210 176 48 207 177 48 205 182 48 213 180 48 209 177 48 26 26 24 26 26 24 26 26 24 26 26 24 69 84 126 29 71 113
25 66 106 37 82 127 28 70 111 44 87 133 82 82 122 36 81 126 37 82 127 37 81 126 26 66 107 31 73 115 105 79 116 32 75 118 36 81 125 22 26 27 22 26 27 22 26 27
22 26 27 22 26 27 22 26 27 22 26 27 22 26 27 22 26 27 87 90 84 84 87 81 107 109 100 105 106 98 106 108 99 106 107 99 89 92 85 105 106 98 81 84 79 108 109 101
94 96 89 90 92 86 96 98 91 99 101 94 22 26 27 22 26 27 22 26 27 91 93 86 94 96 90 95 97 90 82 84 79 96 97 90 22 26 27 22 26 27 22 26 27 22 26 27
89 91 85 82 85 80 101 102 95 82 85 79 96 98 91 107 108 99 107 108 100 109 110 101 102 103 96 107 109 100 87 89 83 110 111 102 105 107 98 97 99 91 93 95 88 108 109 101
84 86 81 100 102 94 108 109 100 103 105 97 102 103 95 93 95 88 102 104 96 105 106 98 91 93 87 93 95 88 97 99 92 109 110 101 87 89 83 100 102 94 84 87 81 101 102 95
92 94 88 102 103 95 85 88 82 91 94 87 80 83 78 82 85 80 87 89 83 104 105 97 91 93 87 108 109 100 88 90 84 96 98 91 100 102 94 99 100 93 98 100 93 22 26 27
22 26 27 22 26 27 22 26 27 22 26 27 22 26 27 22 26 27 22 26 27 22 26 27 22 26 27 22 26 27 22 26 27 22 26 27 22 26 27 22 26 27 22 26 27 22 26 27
22 26 27 22 26 27 22 26 27 22 26 27 22 26 27 22 26 27 22 26 27 22 26 27 22 26 27 22 26 27 22 26 27 22 26 27 22 26 27 22 26 27 22 26 27 22 26 27
22 26 27 22 26 27 22 26 27 22 26 27 22 26 27 22 26 27 22 26 27 22 26 27 22 26 27 22 26 27 22 26 27 22 26 27 22 26 27 22 26 27 22 26 27 22 26 27
22 26 27 22 26 27 22 26 27 86 90 90 81 85 85 73 77 77 22 26 27 89 93 93 86 90 90 86 90 90 80 84 84 22 26 27 73 77 77 86 90 90 78 82 82 79 83 83
40 86 132 95 82 121 30 71 113 36 80 124 41 88 134 40 85 131 38 83 128 33 75 118 79 84 126 32 75 117 82 84 125 38 83 129 41 87 133 39 84 130 39 84 129 33 76 119
89 83 123 26 26 24 26 26 24 26 26 24 26 26 24 213 184 48 213 180 48 209 179 48 214 177 48 213 178 48 214 180 48 214 176 48 207 180 48 211 179 48 16 18 18 16 18 18
16 18 18 205 177 48 210 182 48 215 179 48 215 179 48 211 178 48 207 177 48 213 183 48 216 183 48 214 180 48 16 18 18 16 18 18 16 18 18 209 177 48 206 185 48 208 184 48
215 179 48 213 176 48 211 176 48 210 181 48 16 18 18 16 18 18 16 18 18 214 180 48 211 178 48 215 180 48 213 177 48 212 179 48 207 180 48 212 183 48 16 18 18 16 18 18
16 18 18 216 185 48 216 179 48 209 177 48 214 183 48 210 182 48 209 182 48 215 182 48 206 180 48 206 182 48 206 184 48 206 182 48 208 183 48 205 181 48 208 176 48 210 183 48
213 181 48 206 185 48 215 180 48 215 182 48 212 177 48 205 181 48 211 183 48 212 185 48 213 184 48 210 181 48 26 26 24 26 26 24 26 26 24 26 26 24 27 68 109 41 87 133
103 81 119 41 87 133 42 89 135 41 88 134 30 72 114 39 84 129 36 79 123 28 69 110 95 82 121 40 86 132 117 80 115 35 79 122 30 72 114 22 26 27 22 26 27 22 26 27
22 26 27 22 26 27 22 26 27 22 26 27 22 26 27 22 26 27 100 101 94 97 99 92 95 97 90 100 102 94 92 95 88 95 97 90 101 102 95 103 105 97 108 109 100 89 92 85
100 102 94 109 110 101 83 85 80 85 88 82 22 26 27 22 26 27 22 26 27 87 90 84 88 91 85 80 83 78 93 95 88 83 86 80 22 26 27 22 26 27 22 26 27 22 26 27
97 99 92 84 86 81 89 92 85 99 100 93 97 99 92 83 86 80 106 107 99 82 85 80 102 103 95 90 92 86 84 87 81 110 111 102 100 102 94 110 111 102 83 86 81 98 99 92
108 109 100 86 89 83 85 87 82 107 108 100 82 85 80 99 101 93 97 99 91 106 108 99 82 85 80 95 97 90 99 100 93 106 107 99 109 110 101 95 97 90 94 96 89 102 104 96
83 86 81 81 84 79 105 106 98 109 110 101 96 98 91 103 104 96 97 99 92 82 85 79 88 90 84 90 93 86 103 105 97 84 86 81 92 95 88 96 97 90 107 108 99 22 26 27
22 26 27 22 26 27 22 26 27 22 26 27 22 26 27 22 26 27 22 26 27 22 26 27 22 26 27 22 26 27 22 26 27 22 26 27 22 26 27 22 26 27 22 26 27 22 26 27
22 26 27 22 26 27 22 26 27 22 26 27 22 26 27 22 26 27 22 26 27 22 26 27 22 26 27 22 26 27 22 26 27 22 26 27 22 26 27 22 26 27 22 26 27 22 26 27
22 26 27 22 26 27 22 26 27 22 26 27 22 26 27 22 26 27 22 26 27 22 26 27 22 26 27 22 26 27 22 26 27 22 26 27 22 26 27 22 26 27 22 26 27 22 26 27
22 26 27 22 26 27 22 26 27 87 91 91 86 90 90 75 79 79 22 26 27 80 84 84 72 76 76 70 74 74 76 80 80 22 26 27 75 79 79 89 93 93 83 87 87 85 89 89
31 72 114 30 70 111 28 68 109 88 86 127 29 69 109 31 72 113 37 80 124 31 72 113 33 76 118 35 79 122 107 84 121 34 77 120 29 69 109 41 86 131 30 71 113 30 71 112
44 90 137 26 26 24 26 26 24 26 26 24 26 26 24 212 179 48 206 179 48 209 181 48 211 181 48 216 185 48 213 184 48 212 182 48 212 176 48 216 179 48 16 18 18 16 18 18
16 18 18 211 178 48 209 178 48 214 183 48 213 183 48 213 181 48 216 177 48 207 178 48 213 182 48 216 185 48 16 18 18 16 18 18 16 18 18 215 176 48 213 177 48 212 176 48
215 183 48 214 181 48 213 178 48 209 180 48 16 18 18 16 18 18 16 18 18 207 179 48 209 176 48 207 182 48 208 183 48 207 183 48 216 180 48 212 182 48 16 18 18 16 18 18
16 18 18 210 176 48 212 184 48 213 183 48 216 182 48 215 179 48 210 184 48 215 180 48 215 178 48 216 178 48 209 180 48 215 176 48 211 185 48 216 179 48 209 180 48 209 176 48
214 184 48 207 185 48 206 184 48 212 185 48 211 185 48 209 179 48 210 179 48 215 180 48 215 182 48 206 183 48 26 26 24 26 26 24 26 26 24 26 26 24 39 83 128 30 71 112
41 86 131 29 69 109 35 78 121 33 75 117 39 84 129 114 83 120 29 69 110 47 91 138 29 69 109 43 90 136 29 70 110 57 90 135 42 88 134 22 26 27 22 26 27 22 26 27
22 26 27 22 26 27 22 26 27 22 26 27 22 26 27 22 26 27 87 90 84 84 87 81 97 99 92 99 101 93 96 98 91 95 97 90 92 94 87 109 110 101 85 88 82 105 106 98
94 96 89 81 84 79 104 105 97 80 83 78 22 26 27 22 26 27 22 26 27 100 102 94 90 92 86 81 84 79 90 92 86 91 94 87 22 26 27 22 26 27 22 26 27 22 26 27
87 89 83 85 87 82 101 102 95 109 110 101 105 106 98 109 110 101 88 90 84 97 99 91 104 105 97 102 103 95 88 91 85 98 99 92 88 90 84 94 96 89 96 97 90 81 84 79
92 94 88 103 104 96 101 103 95 87 89 83 88 90 84 86 89 83 100 102 94 104 106 97 86 88 82 94 96 89 105 107 98 80 83 78 101 102 95 104 105 97 103 105 97 83 86 80
85 88 82 85 88 82 107 109 100 85 87 82 108 109 100 99 101 94 94 96 89 90 93 86 82 85 80 98 100 92 101 102 95 81 84 79 103 105 96 94 96 89 99 101 93 22 26 27
22 26 27 22 26 27 22 26 27 22 26 27 22 26 27 22 26 27 22 26 27 22 26 27 22 26 27 22 26 27 22 26 27 22 26 27 22 26 27 22 26 27 22 26 27 22 26 27
22 26 27 22 26 27 22 26 27 22 26 27 22 26 27 22 26 27 22 26 27 22 26 27 22 26 27 22 26 27 22 26 27 22 26 27 22 26 27 22 26 27 22 26 27 22 26 27
22 26 27 22 26 27 22 26 27 22 26 27 22 26 27 22 26 27 22 26 27 22 26 27 22 26 27 22 26 27 22 26 27 22 26 27 22 26 27 22 26 27 22 26 27 22 26 27
22 26 27 22 26 27 22 26 27 75 79 79 71 75 75 79 83 83 22 26 27 88 92 92 74 78 78 72 76 76 77 81 81 22 26 27 70 74 74 79 83 83 78 82 82 92 96 96
42 87 132 35 77 119 37 80 123 119 86 123 47 94 141 38 80 124 38 81 124 66 93 138 44 90 136 43 88 134 95 89 130 34 75 117 47 93 140 75 92 135 46 92 138 39 82 126
39 82 126 26 26 24 26 26 24 26 26 24 26 26 24 209 179 48 213 180 48 215 182 48 206 177 48 205 179 48 211 177 48 214 184 48 208 183 48 207 177 48 16 18 18 16 18 18
16 18 18 206 176 48 205 181 48 213 177 48 209 185 48 206 177 48 208 182 48 213 182 48 211 181 48 208 185 48 16 18 18 16 18 18 16 18 18 216 184 48 205 184 48 215 180 48
215 184 48 211 185 48 208 176 48 208 180 48 16 18 18 16 18 18 16 18 18 214 176 48 213 179 48 214 180 48 211 184 48 206 176 48 207 179 48 210 185 48 16 18 18 16 18 18
16 18 18 206 179 48 208 182 48 209 180 48 213 185 48 205 177 48 208 177 48 209 177 48 215 180 48 206 180 48 205 183 48 206 184 48 213 184 48 216 176 48 211 185 48 216 185 48
215 180 48 214 177 48 215 178 48 205 178 48 205 185 48 209 176 48 207 177 48 210 179 48 210 184 48 212 179 48 26 26 24 26 26 24 26 26 24 26 26 24 32 72 114 46 92 138
55 94 141 40 83 128 48 95 142 40 84 129 38 81 125 110 87 126 74 92 136 104 88 128 47 93 140 46 93 140 34 75 117 38 80 124 46 93 139 22 26 27 22 26 27 22 26 27
22 26 27 22 26 27 22 26 27 22 26 27 22 26 27 22 26 27 107 108 100 108 109 100 95 97 90 96 98 91 83 86 81 80 83 78 83 86 80 92 94 88 98 100 92 104 105 97
83 85 80 89 91 85 83 86 80 83 85 80 22 26 27 22 26 27 22 26 27 91 94 87 81 84 79 106 108 99 88 91 85 100 102 94 22 26 27 22 26 27 22 26 27 22 26 27
102 103 95 84 87 81 83 85 80 103 105 96 97 99 92 87 89 83 110 111 102 92 94 87 101 103 95 89 91 85 89 91 85 82 85 80 82 85 80 101 103 95 100 102 94 93 95 89
99 101 94 88 90 84 94 96 89 92 94 88 99 101 94 107 109 100 104 105 97 83 86 80 106 107 98 104 105 97 84 87 81 104 106 97 96 98 91 109 110 101 87 90 84 101 103 95
109 110 101 91 93 87 87 90 84 88 91 84 92 94 87 86 89 83 81 84 79 81 84 79 93 95 88 82 85 80 92 94 88 97 99 92 93 95 88 81 84 79 107 109 100 22 26 27
22 26 27 22 26 27 22 26 27 22 26 27 22 26 27 22 26 27 22 26 27 22 26 27 22 26 27 22 26 27 22 26 27 22 26 27 22 26 27 22 26 27 22 26 27 22 26 27
22 26 27 22 26 27 22 26 27 22 26 27 22 26 27 22 26 27 22 26 27 22 26 27 22 26 27 22 26 27 22 26 27 22 26 27 22 26 27 22 26 27 22 26 27 22 26 27
22 26 27 22 26 27 22 26 27 22 26 27 22 26 27 22 26 27 22 26 27 22 26 27 22 26 27 22 26 27 22 26 27 22 26 27 22 26 27 22 26 27 22 26 27 22 26 27
22 26 27 22 26 27 22 26 27 83 87 87 82 86 86 70 74 74 22 26 27 83 87 87 79 83 83 80 84 84 92 96 96 22 26 27 85 89 89 83 87 87 88 92 92 93 97 97
40 83 126 53 100 148 76 98 143 41 83 127 106 94 135 50 96 143 45 89 135 48 93 139 45 89 134 37 78 120 38 79 121 45 89 133 40 83 126 43 87 131 46 91 137 60 100 147
52 99 146 26 26 24 26 26 24 26 26 24 26 26 24 212 180 48 211 180 48 216 180 48 207 180 48 210 178 48 213 181 48 211 185 48 211 177 48 214 183 48 16 18 18 16 18 18
16 18 18 213 179 48 207 180 48 215 185 48 216 185 48 209 177 48 206 184 48 211 185 48 216 180 48 215 181 48 16 18 18 16 18 18 16 18 18 205 181 48 211 185 48 205 182 48
205 185 48 215 182 48 212 179 48 216 179 48 16 18 18 16 18 18 16 18 18 206 184 48 210 178 48 209 178 48 207 180 48 216 185 48 207 182 48 215 178 48 16 18 18 16 18 18
16 18 18 210 183 48 209 178 48 206 178 48 213 185 48 213 177 48 209 180 48 213 184 48 205 177 48 212 181 48 205 182 48 211 182 48 209 176 48 211 176 48 206 178 48 205 177 48
212 176 48 205 176 48 206 185 48 210 182 48 215 181 48 216 183 48 210 177 48 212 185 48 213 185 48 214 181 48 26 26 24 26 26 24 26 26 24 26 26 24 40 82 125 49 95 141
91 96 139 43 86 130 62 100 146 112 93 133 49 95 142 47 91 137 124 92 130 49 95 142 41 84 128 43 86 130 37 78 120 40 82 125 96 95 137 22 26 27 22 26 27 22 26 27
22 26 27 22 26 27 22 26 27 22 26 27 22 26 27 22 26 27 82 85 79 84 86 81 107 108 100 80 83 78 87 89 83 95 97 90 86 89 83 90 93 86 105 107 98 98 99 92
109 110 101 92 94 88 96 98 91 98 100 92 22 26 27 22 26 27 22 26 27 97 98 91 102 104 96 92 94 88 99 101 93 85 87 82 22 26 27 22 26 27 22 26 27 22 26 27
90 93 86 101 103 95 83 85 80 100 102 94 96 98 91 101 102 95 101 103 95 83 86 81 105 107 98 93 95 88 103 105 96 110 111 102 97 99 91 108 109 101 105 107 98 89 91 85
91 93 87 99 101 93 92 95 88 89 92 85 94 97 90 90 92 86 91 93 86 90 93 86 106 107 99 90 92 86 92 94 87 104 106 97 98 100 92 92 94 88 107 108 99 92 95 88
107 108 99 88 90 84 83 85 80 108 109 101 83 86 81 93 96 89 95 97 90 102 103 95 88 91 84 84 86 81 107 108 99 90 93 86 97 99 92 106 107 99 90 92 86 22 26 27
22 26 27 22 26 27 22 26 27 22 26 27 22 26 27 22 26 27 22 26 27 22 26 27 22 26 27 22 26 27 22 26 27 22 26 27 22 26 27 22 26 27 22 26 27 22 26 27
22 26 27 22 26 27 22 26 27 22 26 27 22 26 27 22 26 27 22 26 27 22 26 27 22 26 27 22 26 27 22 26 27 22 26 27 22 26 27 22 26 27 22 26 27 22 26 27
22 26 27 22 26 27 22 26 27 22 26 27 22 26 27 22 26 27 22 26 27 22 26 27 22 26 27 22 26 27 22 26 27 22 26 27 22 26 27 22 26 27 22 26 27 22 26 27
22 26 27 22 26 27 22 26 27 69 73 73 82 86 86 84 88 88 22 26 27 70 74 74 73 77 77 77 81 81 69 73 73 22 26 27 85 89 89 88 92 92 91 95 95 87 91 91
52 96 142 43 84 127 53 99 145 44 86 129 126 99 138 43 84 127 44 85 128 48 91 136 109 101 143 46 88 132 61 107 156 46 88 132 47 90 134 50 95 140 59 107 156 47 90 134
58 106 154 26 26 24 26 26 24 26 26 24 26 26 24 206 185 48 216 184 48 215 185 48 214 184 48 215 184 48 212 180 48 211 180 48 209 181 48 213 181 48 16 18 18 16 18 18
16 18 18 207 180 48 215 180 48 207 180 48 215 178 48 216 178 48 211 177 48 216 182 48 207 177 48 215 176 48 16 18 18 16 18 18 16 18 18 211 178 48 207 178 48 215 183 48
207 183 48 213 177 48 205 182 48 205 184 48 16 18 18 16 18 18 16 18 18 210 182 48 206 180 48 214 182 48 216 183 48 205 183 48 208 176 48 206 176 48 16 18 18 16 18 18
16 18 18 214 181 48 209 178 48 206 179 48 211 182 48 210 183 48 213 184 48 207 177 48 207 177 48 214 177 48 207 179 48 214 178 48 209 181 48 213 176 48 215 177 48 206 183 48
213 176 48 208 184 48 212 183 48 214 183 48 213 176 48 205 176 48 210 176 48 208 184 48 209 182 48 209 177 48 26 26 24 26 26 24 26 26 24 26 26 24 53 99 146 44 85 128
59 107 156 44 86 129 55 102 149 54 99 146 50 95 140 54 99 146 58 105 154 52 98 144 51 96 142 55 100 148 49 93 138 57 104 153 50 94 140 22 26 27 22 26 27 22 26 27
22 26 27 22 26 27 22 26 27 22 26 27 22 26 27 22 26 27 106 108 99 89 91 85 106 108 99 93 95 88 98 100 93 102 104 96 96 98 91 101 103 95 99 101 93 108 109 100
95 97 90 104 106 97 90 92 86 94 96 89 22 26 27 22 26 27 22 26 27 86 89 83 83 86 80 89 92 85 103 104 96 94 96 89 22 26 27 22 26 27 22 26 27 22 26 27
93 95 88 105 106 98 88 91 85 104 106 98 97 98 91 101 102 95 85 87 82 84 86 81 109 110 101 97 99 91 98 99 92 107 109 100 92 94 87 98 100 92 83 86 80 93 95 89
105 106 98 92 94 88 92 94 87 109 110 101 103 104 96 103 104 96 82 85 80 84 87 81 109 111 102 102 104 96 90 93 86 94 96 89 93 96 89 94 96 89 83 85 80 86 89 83
82 85 79 85 87 82 87 90 84 87 89 83 80 83 78 82 85 80 105 106 98 91 93 87 96 97 90 84 87 81 94 96 89 87 90 84 94 96 89 107 108 100 83 86 81 22 26 27
22 26 27 22 26 27 22 26 27 22 26 27 22 26 27 22 26 27 22 26 27 22 26 27 22 26 27 22 26 27 22 26 27 22 26 27 22 26 27 22 26 27 22 26 27 22 26 27
22 26 27 22 26 27 22 26 27 22 26 27 22 26 27 22 26 27 22 26 27 22 26 27 22 26 27 22 26 27 22 26 27 22 26 27 22 26 27 22 26 27 22 26 27 22 26 27
22 26 27 22 26 27 22 26 27 22 26 27 22 26 27 22 26 27 22 26 27 22 26 27 22 26 27 22 26 27 22 26 27 22 26 27 22 26 27 22 26 27 22 26 27 22 26 27
22 26 27 22 26 27 22 26 27 81 85 85 90 94 94 73 77 77 22 26 27 73 77 77 75 79 79 86 90 90 74 78 78 22 26 27 80 84 84 92 96 96 92 96 96 79 83 83
54 98 143 56 100 146 51 94 138 100 109 153 63 110 159 96 109 155 61 108 156 51 94 138 60 106 153 131 105 145 140 104 143 64 112 161 52 96 140 59 104 152 57 103 150 63 111 160
60 107 155 26 26 24 26 26 24 26 26 24 26 26 24 211 176 48 214 177 48 211 176 48 216 176 48 210 177 48 210 178 48 214 176 48 208 183 48 210 178 48 16 18 18 16 18 18
16 18 18 211 176 48 205 180 48 205 177 48 205 177 48 211 184 48 205 179 48 210 179 48 213 177 48 205 183 48 16 18 18 16 18 18 16 18 18 210 179 48 208 184 48 212 183 48
206 178 48 211 178 48 215 178 48 209 181 48 16 18 18 16 18 18 16 18 18 212 180 48 216 179 48 214 180 48 213 183 48 213 178 48 212 180 48 212 178 48 16 18 18 16 18 18
16 18 18 214 180 48 216 181 48 206 179 48 211 178 48 207 184 48 214 180 48 207 184 48 209 180 48 213 179 48 216 176 48 216 183 48 215 182 48 209 182 48 205 179 48 216 178 48
215 178 48 206 181 48 206 176 48 216 177 48 211 176 48 206 180 48 212 182 48 216 184 48 215 180 48 211 182 48 26 26 24 26 26 24 26 26 24 26 26 24 51 94 139 65 113 163
50 92 136 111 107 150 57 102 148 63 110 159 136 104 144 51 94 139 93 110 155 119 106 148 51 93 138 49 91 134 61 108 156 59 104 152 59 105 153 22 26 27 22 26 27 22 26 27
22 26 27 22 26 27 22 26 27 22 26 27 22 26 27 22 26 27 109 110 101 83 86 81 85 88 82 81 84 79 89 91 85 109 110 102 87 89 83 102 103 95 92 94 87 84 86 81
108 109 100 83 86 80 102 103 96 108 109 100 22 26 27 22 26 27 22 26 27 106 108 99 95 97 90 100 102 94 108 109 101 92 94 87 22 26 27 22 26 27 22 26 27 22 26 27
91 93 87 88 90 84 85 87 82 98 99 92 104 106 97 100 101 94 96 98 90 108 110 101 93 95 88 87 89 83 101 103 95 85 88 82 86 88 82 81 84 79 80 83 78 97 99 92
110 111 102 43 48 51 62 67 70 54 59 62 47 52 55 48 53 56 44 49 52 46 51 54 62 67 70 52 57 60 61 66 69 61 66 69 49 54 57 47 52 55 52 57 60 48 53 56
54 59 62 56 61 64 61 66 69 64 69 72 52 57 60 46 51 54 57 62 65 46 51 54 41 46 49 51 56 59 53 58 61 53 58 61 58 63 66 46 51 54 59 64 67 57 62 65
60 65 68 43 48 51 49 54 57 51 56 59 46 51 54 44 49 52 50 55 58 63 68 71 41 46 49 56 61 64 58 63 66 55 60 63 63 68 71 57 62 65 42 47 50 63 68 71
50 55 58 46 51 54 60 65 68 44 49 52 52 57 60 43 48 51 50 55 58 43 48 51 44 49 52 45 50 53 43 48 51 56 61 64 50 55 58 46 51 54 54 59 62 52 57 60
57 62 65 42 47 50 60 65 68 62 67 70 49 54 57 53 58 61 54 59 62 49 54 57 54 59 62 61 66 69 42 47 50 63 68 71 44 49 52 44 49 52 41 46 49 45 50 53
22 26 27 22 26 27 22 26 27 72 76 76 75 79 79 88 92 92 22 26 27 77 81 81 72 76 76 86 90 90 87 91 91 22 26 27 86 90 90 74 78 78 74 78 78 92 96 96
64 111 159 54 96 140 63 110 158 67 115 165 118 111 154 69 117 168 60 105 152 57 100 146 62 108 156 63 109 158 57 101 147 66 114 163 118 111 154 65 111 160 55 98 143 59 104 150
64 111 159 26 26 24 26 26 24 26 26 24 26 26 24 209 183 48 212 179 48 210 185 48 216 184 48 207 177 48 215 177 48 210 176 48 212 178 48 210 179 48 16 18 18 16 18 18
16 18 18 214 178 48 216 182 48 212 182 48 208 180 48 211 181 48 208 177 48 214 183 48 211 179 48 212 180 48 16 18 18 16 18 18 16 18 18 205 179 48 213 178 48 215 179 48
208 179 48 206 178 48 211 177 48 216 183 48 16 18 18 16 18 18 16 18 18 216 178 48 207 184 48 210 183 48 214 178 48 207 177 48 213 182 48 209 181 48 16 18 18 16 18 18
16 18 18 213 184 48 206 179 48 212 183 48 210 176 48 207 176 48 210 184 48 208 179 48 207 176 48 205 183 48 210 184 48 213 176 48 216 181 48 215 184 48 208 181 48 213 177 48
213 184 48 207 180 48 216 177 48 213 184 48 207 180 48 213 181 48 211 177 48 206 177 48 207 183 48 208 182 48 26 26 24 26 26 24 26 26 24 26 26 24 58 102 148 60 106 153
54 96 141 65 113 162 68 116 166 60 105 152 60 105 152 67 115 165 57 102 148 52 94 138 53 96 140 55 98 143 107 112 157 59 103 150 66 113 163 22 26 27 22 26 27 22 26 27
22 26 27 22 26 27 22 26 27 22 26 27 22 26 27 22 26 27 103 104 96 94 96 89 81 84 79 82 85 80 84 87 81 96 98 90 94 96 89 82 85 80 107 108 100 102 103 95
108 109 100 85 87 82 108 109 100 96 98 91 22 26 27 22 26 27 22 26 27 110 111 102 108 109 100 82 85 79 87 90 84 83 86 80 22 26 27 22 26 27 22 26 27 22 26 27
86 88 83 81 83 78 107 108 99 106 107 99 85 87 82 102 103 95 104 106 97 104 105 97 97 99 92 104 105 97 95 97 90 100 102 94 108 109 100 106 108 99 99 100 93 84 87 81
81 84 79 55 60 63 50 55 58 55 60 63 62 67 70 53 58 61 46 51 54 47 52 55 49 54 57 49 54 57 47 52 55 53 58 61 49 54 57 61 66 69 45 50 53 62 67 70
48 53 56 42 47 50 56 61 64 58 63 66 46 51 54 47 52 55 42 47 50 47 52 55 53 58 61 55 60 63 57 62 65 45 50 53 50 55 58 48 53 56 45 50 53 63 68 71
62 67 70 45 50 53 57 62 65 51 56 59 59 64 67 54 59 62 64 69 72 44 49 52 50 55 58 52 57 60 63 68 71 47 52 55 45 50 53 56 61 64 49 54 57 53 58 61
52 57 60 58 63 66 42 47 50 48 53 56 52 57 60 58 63 66 42 47 50 52 57 60 51 56 59 61 66 69 46 51 54 55 60 63 61 66 69 45 50 53 54 59 62 41 46 49
49 54 57 61 66 69 50 55 58 53 58 61 56 61 64 44 49 52 59 64 67 45 50 53 51 56 59 46 51 54 53 58 61 53 58 61 52 57 60 41 46 49 64 69 72 50 55 58
22 26 27 22 26 27 22 26 27 79 83 83 92 96 96 84 88 88 22 26 27 77 81 81 91 95 95 83 87 87 91 95 95 22 26 27 86 90 90 80 84 84 92 96 96 83 87 87
101 114 160 67 114 164 53 95 139 67 114 164 126 111 153 114 112 156 64 111 159 59 104 151 59 103 149 63 109 157 69 117 168 64 110 159 57 101 146 69 117 167 55 98 143 60 105 152
59 104 150 26 26 24 26 26 24 26 26 24 26 26 24 214 177 48 207 180 48 206 177 48 207 179 48 207 184 48 209 178 48 211 178 48 216 184 48 211 176 48 16 18 18 16 18 18
16 18 18 206 184 48 205 183 48 205 184 48 216 183 48 215 177 48 206 185 48 209 184 48 216 177 48 211 180 48 16 18 18 16 18 18 16 18 18 210 179 48 208 184 48 213 177 48
206 184 48 209 183 48 212 184 48 209 181 48 16 18 18 16 18 18 16 18 18 211 178 48 214 177 48 211 179 48 206 179 48 208 179 48 212 178 48 210 181 48 16 18 18 16 18 18
16 18 18 206 179 48 215 183 48 211 179 48 208 182 48 205 176 48 213 178 48 205 181 48 205 185 48 205 178 48 210 180 48 211 177 48 209 184 48 209 179 48 209 176 48 212 183 48
205 179 48 214 179 48 213 178 48 216 182 48 205 177 48 213 180 48 205 182 48 207 185 48 207 185 48 205 185 48 26 26 24 26 26 24 26 26 24 26 26 24 60 105 151 53 95 139
84 116 164 63 109 157 55 98 143 66 113 162 57 100 146 56 99 144 67 115 165 107 113 158 55 98 143 62 108 155 146 108 147 64 111 160 69 118 168 22 26 27 22 26 27 22 26 27
22 26 27 22 26 27 22 26 27 22 26 27 22 26 27 22 26 27 93 95 89 82 85 80 92 94 87 82 85 79 95 97 90 88 91 85 81 84 79 86 89 83 101 103 95 99 101 94
100 102 94 86 89 83 89 92 86 97 99 92 22 26 27 22 26 27 22 26 27 82 84 79 93 95 89 102 104 96 93 95 89 101 103 95 22 26 27 22 26 27 22 26 27 22 26 27
92 94 87 87 90 84 90 92 86 93 95 88 86 89 83 99 101 93 105 106 98 93 95 89 86 88 83 81 84 79 89 91 85 93 95 88 97 99 92 81 84 79 81 84 79 100 101 94
101 103 95 62 67 70 49 54 57 46 51 54 50 55 58 62 67 70 45 50 53 59 64 67 59 64 67 57 62 65 43 48 51 50 55 58 53 58 61 43 48 51 59 64 67 58 63 66
47 52 55 44 49 52 51 56 59 58 63 66 63 68 71 52 57 60 58 63 66 44 49 52 53 58 61 58 63 66 50 55 58 44 49 52 63 68 71 57 62 65 57 62 65 59 64 67
44 49 52 49 54 57 45 50 53 63 68 71 49 54 57 48 53 56 62 67 70 40 45 48 52 57 60 53 58 61 62 67 70 41 46 49 55 60 63 42 47 50 41 46 49 55 60 63
47 52 55 42 47 50 41 46 49 44 49 52 58 63 66 57 62 65 57 62 65 47 52 55 49 54 57 46 51 54 57 62 65 54 59 62 56 61 64 50 55 58 50 55 58 48 53 56
55 60 63 40 45 48 52 57 60 47 52 55 54 59 62 45 50 53 56 61 64 43 48 51 53 58 61 60 65 68 44 49 52 49 54 57 62 67 70 55 60 63 44 49 52 42 47 50
22 26 27 22 26 27 22 26 27 89 93 93 74 78 78 70 74 74 22 26 27 76 80 80 85 89 89 92 96 96 75 79 79 22 26 27 74 78 78 87 91 91 82 86 86 72 76 76
60 105 153 51 93 136 54 98 143 53 95 140 58 103 150 56 100 146 55 99 145 53 96 141 60 106 153 59 104 151 51 93 137 78 114 162 126 107 149 58 103 149 61 107 155 63 110 158
61 107 155 26 26 24 26 26 24 26 26 24 26 26 24 214 183 48 210 179 48 214 177 48 210 179 48 212 176 48 215 180 48 208 182 48 205 180 48 216 183 48 16 18 18 16 18 18
16 18 18 209 176 48 211 177 48 214 182 48 214 180 48 210 183 48 212 177 48 206 180 48 208 184 48 213 179 48 16 18 18 16 18 18 16 18 18 207 183 48 207 181 48 205 184 48
215 177 48 208 180 48 210 179 48 212 179 48 16 18 18 16 18 18 16 18 18 210 184 48 214 182 48 207 176 48 213 184 48 216 183 48 207 185 48 205 176 48 16 18 18 16 18 18
16 18 18 216 177 48 208 184 48 206 182 48 206 182 48 213 182 48 215 177 48 209 185 48 212 183 48 216 180 48 208 176 48 215 180 48 205 185 48 207 177 48 213 182 48 211 183 48
208 177 48 212 182 48 207 180 48 212 176 48 216 179 48 213 178 48 208 183 48 216 176 48 208 176 48 208 184 48 26 26 24 26 26 24 26 26 24 26 26 24 64 111 160 57 102 149
51 93 137 61 108 156 142 105 145 116 109 152 62 109 158 63 110 159 62 108 156 65 113 163 54 97 142 59 104 151 58 103 149 60 105 153 57 101 147 22 26 27 22 26 27 22 26 27
22 26 27 22 26 27 22 26 27 22 26 27 22 26 27 22 26 27 106 108 99 95 97 90 92 94 87 89 92 86 89 92 85 107 108 99 109 110 101 88 91 85 99 101 93 91 94 87
85 87 82 95 97 90 102 104 96 95 97 90 22 26 27 22 26 27 22 26 27 93 95 88 88 91 85 82 85 80 99 101 93 110 111 102 22 26 27 22 26 27 22 26 27 22 26 27
92 94 88 92 94 87 105 107 98 101 103 95 89 91 85 97 99 91 110 111 102 102 104 96 87 89 83 103 104 96 98 100 92 98 100 93 106 108 99 105 106 98 103 104 96 104 106 98
109 111 102 54 59 62 46 51 54 56 61 64 49 54 57 51 56 59 42 47 50 48 53 56 62 67 70 57 62 65 41 46 49 41 46 49 53 58 61 41 46 49 44 49 52 53 58 61
45 50 53 51 56 59 55 60 63 51 56 59 45 50 53 59 64 67 47 52 55 61 66 69 52 57 60 53 58 61 48 53 56 60 65 68 45 50 53 57 62 65 62 67 70 60 65 68
57 62 65 56 61 64 56 61 64 61 66 69 50 55 58 47 52 55 54 59 62 59 64 67 47 52 55 57 62 65 43 48 51 41 46 49 43 48 51 52 57 60 57 62 65 42 47 50
57 62 65 51 56 59 48 53 56 46 51 54 48 53 56 45 50 53 54 59 62 46 51 54 43 48 51 47 52 55 45 50 53 57 62 65 64 69 72 51 56 59 59 64 67 56 61 64
55 60 63 57 62 65 45 50 53 40 45 48 52 57 60 60 65 68 46 51 54 54 59 62 57 62 65 43 48 51 62 67 70 58 63 66 58 63 66 44 49 52 48 53 56 51 56 59
22 26 27 22 26 27 22 26 27 87 91 91 76 80 80 89 93 93 22 26 27 74 78 78 72 76 76 86 90 90 71 75 75 22 26 27 77 81 81 70 74 74 73 77 77 80 84 84
57 103 151 117 103 144 60 107 156 58 105 153 60 107 156 59 106 154 51 95 141 54 99 145 51 95 140 50 94 139 114 103 145 50 93 138 56 102 149 54 99 146 50 93 137 52 95 141
50 93 137 26 26 24 26 26 24 26 26 24 26 26 24 211 180 48 215 183 48 216 179 48 208 183 48 215 181 48 208 181 48 206 178 48 208 184 48 211 176 48 16 18 18 16 18 18
16 18 18 209 183 48 214 185 48 205 179 48 211 176 48 215 182 48 209 182 48 213 180 48 206 184 48 207 181 48 16 18 18 16 18 18 16 18 18 208 180 48 209 185 48 205 180 48
210 177 48 216 182 48 205 184 48 216 181 48 16 18 18 16 18 18 16 18 18 205 182 48 213 177 48 216 177 48 211 178 48 214 184 48 209 180 48 209 181 48 16 18 18 16 18 18
16 18 18 209 184 48 216 176 48 211 184 48 212 180 48 210 177 48 215 179 48 210 179 48 215 176 48 215 178 48 215 182 48 206 179 48 214 184 48 206 179 48 211 185 48 216 181 48
208 185 48 205 181 48 212 185 48 213 181 48 210 185 48 213 177 48 209 179 48 205 182 48 216 183 48 206 177 48 26 26 24 26 26 24 26 26 24 26 26 24 51 95 140 58 105 153
48 90 134 49 92 136 131 101 140 55 101 148 55 100 146 53 98 144 59 106 154 53 98 144 52 96 141 58 105 153 59 105 153 52 96 141 55 100 146 22 26 27 22 26 27 22 26 27
22 26 27 22 26 27 22 26 27 22 26 27 22 26 27 22 26 27 94 96 89 94 96 89 107 108 100 80 83 78 107 108 100 89 92 85 108 110 101 94 96 89 94 96 89 85 88 82
93 95 88 109 110 102 107 108 99 100 102 94 22 26 27 22 26 27 22 26 27 87 89 83 109 110 101 89 92 86 97 99 92 88 90 84 22 26 27 22 26 27 22 26 27 22 26 27
102 103 95 105 107 98 109 110 101 92 94 87 87 89 83 95 97 90 89 92 85 97 99 92 105 106 98 102 104 96 91 93 87 98 100 92 81 84 79 84 87 81 86 89 83 104 105 97
107 108 99 61 66 69 49 54 57 51 56 59 51 56 59 55 60 63 42 47 50 55 60 63 44 49 52 56 61 64 42 47 50 57 62 65 54 59 62 57 62 65 64 69 72 41 46 49
61 66 69 42 47 50 60 65 68 43 48 51 47 52 55 60 65 68 50 55 58 50 55 58 49 54 57 50 55 58 50 55 58 62 67 70 40 45 48 42 47 50 42 47 50 60 65 68
48 53 56 56 61 64 47 52 55 55 60 63 58 63 66 50 55 58 49 54 57 52 57 60 64 69 72 53 58 61 61 66 69 42 47 50 49 54 57 50 55 58 41 46 49 56 61 64
43 48 51 54 59 62 60 65 68 49 54 57 64 69 72 48 53 56 62 67 70 62 67 70 62 67 70 42 47 50 41 46 49 55 60 63 55 60 63 58 63 66 51 56 59 44 49 52
50 55 58 62 67 70 53 58 61 58 63 66 55 60 63 42 47 50 49 54 57 50 55 58 63 68 71 55 60 63 56 61 64 57 62 65 43 48 51 49 54 57 51 56 59 50 55 58
22 26 27 22 26 27 22 26 27 78 82 82 91 95 95 84 88 88 22 26 27 92 96 96 75 79 79 81 85 85 81 85 85 22 26 27 81 85 85 71 75 75 91 95 95 91 95 95
52 98 145 41 82 125 42 84 128 52 98 146 54 100 148 105 97 138 53 100 147 50 95 142 54 101 148 87 99 143 52 99 146 54 101 149 44 87 131 132 94 131 45 88 132 110 96 137
47 92 137 26 26 24 26 26 24 26 26 24 26 26 24 208 181 48 213 181 48 207 185 48 216 178 48 207 182 48 215 180 48 206 178 48 205 181 48 208 179 48 16 18 18 16 18 18
16 18 18 215 182 48 214 178 48 215 179 48 206 180 48 216 182 48 213 176 48 206 185 48 209 179 48 209 184 48 16 18 18 16 18 18 16 18 18 212 176 48 211 178 48 214 183 48
211 181 48 210 178 48 207 185 48 213 181 48 16 18 18 16 18 18 16 18 18 216 184 48 212 177 48 209 180 48 208 180 48 210 184 48 206 176 48 214 177 48 16 18 18 16 18 18
16 18 18 208 178 48 208 180 48 214 176 48 214 180 48 210 182 48 210 176 48 209 178 48 213 178 48 209 176 48 214 182 48 210 182 48 212 183 48 207 182 48 209 179 48 216 181 48
212 181 48 213 181 48 207 185 48 214 178 48 210 184 48 209 177 48 206 185 48 215 176 48 215 182 48 215 181 48 26 26 24 26 26 24 26 26 24 26 26 24 134 93 130 52 99 146
45 88 133 86 99 143 42 83 126 55 102 151 42 84 127 50 95 141 60 103 151 44 87 131 54 100 148 42 84 128 44 86 130 47 91 136 54 101 149 22 26 27 22 26 27 22 26 27
22 26 27 22 26 27 22 26 27 22 26 27 22 26 27 22 26 27 80 83 78 88 91 85 90 93 86 91 94 87 96 98 91 90 93 86 103 105 97 99 101 93 107 108 100 94 96 89
98 100 92 84 87 81 94 96 89 91 94 87 22 26 27 22 26 27 22 26 27 101 103 95 99 100 93 97 99 92 82 85 80 95 97 90 22 26 27 22 26 27 22 26 27 22 26 27
22 26 27 22 26 27 22 26 27 22 26 27 22 26 27 22 26 27 22 26 27 22 26 27 22 26 27 22 26 27 22 26 27 22 26 27 22 26 27 22 26 27 22 26 27 22 26 27
22 26 27 47 52 55 50 55 58 62 67 70 42 47 50 64 69 72 47 52 55 44 49 52 55 60 63 45 50 53 51 56 59 54 59 62 51 56 59 42 47 50 41 46 49 45 50 53
57 62 65 62 67 70 61 66 69 55 60 63 46 51 54 59 64 67 59 64 67 49 54 57 54 59 62 58 63 66 57 62 65 61 66 69 49 54 57 47 52 55 49 54 57 61 66 69
59 64 67 42 47 50 48 53 56 62 67 70 55 60 63 51 56 59 41 46 49 54 59 62 48 53 56 60 65 68 40 45 48 59 64 67 48 53 56 53 58 61 53 58 61 59 64 67
54 59 62 63 68 71 53 58 61 53 58 61 54 59 62 61 66 69 44 49 52 63 68 71 63 68 71 48 53 56 60 65 68 48 53 56 63 68 71 59 64 67 58 63 66 49 54 57
46 51 54 49 54 57 61 66 69 61 66 69 61 66 69 48 53 56 62 67 70 52 57 60 55 60 63 44 49 52 41 46 49 61 66 69 44 49 52 42 47 50 41 46 49 59 64 67
22 26 27 22 26 27 22 26 27 76 80 80 78 82 82 81 85 85 22 26 27 70 74 74 70 74 74 75 79 79 75 79 79 22 26 27 92 96 96 81 85 85 73 77 77 78 82 82
43 88 133 47 93 139 34 75 116 35 77 118 41 85 130 50 97 144 45 90 136 37 79 122 38 80 123 44 88 133 117 89 127 43 87 132 35 76 117 50 97 144 35 77 118 63 96 142
49 96 144 26 26 24 26 26 24 26 26 24 26 26 24 210 181 48 210 184 48 213 177 48 212 184 48 211 177 48 212 178 48 214 182 48 207 185 48 211 185 48 16 18 18 16 18 18
16 18 18 209 179 48 213 179 48 209 177 48 209 184 48 216 185 48 206 177 48 210 177 48 211 179 48 213 183 48 16 18 18 16 18 18 16 18 18 211 185 48 215 180 48 215 182 48
215 183 48 213 185 48 207 178 48 213 183 48 16 18 18 16 18 18 16 18 18 212 178 48 213 183 48 214 176 48 208 178 48 213 184 48 214 178 48 213 176 48 16 18 18 16 18 18
16 18 18 205 180 48 208 184 48 212 182 48 212 177 48 205 181 48 213 177 48 208 181 48 206 184 48 211 179 48 216 182 48 207 184 48 214 180 48 205 180 48 214 183 48 216 184 48
214 179 48 207 180 48 215 177 48 209 181 48 214 181 48 209 180 48 205 179 48 211 183 48 216 185 48 216 177 48 26 26 24 26 26 24 26 26 24 26 26 24 46 91 138 126 88 124
44 88 133 39 81 124 38 80 123 46 92 138 58 96 143 42 86 131 46 92 138 43 87 132 35 76 118 39 82 125 50 97 145 37 78 121 123 88 125 22 26 27 22 26 27 22 26 27
22 26 27 22 26 27 22 26 27 22 26 27 22 26 27 22 26 27 86 89 83 99 101 93 95 97 90 85 87 82 92 94 87 103 104 96 89 91 85 89 91 85 104 105 97 92 94 88
99 100 93 102 103 96 86 89 83 86 89 83 22 26 27 22 26 27 22 26 27 90 92 86 83 85 80 91 93 86 91 93 87 100 101 94 22 26 27 22 26 27 22 26 27 22 26 27
22 26 27 22 26 27 22 26 27 22 26 27 22 26 27 22 26 27 22 26 27 22 26 27 22 26 27 22 26 27 22 26 27 22 26 27 22 26 27 22 26 27 22 26 27 22 26 27
22 26 27 48 53 56 43 48 51 47 52 55 49 54 57 44 49 52 53 58 61 46 51 54 60 65 68 59 64 67 64 69 72 42 47 50 58 63 66 44 49 52 58 63 66 64 69 72
56 61 64 55 60 63 61 66 69 62 67 70 50 55 58 46 51 54 55 60 63 59 64 67 49 54 57 52 57 60 45 50 53 64 69 72 40 45 48 62 67 70 55 60 63 58 63 66
48 53 56 55 60 63 57 62 65 60 65 68 41 46 49 51 56 59 45 50 53 41 46 49 48 53 56 43 48 51 49 54 57 45 50 53 48 53 56 51 56 59 58 63 66 56 61 64
48 53 56 61 66 69 58 63 66 48 53 56 53 58 61 40 45 48 63 68 71 58 63 66 53 58 61 53 58 61 63 68 71 63 68 71 51 56 59 43 48 51 57 62 65 61 66 69
59 64 67 57 62 65 51 56 59 60 65 68 60 65 68 55 60 63 55 60 63 54 59 62 56 61 64 41 46 49 58 63 66 46 51 54 46 51 54 53 58 61 49 54 57 43 48 51
22 26 27 22 26 27 22 26 27 78 82 82 90 94 94 88 92 92 22 26 27 80 84 84 72 76 76 71 75 75 70 74 74 22 26 27 88 92 92 82 86 86 92 96 96 78 82 82
43 89 135 99 86 125 44 90 137 46 92 139 30 71 112 42 87 132 36 78 122 44 90 137 35 78 121 42 87 132 33 75 117 41 86 131 37 80 124 45 91 138 40 85 130 37 80 123
36 78 122 26 26 24 26 26 24 26 26 24 26 26 24 209 183 48 208 181 48 210 177 48 208 181 48 210 180 48 206 183 48 214 182 48 209 176 48 208 181 48 16 18 18 16 18 18
16 18 18 209 179 48 209 182 48 216 180 48 208 182 48 216 181 48 212 180 48 208 180 48 215 179 48 208 183 48 16 18 18 16 18 18 16 18 18 212 180 48 207 178 48 205 182 48
209 181 48 205 183 48 216 181 48 207 177 48 16 18 18 16 18 18 16 18 18 208 178 48 214 178 48 211 180 48 208 183 48 207 180 48 209 177 48 212 181 48 16 18 18 16 18 18
16 18 18 210 179 48 212 184 48 216 176 48 214 184 48 208 178 48 210 181 48 210 180 48 211 183 48 215 185 48 206 181 48 212 179 48 205 180 48 207 179 48 205 185 48 210 182 48
216 177 48 212 181 48 209 183 48 211 180 48 208 179 48 215 178 48 215 185 48 205 179 48 206 182 48 209 180 48 26 26 24 26 26 24 26 26 24 26 26 24 31 72 114 40 85 130
42 88 134 37 80 123 30 70 111 116 84 121 44 90 136 108 85 123 45 91 138 43 89 135 42 87 133 39 83 128 36 78 121 51 92 139 34 76 119 22 26 27 22 26 27 22 26 27
22 26 27 22 26 27 22 26 27 22 26 27 22 26 27 22 26 27 89 92 85 81 84 79 102 103 95 107 109 100 89 92 85 93 95 88 86 89 83 105 106 98 109 111 102 96 97 90
99 101 94 88 90 84 108 109 100 108 109 100 22 26 27 22 26 27 22 26 27 103 105 97 101 102 94 81 84 79 86 88 83 92 94 88 22 26 27 22 26 27 22 26 27 22 26 27
22 26 27 22 26 27 22 26 27 22 26 27 22 26 27 22 26 27 22 26 27 22 26 27 22 26 27 22 26 27 22 26 27 22 26 27 22 26 27 22 26 27 22 26 27 22 26 27
22 26 27 54 59 62 58 63 66 61 66 69 64 69 72 43 48 51 43 48 51 52 57 60 48 53 56 62 67 70 41 46 49 53 58 61 62 67 70 46 51 54 63 68 71 56 61 64
61 66 69 44 49 52 49 54 57 43 48 51 44 49 52 51 56 59 48 53 56 55 60 63 57 62 65 56 61 64 47 52 55 62 67 70 47 52 55 52 57 60 56 61 64 63 68 71
62 67 70 51 56 59 64 69 72 50 55 58 43 48 51 63 68 71 55 60 63 41 46 49 64 69 72 59 64 67 47 52 55 63 68 71 55 60 63 59 64 67 54 59 62 40 45 48
63 68 71 54 59 62 59 64 67 46 51 54 59 64 67 48 53 56 41 46 49 48 53 56 57 62 65 50 55 58 40 45 48 63 68 71 56 61 64 45 50 53 44 49 52 58 63 66
60 65 68 52 57 60 42 47 50 48 53 56 52 57 60 59 64 67 54 59 62 48 53 56 59 64 67 53 58 61 50 55 58 48 53 56 63 68 71 49 54 57 44 49 52 62 67 70
22 26 27 22 26 27 22 26 27 81 85 85 93 97 97 75 79 79 22 26 27 89 93 93 82 86 86 77 81 81 91 95 95 22 26 27 84 88 88 81 85 85 85 89 89 85 89 89
96 83 122 40 85 130 62 88 132 27 67 108 28 69 110 37 82 126 30 71 112 39 84 129 28 69 110 31 73 115 34 78 121 35 79 122 34 77 120 31 73 115 41 87 133 35 78 121
101 83 121 26 26 24 26 26 24 26 26 24 26 26 24 211 182 48 207 182 48 206 183 48 213 183 48 210 183 48 205 177 48 211 183 48 212 179 48 206 180 48 16 18 18 16 18 18
16 18 18 213 179 48 213 182 48 216 185 48 216 185 48 213 177 48 216 180 48 216 181 48 206 183 48 206 179 48 16 18 18 16 18 18 16 18 18 211 185 48 205 177 48 211 184 48
216 182 48 216 176 48 216 178 48 211 180 48 16 18 18 16 18 18 16 18 18 205 182 48 212 181 48 207 184 48 215 177 48 211 185 48 216 178 48 214 180 48 16 18 18 16 18 18
16 18 18 209 180 48 212 184 48 212 181 48 210 182 48 216 176 48 215 184 48 211 180 48 210 178 48 205 176 48 214 184 48 212 185 48 208 182 48 213 180 48 209 178 48 213 178 48
216 179 48 210 179 48 212 178 48 207 180 48 213 183 48 205 185 48 214 177 48 216 183 48 213 185 48 210 179 48 26 26 24 26 26 24 26 26 24 26 26 24 41 87 133 28 68 109
34 77 120 40 85 131 72 86 129 87 84 125 34 77 121 37 81 125 38 82 127 67 87 130 34 77 121 30 71 112 38 83 128 29 70 112 36 79 123 22 26 27 22 26 27 22 26 27
22 26 27 22 26 27 22 26 27 22 26 27 22 26 27 22 26 27 82 84 79 86 88 83 89 91 85 104 105 97 86 89 83 105 106 98 95 97 90 91 93 87 96 98 91 102 103 96
82 85 79 105 106 98 103 105 97 99 101 93 22 26 27 22 26 27 22 26 27 98 100 93 83 86 80 94 96 89 86 89 83 96 98 91 22 26 27 22 26 27 22 26 27 22 26 27
22 26 27 22 26 27 22 26 27 22 26 27 22 26 27 22 26 27 22 26 27 22 26 27 22 26 27 22 26 27 22 26 27 22 26 27 22 26 27 22 26 27 22 26 27 22 26 27
22 26 27 59 64 67 42 47 50 45 50 53 64 69 72 62 67 70 42 47 50 45 50 53 57 62 65 42 47 50 52 57 60 62 67 70 59 64 67 52 57 60 55 60 63 56 61 64
58 63 66 48 53 56 41 46 49 41 46 49 54 59 62 45 50 53 63 68 71 56 61 64 63 68 71 50 55 58 56 61 64 55 60 63 59 64 67 47 52 55 44 49 52 44 49 52
63 68 71 62 67 70 56 61 64 62 67 70 53 58 61 50 55 58 60 65 68 64 69 72 48 53 56 62 67 70 44 49 52 49 54 57 55 60 63 41 46 49 59 64 67 59 64 67
51 56 59 61 66 69 62 67 70 47 52 55 45 50 53 53 58 61 63 68 71 42 47 50 43 48 51 41 46 49 60 65 68 51 56 59 45 50 53 56 61 64 56 61 64 43 48 51
54 59 62 59 64 67 47 52 55 61 66 69 49 54 57 58 63 66 50 55 58 62 67 70 48 53 56 59 64 67 59 64 67 50 55 58 53 58 61 49 54 57 61 66 69 47 52 55
22 26 27 22 26 27 22 26 27 87 91 91 92 96 96 77 81 81 22 26 27 92 96 96 89 93 93 82 86 86 85 89 89 22 26 27 84 88 88 91 95 95 82 86 86 72 76 76
34 77 121 29 71 113 31 74 116 35 79 123 26 67 107 32 75 118 46 87 133 41 87 133 26 67 108 65 85 128 32 74 117 34 78 121 25 65 105 36 81 125 44 88 134 32 74 117
40 85 131 26 26 24 26 26 24 26 26 24 26 26 24 213 181 48 210 179 48 210 179 48 209 178 48 209 183 48 215 178 48 208 182 48 214 181 48 215 176 48 16 18 18 16 18 18
16 18 18 208 179 48 211 180 48 212 181 48 215 181 48 214 185 48 216 184 48 205 179 48 208 176 48 206 176 48 16 18 18 16 18 18 16 18 18 216 181 48 207 178 48 216 179 48
212 182 48 215 177 48 213 183 48 209 185 48 16 18 18 16 18 18 16 18 18 208 182 48 210 176 48 206 181 48 215 185 48 206 176 48 215 183 48 208 185 48 16 18 18 16 18 18
16 18 18 211 185 48 211 184 48 216 179 48 209 184 48 212 181 48 205 181 48 209 176 48 209 182 48 205 182 48 213 180 48 211 185 48 206 180 48 214 179 48 205 183 48 206 180 48
207 178 48 207 184 48 216 181 48 210 182 48 209 179 48 213 185 48 212 182 48 205 179 48 208 185 48 210 180 48 26 26 24 26 26 24 26 26 24 26 26 24 41 88 135 39 84 130
38 83 128 41 87 133 30 72 114 41 87 134 40 86 132 35 79 123 25 65 105 34 77 120 28 69 111 42 88 135 114 79 115 40 86 132 28 70 111 22 26 27 22 26 27 22 26 27
22 26 27 22 26 27 22 26 27 22 26 27 22 26 27 22 26 27 98 99 92 89 92 85 110 111 102 91 94 87 93 95 88 85 88 82 95 97 90 95 97 90 98 100 92 107 108 99
99 101 93 97 99 91 81 84 79 93 95 88 22 26 27 22 26 27 22 26 27 92 94 88 84 87 81 88 90 84 95 97 90 109 110 101 22 26 27 22 26 27 22 26 27 22 26 27
22 26 27 22 26 27 22 26 27 22 26 27 22 26 27 22 26 27 22 26 27 22 26 27 22 26 27 22 26 27 22 26 27 22 26 27 22 26 27 22 26 27 22 26 27 22 26 27
22 26 27 49 54 57 46 51 54 50 55 58 44 49 52 45 50 53 53 58 61 44 49 52 62 67 70 63 68 71 47 52 55 45 50 53 46 51 54 48 53 56 61 66 69 62 67 70
82 82 85 81 82 85 64 65 68 73 75 78 72 73 76 67 69 72 56 58 61 59 61 64 55 57 60 62 64 67 67 68 71 57 58 61 65 66 69 75 76 79 66 67 70 72 73 76
55 60 63 42 47 50 47 52 55 49 54 57 62 67 70 57 62 65 58 63 66 64 69 72 41 46 49 58 63 66 62 67 70 53 58 61 56 61 64 52 57 60 61 66 69 54 59 62
53 58 61 60 65 68 41 46 49 59 64 67 61 66 69 61 66 69 41 46 49 58 63 66 44 49 52 46 51 54 63 68 71 46 51 54 43 48 51 43 48 51 60 65 68 47 52 55
63 68 71 61 66 69 55 60 63 46 51 54 52 57 60 40 45 48 49 54 57 59 64 67 60 65 68 43 48 51 59 64 67 55 60 63 53 58 61 52 57 60 62 67 70 40 45 48
22 26 27 22 26 27 22 26 27 82 86 86 72 76 76 73 77 77 22 26 27 70 74 74 85 89 89 78 82 82 87 91 91 22 26 27 73 77 77 81 85 85 82 86 86 70 74 74
103 78 115 30 73 115 24 64 104 29 71 113 33 77 120 28 70 112 39 85 132 35 80 125 116 76 111 24 64 104 25 66 107 38 84 130 31 74 116 30 72 115 38 84 130 39 85 131
25 65 106 26 26 24 26 26 24 26 26 24 26 26 24 215 181 48 206 179 48 208 181 48 210 180 48 208 176 48 205 182 48 216 183 48 209 181 48 208 183 48 16 18 18 16 18 18
16 18 18 208 183 48 213 177 48 209 185 48 207 179 48 208 183 48 210 185 48 211 184 48 207 176 48 205 183 48 16 18 18 16 18 18 16 18 18 211 184 48 206 181 48 207 176 48
211 180 48 209 185 48 210 176 48 216 181 48 16 18 18 16 18 18 16 18 18 209 179 48 213 178 48 207 180 48 207 179 48 212 185 48 216 185 48 207 178 48 16 18 18 16 18 18
16 18 18 212 179 48 205 177 48 205 179 48 208 179 48 216 185 48 209 181 48 209 177 48 216 181 48 210 184 48 212 177 48 207 183 48 212 184 48 205 176 48 210 180 48 206 182 48
214 183 48 207 177 48 206 184 48 209 182 48 215 180 48 213 184 48 206 183 48 214 182 48 208 180 48 216 182 48 26 26 24 26 26 24 26 26 24 26 26 24 110 77 113 41 86 132
24 64 104 106 77 114 36 81 127 27 69 110 34 78 122 37 82 128 86 80 120 38 83 129 40 86 132 30 72 115 25 66 107 39 85 131 23 63 103 22 26 27 22 26 27 22 26 27
22 26 27 22 26 27 22 26 27 22 26 27 22 26 27 22 26 27 85 87 82 83 85 80 89 92 85 108 109 101 81 83 78 87 89 83 97 99 92 86 89 83 99 101 93 96 98 90
99 101 93 96 98 91 87 90 84 101 103 95 22 26 27 22 26 27 22 26 27 84 87 81 86 89 83 93 95 88 86 89 83 91 93 87 22 26 27 22 26 27 22 26 27 22 26 27
22 26 27 22 26 27 22 26 27 22 26 27 22 26 27 22 26 27 22 26 27 22 26 27 22 26 27 22 26 27 22 26 27 22 26 27 22 26 27 22 26 27 22 26 27 22 26 27
22 26 27 54 59 62 59 64 67 51 56 59 49 54 57 40 45 48 64 69 72 47 52 55 60 65 68 53 58 61 73 74 77 74 75 78 64 66 69 65 67 70 74 77 80 71 73 76
64 67 70 63 66 69 53 57 60 61 65 68 59 63 66 49 53 56 56 61 64 58 63 66 51 56 59 66 70 73 47 51 54 59 63 66 57 60 63 68 71 74 70 73 76 72 75 78
59 62 65 68 70 73 61 63 66 73 74 77 69 70 73 67 68 71 41 46 49 53 58 61 44 49 52 60 65 68 46 51 54 59 64 67 51 56 59 48 53 56 53 58 61 52 57 60
61 66 69 51 56 59 47 52 55 50 55 58 47 52 55 51 56 59 48 53 56 61 66 69 56 61 64 57 62 65 56 61 64 40 45 48 59 64 67 49 54 57 44 49 52 50 55 58
62 67 70 59 64 67 60 65 68 52 57 60 58 63 66 61 66 69 43 48 51 40 45 48 48 53 56 53 58 61 50 55 58 54 59 62 62 67 70 50 55 58 61 66 69 43 48 51
22 26 27 22 26 27 22 26 27 71 75 75 74 78 78 93 97 97 22 26 27 70 74 74 69 73 73 90 94 94 81 85 85 22 26 27 90 94 94 87 91 91 92 96 96 72 76 76
33 77 122 23 64 105 22 63 103 35 80 126 104 74 110 29 72 115 22 63 103 21 62 102 34 79 125 31 75 119 34 79 124 103 74 110 23 63 104 36 82 128 98 74 111 36 82 127
24 65 106 26 26 24 26 26 24 26 26 24 26 26 24 209 185 48 215 182 48 206 183 48 213 181 48 212 185 48 207 176 48 216 177 48 212 180 48 210 184 48 16 18 18 16 18 18
16 18 18 206 180 48 205 178 48 213 181 48 210 185 48 215 181 48 212 176 48 214 183 48 210 183 48 207 182 48 16 18 18 16 18 18 16 18 18 215 180 48 211 177 48 211 177 48
210 185 48 211 183 48 207 182 48 212 177 48 16 18 18 16 18 18 16 18 18 205 181 48 206 182 48 211 179 48 212 179 48 213 180 48 214 183 48 216 184 48 16 18 18 16 18 18
16 18 18 205 176 48 216 185 48 213 180 48 208 181 48 215 183 48 215 182 48 210 178 48 206 184 48 212 185 48 211 183 48 216 179 48 211 176 48 207 176 48 213 179 48 214 177 48
207 178 48 214 181 48 215 181 48 210 178 48 214 179 48 208 185 48 205 179 48 213 177 48 216 182 48 215 183 48 26 26 24 26 26 24 26 26 24 26 26 24 30 74 117 32 77 121
30 74 117 20 60 100 28 70 113 20 60 99 27 69 112 34 79 125 22 62 103 47 81 125 24 66 107 21 61 101 22 63 104 24 66 107 23 64 105 22 26 27 22 26 27 22 26 27
22 26 27 22 26 27 22 26 27 22 26 27 22 26 27 22 26 27 97 98 91 89 91 85 104 105 97 105 106 98 109 110 101 97 99 92 92 94 88 92 95 88 108 109 100 102 104 96
107 109 100 81 84 79 98 100 92 94 96 89 22 26 27 22 26 27 22 26 27 102 103 95 83 86 81 109 110 101 104 105 97 108 110 101 22 26 27 22 26 27 22 26 27 22 26 27
22 26 27 22 26 27 22 26 27 22 26 27 22 26 27 22 26 27 22 26 27 22 26 27 22 26 27 22 26 27 22 26 27 22 26 27 22 26 27 22 26 27 22 26 27 22 26 27
22 26 27 43 48 51 52 57 60 50 55 58 47 52 55 49 54 57 60 61 64 76 78 81 57 59 62 55 58 61 55 58 61 57 61 64 58 62 65 41 46 49 43 48 51 63 67 70
61 65 68 64 68 71 61 64 67 52 56 59 53 56 59 57 60 63 71 74 77 71 74 77 60 63 66 65 68 71 64 67 70 66 69 72 59 62 65 47 50 53 55 59 62 59 63 66
49 53 56 60 65 68 56 61 64 55 59 62 58 61 64 60 63 66 54 56 59 59 61 64 63 64 67 80 81 84 60 65 68 63 68 71 47 52 55 60 65 68 51 56 59 64 69 72
52 57 60 51 56 59 58 63 66 40 45 48 58 63 66 53 58 61 41 46 49 61 66 69 58 63 66 42 47 50 46 51 54 52 57 60 47 52 55 53 58 61 62 67 70 44 49 52
62 67 70 50 55 58 63 68 71 45 50 53 62 67 70 63 68 71 44 49 52 40 45 48 57 62 65 57 62 65 58 63 66 59 64 67 48 53 56 45 50 53 63 68 71 59 64 67
22 26 27 22 26 27 22 26 27 76 80 80 84 88 88 74 78 78 22 26 27 93 97 97 82 86 86 70 74 74 84 88 88 22 26 27 92 96 96 71 75 75 75 79 79 81 85 85
25 68 111 23 65 107 66 72 113 22 64 106 21 63 105 26 69 112 17 56 96 17 56 96 18 58 99 31 76 122 19 60 101 19 59 100 98 68 104 25 68 111 29 74 118 25 68 111
26 70 114 26 26 24 26 26 24 26 26 24 26 26 24 208 176 48 208 178 48 212 179 48 215 178 48 209 182 48 214 183 48 207 179 48 211 185 48 215 181 48 16 18 18 16 18 18
16 18 18 211 181 48 212 183 48 216 182 48 211 185 48 213 176 48 207 184 48 207 183 48 207 178 48 211 182 48 16 18 18 16 18 18 16 18 18 207 182 48 214 177 48 210 177 48
208 178 48 213 180 48 211 183 48 215 185 48 16 18 18 16 18 18 16 18 18 215 183 48 212 178 48 205 185 48 206 176 48 207 184 48 213 184 48 215 178 48 16 18 18 16 18 18
16 18 18 215 185 48 206 180 48 213 182 48 216 176 48 216 177 48 209 179 48 215 184 48 212 184 48 205 176 48 215 184 48 210 185 48 211 180 48 215 183 48 205 181 48 205 176 48
209 183 48 209 183 48 215 176 48 212 184 48 205 183 48 211 184 48 209 185 48 215 183 48 209 185 48 215 177 48 26 26 24 26 26 24 26 26 24 26 26 24 16 55 94 17 57 97
31 77 122 24 67 109 15 54 93 31 76 122 16 56 95 20 61 102 25 68 111 19 59 100 99 68 104 45 75 119 31 76 121 17 57 97 18 59 99 22 26 27 22 26 27 22 26 27
22 26 27 22 26 27 22 26 27 22 26 27 22 26 27 22 26 27 103 104 96 102 104 96 107 109 100 108 110 101 81 84 79 104 106 97 108 109 100 80 83 78 83 86 81 86 89 83
80 83 78 106 107 99 95 97 90 94 97 90 22 26 27 22 26 27 22 26 27 90 92 86 106 108 99 102 104 96 109 110 101 100 102 94 22 26 27 22 26 27 22 26 27 22 26 27
22 26 27 22 26 27 22 26 27 22 26 27 22 26 27 22 26 27 22 26 27 22 26 27 22 26 27 22 26 27 22 26 27 22 26 27 22 26 27 22 26 27 22 26 27 22 26 27
22 26 27 52 57 60 69 70 73 77 78 81 67 68 71 64 67 70 58 62 65 60 64 67 45 50 53 53 57 60 51 55 58 52 55 58 60 63 66 53 55 58 62 64 67 59 61 64
76 78 81 78 79 82 65 66 69 81 82 85 63 63 66 76 77 80 70 71 74 74 75 78 82 83 86 69 70 73 78 78 81 61 62 65 60 61 64 67 68 71 79 80 83 79 80 83
58 60 63 70 72 75 50 52 55 66 69 72 47 51 54 50 54 57 41 46 49 50 54 57 61 65 68 65 68 71 54 57 60 57 58 61 66 67 70 51 56 59 57 62 65 57 62 65
48 53 56 44 49 52 63 68 71 41 46 49 54 59 62 41 46 49 47 52 55 55 60 63 43 48 51 54 59 62 44 49 52 59 64 67 54 59 62 45 50 53 61 66 69 55 60 63
46 51 54 46 51 54 43 48 51 45 50 53 51 56 59 45 50 53 61 66 69 52 57 60 63 68 71 45 50 53 61 66 69 58 63 66 51 56 59 57 62 65 57 62 65 46 51 54
22 26 27 22 26 27 22 26 27 76 80 80 90 94 94 91 95 95 22 26 27 90 94 94 76 80 80 74 78 78 69 73 73 22 26 27 80 84 84 80 84 84 77 81 81 88 92 92
13 53 93 77 64 102 11 50 89 17 58 99 23 67 111 26 71 116 19 61 104 60 66 106 12 52 91 85 63 99 19 61 103 15 56 97 19 61 103 11 50 89 18 60 103 31 70 114
12 52 92 26 26 24 26 26 24 26 26 24 26 26 24 210 179 48 208 183 48 205 177 48 216 178 48 206 177 48 208 179 48 207 181 48 216 184 48 212 184 48 16 18 18 16 18 18
16 18 18 208 183 48 205 179 48 211 176 48 216 179 48 207 184 48 207 178 48 216 184 48 215 182 48 213 180 48 16 18 18 16 18 18 16 18 18 209 179 48 206 180 48 212 181 48
216 180 48 209 179 48 215 182 48 210 176 48 16 18 18 16 18 18 16 18 18 213 181 48 207 181 48 210 180 48 216 177 48 211 184 48 212 184 48 216 183 48 16 18 18 16 18 18
16 18 18 207 184 48 211 182 48 215 181 48 212 184 48 214 178 48 206 183 48 209 180 48 215 183 48 214 181 48 215 185 48 207 176 48 210 183 48 205 181 48 205 176 48 214 177 48
207 181 48 214 177 48 205 181 48 216 184 48 216 177 48 216 183 48 207 177 48 210 184 48 208 180 48 205 181 48 26 26 24 26 26 24 26 26 24 26 26 24 24 68 112 13 53 93
25 70 114 19 61 103 22 66 109 11 51 90 19 61 104 60 66 106 23 66 110 16 57 98 22 66 110 10 49 87 27 70 115 20 62 105 25 70 115 22 26 27 22 26 27 22 26 27
22 26 27 22 26 27 22 26 27 22 26 27 22 26 27 22 26 27 85 87 82 89 91 85 93 95 88 108 109 100 97 99 92 92 94 88 91 93 87 86 89 83 109 110 101 85 88 82
88 90 84 95 97 90 89 91 85 89 91 85 22 26 27 22 26 27 22 26 27 86 88 82 92 94 88 101 102 94 99 101 93 93 95 88 22 26 27 22 26 27 22 26 27 22 26 27
22 26 27 22 26 27 22 26 27 22 26 27 22 26 27 22 26 27 22 26 27 22 26 27 22 26 27 22 26 27 22 26 27 22 26 27 22 26 27 22 26 27 22 26 27 22 26 27
22 26 27 65 67 70 71 74 77 68 71 74 67 71 74 57 62 65 58 62 65 64 68 71 70 73 76 71 73 76 68 70 73 68 69 72 83 84 87 74 75 78 67 67 70 79 78 81
83 83 86 84 83 86 71 71 74 67 66 69 77 76 79 69 68 71 80 79 82 69 68 71 68 67 70 67 66 69 83 82 85 79 78 81 71 70 73 66 66 69 80 79 82 84 84 87
74 74 77 62 62 65 66 66 69 76 77 80 75 76 79 66 68 71 61 64 67 49 52 55 51 55 58 43 48 51 55 60 63 49 53 56 65 68 71 74 76 79 78 79 82 61 62 65
56 61 64 64 69 72 60 65 68 46 51 54 44 49 52 60 65 68 42 47 50 54 59 62 52 57 60 58 63 66 48 53 56 60 65 68 61 66 69 48 53 56 64 69 72 60 65 68
44 49 52 56 61 64 45 50 53 50 55 58 41 46 49 60 65 68 46 51 54 40 45 48 48 53 56 57 62 65 61 66 69 60 65 68 42 47 50 48 53 56 60 65 68 42 47 50
22 26 27 22 26 27 22 26 27 81 85 85 83 87 87 76 80 80 22 26 27 83 87 87 72 76 76 85 89 89 82 86 86 22 26 27 80 84 84 74 78 78 72 76 76 71 75 75
10 49 89 8 47 86 22 67 111 21 65 109 7 46 84 52 63 103 15 58 100 56 62 102 8 47 86 18 61 104 13 54 95 20 64 108 23 66 111 28 66 110 88 58 93 21 65 109
11 51 92 26 26 24 26 26 24 26 26 24 26 26 24 216 182 48 212 177 48 206 179 48 215 185 48 207 179 48 205 181 48 214 177 48 213 179 48 214 177 48 16 18 18 16 18 18
16 18 18 212 179 48 216 181 48 213 185 48 211 185 48 211 177 48 214 181 48 208 177 48 206 178 48 207 183 48 16 18 18 16 18 18 16 18 18 206 176 48 211 184 48 214 176 48
207 177 48 215 180 48 208 181 48 208 183 48 16 18 18 16 18 18 16 18 18 216 182 48 216 183 48 214 178 48 205 182 48 206 177 48 215 180 48 206 185 48 16 18 18 16 18 18
16 18 18 213 177 48 210 184 48 216 181 48 211 178 48 216 184 48 214 184 48 206 182 48 214 180 48 211 178 48 212 178 48 214 182 48 215 182 48 215 177 48 211 182 48 216 180 48
212 182 48 207 177 48 214 179 48 212 182 48 207 177 48 209 176 48 211 184 48 205 181 48 210 180 48 205 182 48 26 26 24 26 26 24 26 26 24 26 26 24 8 47 86 10 50 90
8 47 85 17 59 102 10 50 90 21 65 109 57 62 102 57 62 101 65 61 99 21 66 110 15 56 98 8 47 86 14 55 97 8 47 86 10 50 90 22 26 27 22 26 27 22 26 27
22 26 27 22 26 27 22 26 27 22 26 27 22 26 27 22 26 27 86 89 83 94 96 89 95 97 90 85 88 82 107 108 100 104 105 97 86 89 83 99 101 93 108 109 100 80 83 78
94 96 89 97 99 92 107 108 99 90 92 86 22 26 27 22 26 27 22 26 27 97 99 92 91 93 87 97 99 92 84 87 82 87 89 83 22 26 27 22 26 27 22 26 27 22 26 27
22 26 27 22 26 27 22 26 27 22 26 27 22 26 27 22 26 27 22 26 27 22 26 27 22 26 27 22 26 27 22 26 27 22 26 27 22 26 27 22 26 27 22 26 27 22 26 27
22 26 27 63 67 70 51 56 59 58 62 65 56 60 63 59 61 64 68 70 73 74 75 78 64 64 67 76 76 79 79 79 82 65 65 68 89 88 91 75 74 77 78 77 80 75 74 77
82 81 84 80 79 82 73 72 75 83 82 85 67 67 70 70 70 73 69 68 71 80 79 82 72 71 74 65 64 67 80 80 83 75 74 77 84 83 86 86 85 88 74 73 76 72 71 74
89 88 91 68 67 70 75 74 77 71 70 73 71 70 73 77 77 80 62 62 65 71 72 75 66 67 70 55 57 60 56 59 62 57 61 64 61 66 69 63 68 71 66 70 73 65 68 71
64 66 69 65 66 69 60 65 68 47 52 55 51 56 59 54 59 62 62 67 70 64 69 72 41 46 49 57 62 65 63 68 71 60 65 68 60 65 68 51 56 59 50 55 58 59 64 67
64 69 72 57 62 65 49 54 57 46 51 54 57 62 65 42 47 50 40 45 48 41 46 49 44 49 52 41 46 49 63 68 71 59 64 67 51 56 59 59 64 67 44 49 52 56 61 64
22 26 27 22 26 27 22 26 27 82 86 86 83 87 87 77 81 81 22 26 27 73 77 77 77 81 81 75 79 79 83 87 87 22 26 27 85 89 89 74 78 78 85 89 89 74 78 78
19 62 106 22 66 111 9 48 87 17 59 102 21 65 109 9 48 88 51 63 103 24 66 110 62 61 100 11 51 92 13 54 95 16 58 100 12 53 94 19 62 106 14 56 98 15 56 98
13 54 95 26 26 24 26 26 24 26 26 24 26 26 24 209 178 48 207 180 48 215 185 48 205 177 48 208 178 48 209 185 48 216 183 48 209 177 48 212 176 48 16 18 18 16 18 18
16 18 18 214 178 48 206 178 48 211 179 48 208 185 48 208 177 48 206 182 48 209 179 48 210 178 48 207 178 48 16 18 18 16 18 18 16 18 18 215 180 48 207 176 48 212 183 48
214 183 48 215 185 48 209 177 48 216 180 48 16 18 18 16 18 18 16 18 18 207 181 48 210 185 48 211 182 48 206 179 48 208 176 48 213 180 48 216 182 48 16 18 18 16 18 18
16 18 18 213 180 48 210 185 48 206 181 48 213 185 48 208 181 48 206 183 48 207 180 48 210 177 48 212 176 48 210 182 48 209 185 48 208 180 48 215 184 48 214 179 48 214 178 48
215 177 48 214 183 48 205 178 48 215 179 48 216 182 48 209 184 48 209 183 48 215 185 48 206 176 48 208 184 48 26 26 24 26 26 24 26 26 24 26 26 24 17 59 102 20 65 109
19 62 105 16 59 101 19 63 106 19 62 105 17 59 102 15 57 99 21 65 110 21 65 109 60 62 101 9 49 89 9 49 89 9 49 88 7 46 85 22 26 27 22 26 27 22 26 27
22 26 27 22 26 27 22 26 27 22 26 27 22 26 27 22 26 27 85 87 82 99 101 93 82 85 80 82 85 79 94 96 89 87 89 83 88 90 84 84 87 82 92 95 88 84 87 82
103 104 96 102 104 96 101 103 95 104 106 98 22 26 27 22 26 27 22 26 27 91 93 86 90 92 86 87 89 83 84 86 81 102 103 95 22 26 27 22 26 27 22 26 27 22 26 27
22 26 27 22 26 27 22 26 27 22 26 27 22 26 27 22 26 27 22 26 27 22 26 27 22 26 27 22 26 27 22 26 27 22 26 27 22 26 27 22 26 27 22 26 27 22 26 27
22 26 27 69 73 76 53 56 59 75 77 80 79 80 83 80 80 83 71 70 73 87 87 90 74 73 76 85 84 87 77 76 79 68 67 70 88 87 90 83 82 85 72 72 75 64 63 66
63 63 66 70 70 73 77 77 80 84 84 87 81 82 85 66 66 69 73 73 76 79 80 83 69 69 72 68 68 71 84 84 87 70 70 73 68 68 71 67 67 70 86 85 88 70 70 73
88 88 91 76 75 78 76 76 79 70 69 72 87 86 89 72 71 74 86 86 89 75 74 77 65 65 68 85 85 88 62 63 66 78 79 82 69 71 74 66 69 72 63 67 70 50 55 58
51 55 58 67 70 73 69 71 74 74 75 78 61 66 69 58 63 66 50 55 58 47 52 55 42 47 50 42 47 50 61 66 69 57 62 65 57 62 65 56 61 64 57 62 65 56 61 64
45 50 53 55 60 63 46 51 54 47 52 55 50 55 58 47 52 55 47 52 55 62 67 70 51 56 59 53 58 61 47 52 55 49 54 57 58 63 66 53 58 61 54 59 62 58 63 66
22 26 27 22 26 27 22 26 27 69 73 73 73 77 77 75 79 79 22 26 27 81 85 85 90 94 94 79 83 83 84 88 88 22 26 27 89 93 93 76 80 80 92 96 96 81 85 85
13 53 92 77 64 102 12 52 91 15 56 97 22 65 108 94 62 97 33 70 114 11 51 90 17 59 100 19 61 103 13 53 93 10 49 88 12 52 91 16 57 98 17 58 99 22 65 109
19 62 104 26 26 24 26 26 24 26 26 24 26 26 24 206 180 48 209 184 48 212 181 48 211 177 48 215 184 48 211 181 48 216 176 48 210 181 48 215 182 48 16 18 18 16 18 18
16 18 18 216 177 48 211 182 48 206 185 48 211 178 48 212 183 48 210 176 48 205 178 48 208 185 48 213 182 48 16 18 18 16 18 18 16 18 18 210 177 48 215 184 48 205 182 48
207 180 48 213 179 48 216 176 48 216 176 48 16 18 18 16 18 18 16 18 18 214 184 48 209 180 48 216 180 48 212 178 48 214 184 48 205 181 48 206 184 48 16 18 18 16 18 18
16 18 18 206 182 48 211 184 48 205 182 48 213 184 48 213 176 48 207 185 48 209 181 48 206 179 48 216 184 48 206 184 48 205 185 48 214 185 48 205 184 48 210 181 48 206 179 48
215 178 48 216 177 48 213 182 48 206 177 48 206 177 48 215 184 48 213 183 48 206 183 48 215 178 48 215 181 48 26 26 24 26 26 24 26 26 24 26 26 24 19 62 104 25 70 114
16 57 98 23 67 111 90 62 98 19 61 103 14 54 94 23 67 111 18 60 102 12 52 91 48 68 110 74 65 102 32 70 114 14 54 94 70 65 104 22 26 27 22 26 27 22 26 27
22 26 27 22 26 27 22 26 27 22 26 27 22 26 27 22 26 27 88 91 85 87 90 84 107 109 100 93 95 88 84 86 81 90 92 86 91 93 87 89 91 85 84 87 81 106 108 99
91 93 87 90 92 86 101 103 95 101 103 95 22 26 27 22 26 27 22 26 27 100 102 94 84 87 81 100 102 94 99 101 93 96 98 91 22 26 27 22 26 27 22 26 27 22 26 27
22 26 27 22 26 27 22 26 27 22 26 27 22 26 27 22 26 27 22 26 27 22 26 27 22 26 27 22 26 27 22 26 27 22 26 27 22 26 27 22 26 27 22 26 27 22 26 27
22 26 27 68 69 72 76 76 79 86 86 89 78 78 81 72 72 75 75 74 77 90 89 92 72 72 75 82 81 84 66 65 68 82 82 85 64 64 67 67 68 71 60 60 63 60 61 64
68 69 72 70 72 75 66 68 71 70 73 76 71 74 77 53 55 58 64 67 70 56 59 62 61 64 67 50 52 55 54 57 60 57 59 62 71 73 76 76 78 81 76 78 81 71 73 76
70 71 74 65 65 68 60 60 63 75 75 78 80 80 83 66 66 69 88 87 90 71 70 73 73 72 75 69 68 71 68 67 70 80 80 83 84 84 87 72 73 76 77 78 81 64 67 70
62 66 69 64 69 72 58 62 65 71 74 77 58 60 63 72 73 76 59 64 67 62 67 70 64 69 72 59 64 67 63 68 71 47 52 55 49 54 57 47 52 55 56 61 64 49 54 57
60 65 68 52 57 60 52 57 60 51 56 59 51 56 59 61 66 69 48 53 56 62 67 70 61 66 69 41 46 49 45 50 53 46 51 54 48 53 56 41 46 49 53 58 61 60 65 68
22 26 27 22 26 27 22 26 27 76 80 80 82 86 86 70 74 74 22 26 27 78 82 82 77 81 81 81 85 85 75 79 79 22 26 27 82 86 86 72 76 76 87 91 91 82 86 86
51 74 117 22 63 105 27 72 116 53 74 116 29 73 118 19 60 101 82 70 108 17 56 96 23 65 108 80 71 109 26 69 113 18 59 99 27 71 115 30 75 120 24 67 109 23 66 108
48 75 118 26 26 24 26 26 24 26 26 24 26 26 24 209 177 48 216 176 48 209 185 48 209 181 48 212 179 48 216 183 48 208 176 48 215 183 48 209 177 48 16 18 18 16 18 18
16 18 18 211 182 48 205 179 48 205 182 48 213 182 48 209 177 48 209 177 48 208 185 48 207 182 48 211 177 48 16 18 18 16 18 18 16 18 18 206 177 48 208 177 48 208 183 48
210 185 48 205 185 48 216 185 48 210 176 48 16 18 18 16 18 18 16 18 18 215 185 48 209 179 48 206 185 48 205 184 48 210 180 48 208 179 48 213 183 48 16 18 18 16 18 18
16 18 18 210 182 48 207 180 48 207 178 48 214 182 48 214 180 48 210 176 48 213 176 48 206 177 48 212 185 48 206 181 48 206 182 48 205 181 48 211 181 48 208 181 48 206 182 48
214 185 48 210 185 48 216 185 48 207 183 48 216 177 48 207 179 48 210 179 48 216 179 48 211 185 48 209 182 48 26 26 24 26 26 24 26 26 24 26 26 24 18 59 99 29 73 117
18 58 98 15 55 94 22 64 105 28 73 117 17 56 96 19 59 100 19 59 100 109 67 101 103 68 103 26 70 113 18 59 99 24 67 110 31 76 121 22 26 27 22 26 27 22 26 27
22 26 27 22 26 27 22 26 27 22 26 27 22 26 27 22 26 27 89 92 85 103 104 96 104 106 97 87 89 83 90 92 86 102 103 95 90 92 86 103 104 96 81 84 79 105 106 98
104 105 97 100 102 94 83 86 81 96 98 91 22 26 27 22 26 27 22 26 27 98 100 93 108 109 100 94 96 89 98 100 92 86 89 83 22 26 27 22 26 27 22 26 27 22 26 27
22 26 27 22 26 27 22 26 27 22 26 27 22 26 27 22 26 27 22 26 27 22 26 27 22 26 27 22 26 27 22 26 27 22 26 27 22 26 27 22 26 27 22 26 27 22 26 27
22 26 27 83 83 86 85 84 87 83 82 85 88 87 90 67 67 70 77 77 80 66 65 68 72 72 75 72 72 75 60 61 64 66 68 71 65 68 71 55 58 61 57 60 63 53 57 60
52 56 59 59 64 67 44 49 52 48 53 56 48 53 56 43 47 50 61 65 68 44 48 51 46 50 53 64 68 71 57 62 65 58 63 66 60 65 68 61 66 69 58 63 66 51 55 58
50 54 57 62 65 68 68 70 73 75 77 80 69 71 74 82 83 86 68 68 71 76 76 79 76 75 78 89 88 91 76 75 78 73 72 75 71 71 74 83 83 86 70 70 73 73 74 77
61 63 66 69 71 74 46 50 53 59 64 67 64 68 71 55 58 61 58 60 63 71 72 75 47 52 55 55 60 63 43 48 51 60 65 68 64 69 72 61 66 69 54 59 62 59 64 67
48 53 56 45 50 53 51 56 59 49 54 57 46 51 54 56 61 64 55 60 63 64 69 72 40 45 48 48 53 56 58 63 66 48 53 56 60 65 68 51 56 59 51 56 59 49 54 57
22 26 27 22 26 27 22 26 27 73 77 77 83 87 87 77 81 81 22 26 27 72 76 76 72 76 76 81 85 85 87 91 91 22 26 27 70 74 74 76 80 80 89 93 93 86 90 90
29 73 116 26 68 110 20 60 100 32 76 120 35 81 126 27 69 111 29 72 116 35 81 127 36 81 127 36 81 127 29 72 115 21 60 100 46 81 125 106 73 109 101 74 111 88 76 114
22 62 103 26 26 24 26 26 24 26 26 24 26 26 24 215 176 48 205 182 48 208 179 48 205 185 48 205 183 48 212 178 48 209 182 48 211 180 48 205 180 48 16 18 18 16 18 18
16 18 18 215 178 48 212 176 48 209 182 48 213 182 48 216 185 48 215 182 48 211 183 48 206 178 48 205 178 48 16 18 18 16 18 18 16 18 18 215 181 48 215 185 48 215 184 48
214 183 48 206 181 48 206 181 48 207 181 48 16 18 18 16 18 18 16 18 18 206 184 48 210 180 48 209 182 48 210 182 48 209 176 48 213 185 48 205 176 48 16 18 18 16 18 18
16 18 18 207 180 48 210 185 48 209 178 48 205 185 48 206 184 48 212 181 48 205 177 48 212 180 48 216 185 48 207 184 48 209 177 48 208 177 48 208 176 48 209 184 48 205 185 48
210 179 48 206 176 48 214 183 48 208 176 48 207 177 48 210 180 48 215 180 48 210 179 48 209 179 48 211 178 48 26 26 24 26 26 24 26 26 24 26 26 24 30 74 118 36 82 128
29 72 115 72 78 118 24 65 106 66 78 120 30 73 117 35 81 126 27 69 112 29 72 115 30 73 117 29 72 115 34 79 125 31 75 119 24 65 106 22 26 27 22 26 27 22 26 27
22 26 27 22 26 27 22 26 27 22 26 27 22 26 27 22 26 27 93 95 88 82 85 80 98 100 92 89 91 85 105 106 98 94 96 89 91 93 87 102 104 96 92 94 88 100 101 94
108 109 100 109 110 102 104 105 97 85 87 82 22 26 27 22 26 27 22 26 27 98 100 92 104 105 97 83 86 80 86 89 83 88 91 85 22 26 27 22 26 27 22 26 27 22 26 27
22 26 27 22 26 27 22 26 27 22 26 27 22 26 27 22 26 27 22 26 27 22 26 27 22 26 27 22 26 27 22 26 27 22 26 27 22 26 27 22 26 27 22 26 27 22 26 27
22 26 27 72 71 74 90 89 92 70 69 72 72 72 75 84 84 87 74 75 78 70 72 75 56 58 61 69 72 75 60 63 66 64 68 71 40 45 48 57 61 64 63 67 70 54 58 61
66 69 72 68 70 73 62 64 67 60 62 65 63 65 68 68 70 73 77 78 81 61 62 65 76 77 80 74 75 78 78 80 83 74 76 79 65 67 70 53 56 59 59 61 64 60 63 66
61 65 68 44 48 51 62 67 70 62 66 69 48 51 54 67 70 73 63 65 68 61 63 66 68 69 72 78 78 81 83 83 86 72 72 75 82 82 85 69 68 71 87 86 89 79 79 82
76 76 79 80 81 84 57 59 62 53 56 59 52 56 59 62 67 70 67 71 74 66 68 71 60 61 64 45 50 53 44 49 52 44 49 52 60 65 68 50 55 58 60 65 68 55 60 63
57 62 65 47 52 55 48 53 56 45 50 53 55 60 63 60 65 68 62 67 70 50 55 58 62 67 70 51 56 59 46 51 54 48 53 56 62 67 70 51 56 59 41 46 49 48 53 56
22 26 27 22 26 27 22 26 27 87 91 91 86 90 90 73 77 77 22 26 27 69 73 73 77 81 81 86 90 90 86 90 90 22 26 27 76 80 80 72 76 76 93 97 97 87 91 91
88 80 119 30 73 116 30 73 116 112 77 112 32 76 119 38 83 129 35 80 124 29 71 113 34 78 122 32 75 118 35 80 124 24 65 105 26 67 108 24 64 104 39 85 131 25 65 106
30 72 114 26 26 24 26 26 24 26 26 24 26 26 24 211 177 48 206 184 48 212 182 48 214 182 48 215 185 48 215 183 48 210 177 48 205 182 48 207 176 48 208 180 48 208 179 48
216 182 48 16 18 18 16 18 18 16 18 18 16 18 18 16 18 18 16 18 18 16 18 18 16 18 18 16 18 18 214 185 48 215 180 48 207 176 48 215 176 48 16 18 18 16 18 18
16 18 18 16 18 18 16 18 18 16 18 18 16 18 18 16 18 18 16 18 18 16 18 18 16 18 18 16 18 18 16 18 18 16 18 18 16 18 18 213 177 48 16 18 18 16 18 18
16 18 18 215 181 48 206 182 48 214 179 48 205 184 48 209 176 48 205 182 48 205 180 48 214 177 48 215 184 48 206 176 48 215 178 48 215 178 48 214 179 48 208 176 48 205 183 48
212 182 48 207 180 48 209 183 48 206 184 48 205 179 48 208 180 48 211 179 48 208 176 48 215 181 48 207 177 48 26 26 24 26 26 24 26 26 24 26 26 24 33 77 121 61 83 126
28 69 111 34 78 123 30 73 116 26 67 108 31 73 116 24 64 104 24 65 105 25 66 107 46 85 130 25 65 106 112 77 112 90 79 118 94 79 117 22 26 27 22 26 27 22 26 27
22 26 27 22 26 27 22 26 27 22 26 27 22 26 27 22 26 27 109 110 101 88 90 84 102 103 95 92 94 87 108 109 100 95 97 90 99 100 93 108 109 101 98 100 93 98 100 93
99 101 93 98 100 93 87 90 84 82 85 80 22 26 27 22 26 27 22 26 27 85 87 82 91 93 87 100 102 94 90 92 86 94 96 89 22 26 27 22 26 27 22 26 27 22 26 27
22 26 27 22 26 27 22 26 27 22 26 27 22 26 27 22 26 27 22 26 27 22 26 27 22 26 27 22 26 27 22 26 27 22 26 27 22 26 27 22 26 27 22 26 27 22 26 27
22 26 27 82 82 85 62 62 65 77 78 81 75 76 79 72 74 77 49 53 56 47 51 54 50 55 58 43 47 50 47 51 54 67 70 73 65 67 70 55 57 60 61 62 65 71 72 75
76 77 80 75 76 79 68 68 71 80 80 83 77 77 80 87 87 90 64 64 67 86 86 89 86 86 89 74 74 77 77 76 79 81 81 84 70 70 73 83 83 86 65 65 68 59 60 63
61 62 65 79 80 83 71 73 76 72 75 78 65 69 72 54 58 61 61 66 69 50 54 57 53 56 59 58 60 63 67 68 71 61 62 65 82 82 85 87 86 89 80 79 82 73 72 75
87 86 89 75 75 78 69 69 72 67 68 71 77 79 82 60 63 66 50 54 57 62 67 70 54 57 60 61 62 65 56 61 64 46 51 54 56 61 64 59 64 67 50 55 58 43 48 51
53 58 61 47 52 55 49 54 57 56 61 64 61 66 69 41 46 49 58 63 66 49 54 57 62 67 70 60 65 68 64 69 72 54 59 62 44 49 52 41 46 49 51 56 59 46 51 54
22 26 27 22 26 27 22 26 27 74 78 78 69 73 73 92 96 96 22 26 27 75 79 79 70 74 74 84 88 88 89 93 93 22 26 27 82 86 86 83 87 87 86 90 90 82 86 86
40 86 132 28 69 110 70 84 127 38 83 129 36 81 125 40 85 131 36 81 125 35 79 122 36 80 125 31 74 117 33 76 119 30 72 114 29 71 113 31 74 117 85 82 123 37 81 126
27 67 108 26 26 24 26 26 24 26 26 24 26 26 24 208 181 48 207 183 48 211 183 48 215 176 48 209 177 48 207 185 48 213 183 48 207 185 48 207 185 48 205 183 48 206 177 48
216 184 48 16 18 18 16 18 18 16 18 18 16 18 18 16 18 18 16 18 18 16 18 18 16 18 18 16 18 18 207 182 48 215 177 48 211 183 48 211 182 48 16 18 18 16 18 18
16 18 18 16 18 18 16 18 18 16 18 18 16 18 18 16 18 18 16 18 18 16 18 18 16 18 18 16 18 18 16 18 18 16 18 18 16 18 18 216 185 48 16 18 18 16 18 18
16 18 18 216 180 48 209 179 48 214 185 48 208 179 48 209 180 48 215 177 48 215 182 48 208 179 48 205 181 48 206 176 48 214 177 48 210 176 48 210 177 48 213 184 48 214 178 48
206 179 48 207 179 48 209 184 48 212 181 48 205 182 48 215 185 48 205 177 48 214 184 48 209 182 48 211 177 48 26 26 24 26 26 24 26 26 24 26 26 24 41 87 133 37 81 126
26 66 107 26 66 106 36 80 124 30 71 113 52 87 132 35 79 123 31 74 116 27 68 108 31 74 116 104 80 117 78 83 125 31 74 116 35 79 123 22 26 27 22 26 27 22 26 27
22 26 27 22 26 27 22 26 27 22 26 27 22 26 27 22 26 27 89 91 85 88 91 85 98 100 92 85 88 82 96 98 90 92 94 88 93 95 88 104 105 97 96 98 91 82 85 80
105 107 98 87 90 84 88 90 84 90 92 86 22 26 27 22 26 27 22 26 27 90 92 86 89 92 86 81 84 79 104 105 97 100 102 94 22 26 27 22 26 27 22 26 27 22 26 27
22 26 27 22 26 27 22 26 27 22 26 27 22 26 27 22 26 27 22 26 27 22 26 27 22 26 27 22 26 27 22 26 27 22 26 27 22 26 27 22 26 27 22 26 27 22 26 27
22 26 27 64 64 67 61 62 65 56 58 61 66 70 73 59 63 66 58 62 65 53 56 59 69 72 75 58 59 62 61 63 66 76 76 79 74 74 77 63 63 66 70 69 72 87 87 90
78 77 80 87 86 89 78 77 80 90 89 92 78 77 80 88 87 90 85 84 87 68 67 70 85 84 87 89 88 91 77 76 79 78 77 80 78 77 80 76 75 78 68 67 70 87 86 89
66 65 68 86 86 89 71 71 74 83 83 86 63 64 67 79 80 83 55 57 60 50 53 56 48 52 55 58 63 66 68 72 75 52 55 58 59 61 64 69 70 73 71 71 74 77 77 80
69 68 71 78 77 80 76 75 78 79 78 81 78 78 81 81 82 85 66 68 71 50 53 56 57 61 64 60 63 66 64 66 69 78 79 82 53 58 61 45 50 53 52 57 60 62 67 70
60 65 68 60 65 68 64 69 72 49 54 57 47 52 55 62 67 70 56 61 64 59 64 67 63 68 71 51 56 59 48 53 56 43 48 51 57 62 65 53 58 61 58 63 66 54 59 62
22 26 27 22 26 27 22 26 27 89 93 93 77 81 81 91 95 95 22 26 27 84 88 88 83 87 87 89 93 93 73 77 77 22 26 27 86 90 90 85 89 89 86 90 90 80 84 84
34 77 120 41 87 133 31 72 114 36 79 123 38 82 127 32 74 116 34 77 120 35 78 122 40 86 131 29 70 111 67 87 130 36 79 123 64 87 131 35 79 123 55 88 134 84 85 126
40 86 131 26 26 24 26 26 24 26 26 24 26 26 24 214 183 48 210 178 48 213 181 48 208 181 48 213 181 48 208 183 48 205 176 48 209 184 48 214 182 48 206 178 48 214 181 48
207 183 48 16 18 18 16 18 18 16 18 18 16 18 18 16 18 18 16 18 18 16 18 18 16 18 18 16 18 18 211 178 48 215 183 48 209 183 48 209 178 48 16 18 18 16 18 18
16 18 18 16 18 18 16 18 18 16 18 18 16 18 18 16 18 18 16 18 18 16 18 18 16 18 18 16 18 18 16 18 18 16 18 18 16 18 18 215 185 48 16 18 18 16 18 18
16 18 18 211 185 48 208 179 48 210 184 48 205 178 48 207 184 48 216 180 48 210 182 48 213 182 48 210 184 48 213 183 48 205 184 48 211 177 48 212 185 48 211 183 48 207 177 48
214 184 48 212 176 48 214 177 48 205 181 48 209 181 48 207 185 48 211 180 48 209 178 48 211 178 48 208 184 48 26 26 24 26 26 24 26 26 24 26 26 24 41 87 132 30 72 113
52 89 134 28 68 108 42 88 135 35 79 123 74 86 128 33 76 119 107 82 119 32 74 116 31 72 114 40 85 131 40 86 132 34 78 121 29 71 112 22 26 27 22 26 27 22 26 27
22 26 27 22 26 27 22 26 27 22 26 27 22 26 27 22 26 27 84 87 82 95 97 90 99 101 93 102 104 96 101 103 95 98 100 92 108 109 101 86 89 83 93 95 88 103 105 97
83 86 81 96 98 91 96 98 91 88 91 85 22 26 27 22 26 27 22 26 27 81 84 79 87 90 84 89 91 85 91 94 87 102 103 95 22 26 27 22 26 27 22 26 27 22 26 27
22 26 27 22 26 27 22 26 27 22 26 27 22 26 27 22 26 27 22 26 27 22 26 27 22 26 27 22 26 27 22 26 27 22 26 27 22 26 27 22 26 27 22 26 27 22 26 27
22 26 27 58 61 64 55 59 62 54 59 62 54 58 61 58 61 64 62 64 67 68 70 73 74 75 78 71 71 74 79 78 81 74 73 76 78 77 80 68 67 70 90 89 92 69 68 71
72 72 75 74 73 76 81 81 84 84 83 86 71 70 73 80 80 83 65 65 68 68 68 71 74 74 77 64 64 67 75 75 78 70 69 72 68 68 71 75 74 77 73 72 75 80 79 82
78 77 80 68 67 70 70 69 72 65 64 67 71 70 73 77 77 80 72 73 76 69 70 73 67 69 72 54 57 60 61 65 68 43 48 51 61 66 69 71 74 77 67 69 72 79 79 82
84 84 87 84 83 86 72 71 74 70 69 72 66 65 68 71 70 73 67 67 70 72 74 77 69 72 75 57 61 64 50 54 57 73 76 79 71 72 75 54 59 62 47 52 55 57 62 65
61 66 69 58 63 66 60 65 68 54 59 62 52 57 60 41 46 49 41 46 49 41 46 49 55 60 63 63 68 71 62 67 70 59 64 67 49 54 57 45 50 53 63 68 71 41 46 49
22 26 27 22 26 27 22 26 27 86 90 90 86 90 90 73 77 77 22 26 27 72 76 76 82 86 86 72 76 76 74 78 78 22 26 27 69 73 73 89 93 93 79 83 83 91 95 95
35 77 120 33 75 117 39 83 128 35 77 120 95 86 126 33 74 116 43 89 135 43 89 135 40 84 129 38 81 125 41 86 131 45 92 138 37 81 125 43 89 135 33 75 117 75 89 132
114 84 121 26 26 24 26 26 24 26 26 24 26 26 24 213 182 48 216 182 48 208 184 48 214 184 48 214 185 48 210 179 48 211 180 48 209 176 48 214 184 48 207 180 48 208 176 48
205 177 48 16 18 18 16 18 18 16 18 18 16 18 18 16 18 18 16 18 18 16 18 18 16 18 18 16 18 18 216 179 48 205 184 48 213 176 48 209 185 48 16 18 18 16 18 18
16 18 18 16 18 18 16 18 18 16 18 18 16 18 18 16 18 18 16 18 18 16 18 18 16 18 18 16 18 18 16 18 18 16 18 18 16 18 18 209 183 48 16 18 18 16 18 18
16 18 18 215 178 48 205 176 48 208 180 48 215 179 48 206 181 48 206 176 48 207 184 48 211 179 48 213 183 48 207 177 48 213 178 48 216 179 48 214 178 48 212 185 48 216 182 48
205 177 48 206 181 48 207 176 48 209 178 48 213 176 48 209 180 48 208 185 48 214 180 48 206 177 48 206 179 48 26 26 24 26 26 24 26 26 24 26 26 24 36 78 121 38 81 125
44 90 137 38 81 125 103 85 124 32 73 115 34 77 119 43 89 135 104 85 124 62 91 136 35 77 120 30 71 112 49 92 139 42 88 133 115 84 121 22 26 27 22 26 27 22 26 27
22 26 27 22 26 27 22 26 27 22 26 27 22 26 27 22 26 27 105 106 98 106 107 99 96 98 91 108 109 101 93 95 88 89 92 86 103 105 97 83 85 80 103 104 96 85 88 82
87 89 84 85 88 82 99 100 93 91 93 87 22 26 27 22 26 27 22 26 27 87 90 84 107 108 100 107 108 100 103 104 96 105 106 98 22 26 27 22 26 27 22 26 27 22 26 27
22 26 27 22 26 27 22 26 27 22 26 27 22 26 27 22 26 27 22 26 27 22 26 27 22 26 27 22 26 27 22 26 27 22 26 27 22 26 27 22 26 27 22 26 27 22 26 27
22 26 27 46 51 54 57 61 64 60 63 66 56 58 61 59 60 63 67 67 70 70 70 73 71 70 73 89 88 91 72 71 74 72 71 74 70 69 72 74 74 77 86 86 89 71 71 74
81 82 85 80 81 84 60 61 64 74 75 78 69 70 73 55 57 60 69 70 73 61 62 65 69 70 73 70 72 75 78 79 82 77 79 82 81 82 85 71 72 75 68 68 71 63 63 66
76 76 79 75 74 77 76 75 78 84 83 86 71 70 73 80 79 82 70 69 72 68 67 70 81 81 84 76 77 80 61 62 65 59 61 64 56 59 62 58 62 65 61 65 68 53 56 59
62 64 67 80 80 83 65 65 68 86 85 88 86 85 88 87 86 89 68 67 70 67 68 71 60 62 65 62 64 67 58 62 65 51 55 58 68 71 74 78 80 83 63 68 71 42 47 50
44 49 52 45 50 53 46 51 54 50 55 58 62 67 70 64 69 72 62 67 70 56 61 64 41 46 49 47 52 55 62 67 70 53 58 61 56 61 64 47 52 55 42 47 50 48 53 56
22 26 27 22 26 27 22 26 27 87 91 91 74 78 78 91 95 95 22 26 27 74 78 78 70 74 74 69 73 73 71 75 75 22 26 27 87 91 91 76 80 80 82 86 86 91 95 95
42 87 131 116 89 127 45 90 136 57 96 143 41 85 129 42 86 130 44 89 135 35 76 117 50 97 145 50 97 145 40 84 128 49 95 143 120 88 126 46 91 137 122 88 125 48 94 141
42 86 131 26 26 24 26 26 24 26 26 24 26 26 24 210 181 48 208 179 48 209 178 48 206 185 48 209 179 48 205 178 48 207 182 48 209 184 48 206 181 48 206 185 48 216 182 48
216 176 48 16 18 18 16 18 18 16 18 18 16 18 18 16 18 18 16 18 18 16 18 18 16 18 18 16 18 18 215 179 48 215 182 48 216 184 48 208 184 48 16 18 18 16 18 18
16 18 18 16 18 18 16 18 18 16 18 18 16 18 18 16 18 18 16 18 18 16 18 18 16 18 18 16 18 18 16 18 18 16 18 18 16 18 18 206 183 48 16 18 18 16 18 18
16 18 18 215 182 48 205 180 48 210 178 48 205 178 48 207 178 48 214 181 48 206 181 48 206 177 48 212 184 48 207 180 48 208 184 48 206 184 48 209 179 48 216 177 48 214 178 48
212 177 48 215 185 48 213 181 48 213 179 48 210 185 48 211 183 48 207 181 48 210 183 48 214 185 48 215 182 48 26 26 24 26 26 24 26 26 24 26 26 24 45 91 136 41 85 129
94 92 133 41 84 128 39 81 124 42 86 131 50 97 144 121 88 126 45 90 136 98 91 132 84 93 136 40 83 126 81 93 137 42 86 130 45 90 136 22 26 27 22 26 27 22 26 27
22 26 27 22 26 27 22 26 27 22 26 27 22 26 27 22 26 27 105 106 98 88 90 84 104 105 97 94 96 89 104 105 97 101 102 95 91 94 87 84 86 81 82 85 80 106 107 99
104 105 97 98 100 92 86 89 83 93 95 88 22 26 27 22 26 27 22 26 27 83 86 80 83 86 81 88 90 84 80 83 78 100 101 94 22 26 27 22 26 27 22 26 27 22 26 27
22 26 27 22 26 27 22 26 27 22 26 27 22 26 27 22 26 27 22 26 27 22 26 27 22 26 27 22 26 27 22 26 27 22 26 27 22 26 27 22 26 27 22 26 27 22 26 27
22 26 27 51 54 57 71 73 76 67 68 71 63 63 66 73 72 75 70 70 73 71 70 73 86 85 88 81 80 83 67 67 70 68 68 71 79 79 82 81 82 85 59 61 64 76 78 81
51 53 56 53 56 59 50 53 56 48 51 54 60 64 67 56 60 63 66 70 73 55 59 62 62 66 69 58 63 66 51 55 58 64 68 71 60 64 67 58 61 64 57 60 63 74 76 79
59 61 64 56 58 61 68 68 71 61 61 64 86 86 89 69 69 72 71 70 73 89 88 91 89 88 91 89 88 91 74 73 76 78 78 81 72 73 76 67 70 73 61 65 68 48 53 56
69 72 75 68 71 74 66 68 71 77 77 80 88 87 90 67 66 69 90 89 92 73 73 76 77 77 80 67 68 71 68 70 73 62 66 69 52 56 59 59 62 65 70 71 74 53 58 61
45 50 53 55 60 63 53 58 61 64 69 72 44 49 52 54 59 62 42 47 50 63 68 71 48 53 56 43 48 51 45 50 53 41 46 49 54 59 62 48 53 56 42 47 50 64 69 72
22 26 27 22 26 27 22 26 27 76 80 80 92 96 96 74 78 78 22 26 27 80 84 84 75 79 79 74 78 78 80 84 84 22 26 27 86 90 90 93 97 97 80 84 84 76 80 80
47 91 136 55 102 151 52 99 146 43 85 129 120 95 134 41 82 125 42 84 126 41 83 126 41 83 125 55 102 150 47 91 136 50 96 142 43 86 130 41 83 126 51 97 144 43 86 129
42 85 128 26 26 24 26 26 24 26 26 24 26 26 24 209 182 48 207 180 48 209 185 48 208 181 48 205 177 48 210 183 48 213 181 48 206 180 48 207 180 48 208 183 48 210 178 48
210 178 48 16 18 18 16 18 18 16 18 18 16 18 18 16 18 18 16 18 18 16 18 18 16 18 18 16 18 18 205 179 48 210 184 48 208 180 48 214 183 48 16 18 18 16 18 18
16 18 18 16 18 18 16 18 18 16 18 18 16 18 18 16 18 18 16 18 18 16 18 18 16 18 18 16 18 18 16 18 18 16 18 18 16 18 18 212 182 48 16 18 18 16 18 18
16 18 18 214 178 48 211 181 48 209 177 48 208 176 48 206 185 48 213 181 48 208 177 48 210 177 48 206 177 48 212 179 48 208 181 48 207 184 48 210 178 48 205 185 48 212 177 48
214 184 48 207 180 48 212 178 48 205 181 48 207 179 48 214 182 48 214 180 48 207 177 48 210 179 48 215 184 48 26 26 24 26 26 24 26 26 24 26 26 24 49 93 139 52 98 145
130 94 132 48 92 137 52 99 146 53 100 148 54 101 149 45 89 133 42 84 126 44 87 131 53 100 148 43 85 129 47 90 135 43 85 128 55 103 151 22 26 27 22 26 27 22 26 27
22 26 27 22 26 27 22 26 27 22 26 27 22 26 27 22 26 27 83 86 80 95 97 90 81 84 79 96 98 91 101 103 95 89 92 86 88 91 85 107 108 99 93 96 89 103 105 96
104 105 97 88 90 84 83 86 80 107 109 100 22 26 27 22 26 27 22 26 27 97 99 92 83 86 80 99 101 93 105 107 98 88 90 84 22 26 27 22 26 27 22 26 27 22 26 27
22 26 27 22 26 27 22 26 27 22 26 27 22 26 27 22 26 27 22 26 27 22 26 27 22 26 27 22 26 27 22 26 27 22 26 27 22 26 27 22 26 27 22 26 27 22 26 27
22 26 27 77 78 81 68 68 71 74 73 76 75 74 77 78 77 80 81 81 84 66 66 69 72 72 75 73 74 77 64 65 68 76 78 81 61 64 67 48 51 54 59 63 66 46 51 54
59 64 67 63 68 71 50 54 57 70 73 76 52 55 58 50 53 56 52 55 58 67 69 72 49 52 55 66 69 72 49 52 55 66 70 73 62 65 68 46 50 53 61 66 69 47 52 55
64 68 71 55 59 62 68 71 74 52 54 57 61 63 66 63 64 67 74 74 77 73 73 76 67 66 69 80 79 82 68 67 70 73 72 75 67 67 70 59 60 63 69 70 73 73 75 78
44 48 51 65 70 73 65 68 71 66 68 71 70 71 74 78 78 81 80 80 83 79 78 81 76 75 78 80 80 83 77 78 81 55 58 61 44 48 51 52 56 59 70 73 76 66 68 71
55 60 63 59 64 67 47 52 55 42 47 50 57 62 65 43 48 51 45 50 53 49 54 57 41 46 49 61 66 69 48 53 56 62 67 70 62 67 70 45 50 53 55 60 63 54 59 62
22 26 27 22 26 27 22 26 27 78 82 82 74 78 78 81 85 85 22 26 27 80 84 84 72 76 76 78 82 82 72 76 76 22 26 27 76 80 80 83 87 87 90 94 94 86 90 90
47 90 133 56 102 149 54 100 146 54 99 146 57 104 151 58 105 153 60 107 156 59 105 153 66 109 158 46 87 130 50 93 138 61 108 157 49 92 136 86 107 152 57 103 151 50 93 138
51 94 139 26 26 24 26 26 24 26 26 24 26 26 24 210 182 48 216 179 48 212 183 48 214 182 48 215 183 48 215 176 48 213 177 48 208 180 48 211 178 48 211 184 48 214 177 48
214 179 48 16 18 18 16 18 18 16 18 18 16 18 18 16 18 18 16 18 18 16 18 18 16 18 18 16 18 18 210 179 48 206 184 48 205 176 48 207 185 48 16 18 18 16 18 18
16 18 18 16 18 18 16 18 18 16 18 18 16 18 18 16 18 18 16 18 18 16 18 18 16 18 18 16 18 18 16 18 18 16 18 18 16 18 18 213 184 48 16 18 18 16 18 18
16 18 18 215 177 48 213 181 48 206 177 48 215 182 48 212 177 48 208 181 48 206 183 48 210 179 48 208 176 48 216 184 48 207 183 48 215 183 48 215 178 48 213 183 48 208 176 48
206 184 48 213 177 48 207 177 48 216 184 48 214 178 48 206 176 48 206 184 48 214 182 48 216 183 48 206 180 48 26 26 24 26 26 24 26 26 24 26 26 24 57 103 151 111 103 146
59 107 155 51 95 140 59 105 153 57 103 150 68 109 157 50 93 138 55 100 147 51 94 139 51 95 140 58 104 152 57 103 150 87 107 152 54 99 145 22 26 27 22 26 27 22 26 27
22 26 27 22 26 27 22 26 27 22 26 27 22 26 27 22 26 27 84 87 81 91 93 87 106 108 99 101 103 95 86 88 83 96 98 91 92 94 88 88 91 84 96 98 90 86 89 83
107 108 100 83 86 81 97 99 92 108 109 100 22 26 27 22 26 27 22 26 27 89 92 85 97 99 91 90 93 86 87 89 83 103 104 96 22 26 27 22 26 27 22 26 27 22 26 27
22 26 27 22 26 27 22 26 27 22 26 27 22 26 27 22 26 27 22 26 27 22 26 27 22 26 27 22 26 27 22 26 27 22 26 27 22 26 27 22 26 27 22 26 27 22 26 27
22 26 27 73 73 76 88 87 90 68 67 70 72 72 75 68 67 70 68 69 72 65 66 69 70 71 74 56 58 61 56 59 62 57 61 64 62 67 70 54 58 61 67 70 73 62 65 68
60 62 65 66 67 70 65 67 70 74 75 78 61 61 64 67 68 71 63 63 66 75 75 78 74 74 77 62 63 66 63 63 66 62 63 66 70 71 74 58 60 63 68 69 72 74 77 80
60 63 66 64 67 70 43 48 51 58 63 66 67 71 74 53 56 59 66 68 71 70 71 74 70 71 74 70 70 73 88 87 90 82 81 84 71 70 73 77 77 80 79 79 82 68 69 72
60 62 65 66 70 73 61 66 69 64 67 70 72 74 77 73 74 77 69 69 72 74 73 76 86 85 88 75 74 77 64 64 67 80 81 84 68 71 74 46 50 53 60 64 67 67 70 73
68 69 72 62 67 70 50 55 58 61 66 69 62 67 70 48 53 56 54 59 62 48 53 56 49 54 57 47 52 55 64 69 72 43 48 51 58 63 66 46 51 54 59 64 67 40 45 48
22 26 27 22 26 27 22 26 27 84 88 88 78 82 82 72 76 76 22 26 27 72 76 76 76 80 80 77 81 81 73 77 77 22 26 27 92 96 96 70 74 74 88 92 92 72 76 76
56 100 146 60 105 153 53 97 141 51 93 137 53 96 141 54 98 143 51 94 138 66 115 165 54 97 143 56 100 146 55 99 144 132 107 147 66 114 164 111 109 153 64 112 161 59 104 151
112 109 153 26 26 24 26 26 24 26 26 24 26 26 24 211 182 48 206 184 48 214 185 48 214 181 48 213 183 48 209 184 48 214 178 48 213 180 48 213 177 48 212 176 48 208 180 48
214 182 48 16 18 18 16 18 18 16 18 18 16 18 18 16 18 18 16 18 18 16 18 18 16 18 18 16 18 18 213 179 48 213 178 48 213 183 48 213 176 48 16 18 18 16 18 18
16 18 18 16 18 18 16 18 18 16 18 18 16 18 18 16 18 18 16 18 18 16 18 18 16 18 18 16 18 18 16 18 18 16 18 18 16 18 18 205 178 48 16 18 18 16 18 18
16 18 18 208 185 48 214 182 48 214 176 48 211 181 48 210 180 48 216 185 48 208 179 48 206 177 48 207 178 48 209 181 48 207 181 48 213 181 48 208 183 48 208 176 48 215 185 48
211 176 48 213 179 48 213 180 48 206 181 48 215 184 48 215 180 48 205 176 48 215 180 48 212 177 48 205 177 48 26 26 24 26 26 24 26 26 24 26 26 24 111 109 153 115 109 152
51 93 138 91 112 159 62 108 156 55 98 144 55 98 144 59 105 152 57 101 147 51 92 136 62 108 156 63 110 158 62 109 157 65 113 162 51 93 137 22 26 27 22 26 27 22 26 27
22 26 27 22 26 27 22 26 27 22 26 27 22 26 27 22 26 27 84 87 81 87 89 84 88 91 85 95 97 90 84 86 81 90 92 86 93 95 88 91 93 87 86 88 82 91 94 87
92 95 88 105 106 98 86 89 83 93 96 89 22 26 27 22 26 27 22 26 27 96 98 91 94 96 89 89 92 85 109 110 102 100 102 94 22 26 27 22 26 27 22 26 27 22 26 27
22 26 27 22 26 27 22 26 27 22 26 27 22 26 27 22 26 27 22 26 27 22 26 27 22 26 27 22 26 27 22 26 27 22 26 27 22 26 27 22 26 27 22 26 27 22 26 27
22 26 27 68 67 70 88 87 90 68 68 71 85 85 88 80 81 84 70 72 75 54 56 59 62 66 69 50 55 58 66 70 73 62 65 68 66 68 71 76 78 81 60 61 64 62 62 65
73 73 76 84 84 87 87 86 89 66 66 69 68 67 70 86 85 88 87 86 89 87 86 89 70 69 72 86 85 88 85 84 87 70 69 72 73 72 75 83 83 86 76 76 79 85 85 88
65 65 68 59 60 63 64 66 69 62 65 68 64 68 71 48 52 55 57 61 64 49 52 55 69 71 74 75 76 79 71 71 74 77 76 79 86 86 89 68 67 70 76 75 78 73 73 76
70 71 74 65 67 70 67 70 73 50 54 57 62 66 69 63 65 68 62 63 66 85 85 88 79 78 81 87 86 89 71 70 73 78 78 81 61 62 65 54 56 59 54 59 62 63 67 70
69 72 75 67 68 71 55 60 63 56 61 64 48 53 56 63 68 71 51 56 59 50 55 58 53 58 61 61 66 69 54 59 62 57 62 65 64 69 72 60 65 68 50 55 58 56 61 64
22 26 27 22 26 27 22 26 27 78 82 82 71 75 75 86 90 90 22 26 27 82 86 86 69 73 73 78 82 82 74 78 78 22 26 27 92 96 96 86 90 90 80 84 84 74 78 78
63 110 158 55 98 143 55 98 143 64 111 159 66 113 162 53 95 139 60 104 151 61 106 153 145 108 147 66 113 162 60 104 151 56 99 144 128 110 152 64 111 159 61 106 153 68 116 167
117 112 155 26 26 24 26 26 24 26 26 24 26 26 24 212 177 48 206 184 48 210 177 48 209 183 48 211 176 48 207 184 48 208 184 48 206 184 48 214 180 48 213 177 48 216 178 48
206 185 48 16 18 18 16 18 18 16 18 18 16 18 18 16 18 18 16 18 18 16 18 18 16 18 18 16 18 18 207 183 48 212 183 48 216 185 48 205 182 48 16 18 18 16 18 18
16 18 18 16 18 18 16 18 18 16 18 18 16 18 18 16 18 18 16 18 18 16 18 18 16 18 18 16 18 18 16 18 18 16 18 18 16 18 18 211 179 48 16 18 18 16 18 18
16 18 18 207 184 48 206 182 48 205 177 48 207 182 48 210 182 48 212 183 48 212 185 48 207 179 48 211 184 48 213 183 48 205 182 48 206 176 48 212 180 48 215 176 48 209 178 48
208 181 48 209 183 48 216 178 48 208 180 48 211 176 48 206 183 48 206 183 48 212 183 48 208 179 48 211 181 48 26 26 24 26 26 24 26 26 24 26 26 24 53 95 139 64 111 160
61 106 153 63 110 158 62 107 155 57 101 147 62 108 156 63 109 158 58 103 149 56 99 144 66 114 163 61 106 153 64 110 159 72 117 168 61 107 154 22 26 27 22 26 27 22 26 27
22 26 27 22 26 27 22 26 27 22 26 27 22 26 27 22 26 27 100 102 94 93 95 88 95 97 90 80 83 78 107 108 100 97 99 92 86 89 83 86 89 83 83 86 81 90 92 86
86 88 82 100 102 94 99 101 93 86 88 83 22 26 27 22 26 27 22 26 27 104 106 97 95 97 90 101 103 95 86 88 83 103 104 96 22 26 27 22 26 27 22 26 27 22 26 27
22 26 27 22 26 27 22 26 27 22 26 27 22 26 27 22 26 27 22 26 27 22 26 27 22 26 27 22 26 27 22 26 27 22 26 27 22 26 27 22 26 27 22 26 27 22 26 27
22 26 27 87 86 89 77 77 80 68 68 71 72 74 77 63 66 69 47 51 54 55 59 62 63 66 69 51 54 57 69 71 74 61 62 65 80 80 83 77 77 80 88 88 91 84 83 86
69 68 71 84 83 86 78 77 80 72 71 74 69 68 71 75 75 78 82 81 84 76 75 78 66 65 68 72 71 74 79 79 82 77 76 79 80 79 82 88 87 90 73 72 75 72 72 75
75 74 77 66 66 69 74 75 78 75 76 79 65 66 69 68 70 73 62 66 69 57 62 65 65 69 72 64 67 70 66 68 71 82 83 86 75 75 78 83 82 85 89 88 91 78 77 80
68 67 70 82 83 86 59 61 64 57 60 63 54 58 61 60 64 67 70 73 76 67 68 71 65 65 68 69 68 71 72 71 74 66 65 68 67 68 71 58 60 63 51 53 56 52 57 60
50 53 56 66 68 71 77 78 81 48 53 56 51 56 59 47 52 55 45 50 53 40 45 48 48 53 56 48 53 56 49 54 57 50 55 58 45 50 53 50 55 58 64 69 72 57 62 65
22 26 27 22 26 27 22 26 27 82 86 86 82 86 86 88 92 92 22 26 27 73 77 77 72 76 76 88 92 92 86 90 90 22 26 27 83 87 87 93 97 97 70 74 74 73 77 77
62 108 156 60 105 152 83 115 164 75 116 166 60 106 153 68 116 167 62 108 156 60 105 152 57 101 147 74 116 166 57 101 147 67 115 164 58 102 149 64 111 160 55 98 144 56 99 144
61 106 153 26 26 24 26 26 24 26 26 24 26 26 24 212 182 48 212 180 48 215 185 48 213 181 48 211 183 48 207 179 48 205 184 48 211 182 48 213 181 48 207 185 48 214 183 48
214 181 48 16 18 18 16 18 18 16 18 18 16 18 18 16 18 18 16 18 18 16 18 18 16 18 18 16 18 18 211 184 48 207 184 48 209 180 48 208 180 48 16 18 18 16 18 18
16 18 18 16 18 18 16 18 18 16 18 18 16 18 18 16 18 18 16 18 18 16 18 18 16 18 18 16 18 18 16 18 18 16 18 18 16 18 18 207 182 48 16 18 18 16 18 18
16 18 18 206 181 48 208 185 48 213 180 48 210 176 48 213 179 48 216 181 48 214 177 48 214 180 48 208 179 48 212 179 48 208 179 48 211 176 48 211 181 48 209 179 48 209 180 48
208 179 48 207 179 48 205 176 48 205 177 48 214 178 48 207 177 48 206 178 48 212 177 48 213 181 48 216 179 48 26 26 24 26 26 24 26 26 24 26 26 24 53 95 139 65 112 162
53 95 139 57 101 147 55 98 143 86 115 163 62 108 156 53 95 139 63 109 157 52 94 138 54 96 141 67 114 164 58 102 148 66 114 164 54 97 142 22 26 27 22 26 27 22 26 27
22 26 27 22 26 27 22 26 27 22 26 27 22 26 27 22 26 27 97 99 91 102 103 95 81 84 79 90 92 86 89 91 85 94 96 89 103 104 96 94 96 89 83 86 81 106 107 99
97 99 92 95 97 90 89 91 85 109 110 101 22 26 27 22 26 27 22 26 27 91 94 87 94 96 89 108 109 101 87 89 83 108 109 101 22 26 27 22 26 27 22 26 27 22 26 27
22 26 27 22 26 27 22 26 27 22 26 27 22 26 27 22 26 27 22 26 27 22 26 27 22 26 27 22 26 27 22 26 27 22 26 27 22 26 27 22 26 27 22 26 27 22 26 27
22 26 27 67 67 70 77 77 80 65 68 71 56 59 62 52 57 60 55 59 62 74 77 80 71 73 76 73 74 77 65 65 68 80 79 82 81 81 84 67 66 69 72 71 74 83 83 86
78 77 80 66 65 68 72 72 75 82 82 85 61 61 64 68 68 71 74 75 78 74 75 78 68 69 72 79 79 82 70 71 74 74 74 77 78 78 81 72 72 75 69 69 72 78 77 80
77 76 79 80 79 82 84 83 86 74 73 76 80 80 83 75 75 78 70 72 75 75 77 80 54 57 60 55 60 63 67 71 74 54 57 60 79 80 83 82 83 86 83 82 85 81 80 83
79 78 81 70 70 73 68 68 71 72 73 76 51 54 57 62 66 69 67 71 74 64 66 69 74 75 78 83 83 86 66 65 68 77 76 79 79 79 82 71 71 74 72 74 77 55 58 61
56 61 64 48 51 54 70 71 74 42 47 50 44 49 52 42 47 50 41 46 49 47 52 55 56 61 64 60 65 68 53 58 61 49 54 57 49 54 57 46 51 54 52 57 60 47 52 55
22 26 27 22 26 27 22 26 27 93 97 97 87 91 91 71 75 75 22 26 27 89 93 93 77 81 81 91 95 95 82 86 86 22 26 27 75 79 79 89 93 93 82 86 86 75 79 79
75 112 160 54 98 144 62 108 157 49 91 135 51 94 139 65 113 163 64 113 162 64 111 161 58 103 150 57 102 148 53 96 141 94 109 155 51 94 138 56 100 147 65 113 163 56 101 147
51 93 138 26 26 24 26 26 24 26 26 24 26 26 24 206 182 48 207 182 48 206 185 48 207 179 48 205 183 48 215 176 48 214 184 48 215 184 48 209 176 48 213 184 48 214 182 48
207 183 48 16 18 18 16 18 18 16 18 18 16 18 18 16 18 18 16 18 18 16 18 18 16 18 18 16 18 18 211 181 48 211 185 48 206 178 48 206 180 48 16 18 18 16 18 18
16 18 18 16 18 18 16 18 18 16 18 18 16 18 18 16 18 18 16 18 18 16 18 18 16 18 18 16 18 18 16 18 18 16 18 18 16 18 18 216 185 48 16 18 18 16 18 18
16 18 18 214 185 48 207 178 48 212 178 48 213 180 48 205 183 48 214 178 48 214 177 48 212 176 48 214 182 48 213 180 48 213 179 48 213 179 48 215 184 48 206 180 48 206 179 48
212 180 48 207 182 48 213 178 48 214 183 48 206 181 48 214 176 48 208 177 48 206 185 48 208 182 48 213 182 48 26 26 24 26 26 24 26 26 24 26 26 24 102 108 153 58 103 150
49 90 134 58 104 151 83 111 158 80 111 159 58 103 151 57 102 149 54 98 144 53 96 141 60 107 155 62 109 158 53 97 142 62 109 158 49 90 134 22 26 27 22 26 27 22 26 27
22 26 27 22 26 27 22 26 27 22 26 27 22 26 27 22 26 27 108 109 100 98 100 92 106 108 99 83 86 81 81 84 79 85 88 82 84 87 81 82 85 80 90 92 86 105 106 98
101 102 95 88 91 85 81 84 79 92 94 87 22 26 27 22 26 27 22 26 27 86 89 83 86 89 83 94 96 89 102 104 96 101 102 94 22 26 27 22 26 27 22 26 27 22 26 27
22 26 27 22 26 27 22 26 27 22 26 27 22 26 27 22 26 27 22 26 27 22 26 27 22 26 27 22 26 27 22 26 27 22 26 27 22 26 27 22 26 27 22 26 27 22 26 27
22 26 27 74 75 78 53 56 59 54 58 61 51 56 59 64 67 70 55 57 60 79 80 83 63 63 66 75 75 78 68 67 70 77 76 79 73 73 76 79 79 82 81 80 83 82 82 85
60 61 64 76 77 80 64 66 69 53 55 58 55 57 60 53 55 58 58 61 64 65 68 71 51 54 57 50 53 56 63 66 69 74 76 79 75 77 80 70 72 75 62 63 66 61 61 64
70 70 73 70 69 72 79 78 81 82 81 84 80 79 82 81 80 83 83 83 86 78 78 81 71 72 75 54 57 60 45 48 51 43 47 50 63 66 69 72 74 77 62 63 66 75 75 78
83 83 86 68 67 70 89 88 91 64 64 67 65 66 69 57 59 62 56 61 64 57 61 64 68 70 73 63 64 67 81 81 84 84 83 86 79 78 81 80 79 82 72 73 76 67 69 72
61 64 67 43 48 51 59 62 65 74 75 78 58 63 66 55 60 63 52 57 60 52 57 60 47 52 55 61 66 69 54 59 62 56 61 64 63 68 71 62 67 70 60 65 68 54 59 62
22 26 27 22 26 27 22 26 27 81 85 85 82 86 86 84 88 88 22 26 27 90 94 94 85 89 89 92 96 96 88 92 92 22 26 27 76 80 80 89 93 93 80 84 84 82 86 86
57 104 153 52 96 143 105 101 144 50 94 139 49 93 138 48 92 136 48 91 135 49 93 138 54 99 146 44 86 130 59 106 155 46 89 133 47 90 134 48 91 135 45 87 131 54 100 147
55 102 149 26 26 24 26 26 24 26 26 24 26 26 24 213 183 48 207 185 48 206 181 48 216 181 48 210 182 48 207 178 48 213 184 48 211 180 48 213 176 48 206 178 48 205 177 48
208 181 48 16 18 18 16 18 18 16 18 18 16 18 18 16 18 18 16 18 18 16 18 18 16 18 18 16 18 18 211 176 48 213 180 48 215 181 48 208 177 48 16 18 18 16 18 18
16 18 18 16 18 18 16 18 18 16 18 18 16 18 18 16 18 18 16 18 18 16 18 18 16 18 18 16 18 18 16 18 18 16 18 18 16 18 18 211 182 48 16 18 18 16 18 18
16 18 18 210 181 48 205 179 48 211 178 48 216 185 48 211 183 48 206 182 48 208 180 48 213 177 48 213 178 48 206 180 48 210 176 48 209 179 48 216 180 48 213 184 48 205 180 48
211 183 48 216 177 48 211 178 48 210 184 48 213 184 48 212 181 48 205 177 48 211 182 48 211 179 48 214 178 48 26 26 24 26 26 24 26 26 24 26 26 24 59 107 156 83 104 150
43 85 127 52 97 143 44 86 129 44 86 130 51 95 141 45 87 131 44 86 128 57 104 153 50 94 140 50 94 139 103 102 144 50 94 139 57 103 151 22 26 27 22 26 27 22 26 27
22 26 27 22 26 27 22 26 27 22 26 27 22 26 27 22 26 27 109 110 101 83 86 81 99 101 94 97 99 92 90 92 86 92 95 88 96 98 91 93 96 89 84 86 81 86 89 83
91 93 87 81 84 79 105 106 98 102 103 96 22 26 27 22 26 27 22 26 27 107 108 99 96 98 91 104 105 97 93 95 89 104 105 97 22 26 27 22 26 27 22 26 27 22 26 27
22 26 27 22 26 27 22 26 27 22 26 27 22 26 27 22 26 27 22 26 27 22 26 27 22 26 27 22 26 27 22 26 27 22 26 27 22 26 27 22 26 27 22 26 27 22 26 27
22 26 27 55 58 61 46 51 54 50 54 57 62 64 67 80 81 84 70 70 73 79 78 81 74 73 76 71 70 73 83 82 85 68 67 70 68 68 71 67 68 71 64 66 69 72 74 77
60 64 67 66 70 73 54 58 61 51 55 58 54 59 62 46 50 53 60 65 68 59 63 66 46 50 53 55 59 62 47 51 54 50 55 58 51 55 58 63 67 70 54 58 61 66 68 71
55 57 60 68 69 72 82 83 86 65 65 68 88 87 90 79 78 81 87 86 89 82 81 84 67 67 70 62 63 66 54 56 59 67 70 73 40 45 48 58 61 64 75 77 80 60 60 63
68 68 71 79 79 82 86 85 88 75 75 78 68 68 71 63 65 68 55 58 61 54 59 62 58 61 64 70 72 75 69 69 72 69 68 71 89 88 91 78 78 81 79 78 81 73 74 77
66 68 71 46 50 53 50 54 57 61 63 66 82 83 86 55 60 63 58 63 66 55 60 63 44 49 52 53 58 61 63 68 71 52 57 60 46 51 54 63 68 71 51 56 59 59 64 67
22 26 27 22 26 27 22 26 27 83 87 87 91 95 95 70 74 74 22 26 27 70 74 74 77 81 81 74 78 78 71 75 75 22 26 27 89 93 93 71 75 75 77 81 81 70 74 74
75 98 143 50 96 143 47 92 137 47 92 137 37 78 120 41 84 127 93 96 138 47 92 138 41 84 127 79 97 142 63 99 146 124 92 130 40 82 126 44 88 132 40 82 124 43 87 131
53 100 149 26 26 24 26 26 24 26 26 24 26 26 24 206 180 48 214 182 48 216 183 48 211 178 48 205 184 48 207 183 48 207 176 48 207 185 48 216 184 48 209 178 48 205 178 48
215 180 48 16 18 18 16 18 18 16 18 18 16 18 18 16 18 18 16 18 18 16 18 18 16 18 18 16 18 18 205 184 48 215 183 48 212 176 48 208 184 48 16 18 18 16 18 18
16 18 18 16 18 18 16 18 18 16 18 18 16 18 18 16 18 18 16 18 18 16 18 18 16 18 18 16 18 18 16 18 18 16 18 18 16 18 18 209 179 48 16 18 18 16 18 18
16 18 18 212 185 48 213 178 48 208 180 48 211 180 48 216 176 48 216 182 48 214 177 48 216 178 48 213 185 48 216 181 48 211 185 48 205 178 48 209 184 48 208 182 48 214 178 48
205 184 48 213 178 48 214 176 48 212 178 48 216 179 48 208 180 48 205 179 48 207 180 48 214 177 48 206 177 48 26 26 24 26 26 24 26 26 24 26 26 24 38 79 122 42 85 129
118 92 131 39 80 123 41 83 127 53 100 148 49 95 141 48 94 140 122 92 130 49 94 141 45 90 135 53 100 149 101 95 136 97 95 137 46 91 137 22 26 27 22 26 27 22 26 27
22 26 27 22 26 27 22 26 27 22 26 27 22 26 27 22 26 27 102 104 96 102 104 96 95 97 90 94 96 89 85 87 82 82 85 79 93 95 88 89 91 85 83 86 80 110 111 102
100 101 94 91 93 86 104 105 97 106 108 99 22 26 27 22 26 27 22 26 27 81 84 79 108 109 100 81 83 78 96 98 91 98 100 92 22 26 27 22 26 27 22 26 27 22 26 27
22 26 27 22 26 27 22 26 27 22 26 27 22 26 27 22 26 27 22 26 27 22 26 27 22 26 27 22 26 27 22 26 27 22 26 27 22 26 27 22 26 27 22 26 27 22 26 27
22 26 27 63 68 71 69 72 75 70 72 75 71 72 75 73 73 76 68 67 70 67 66 69 89 88 91 65 64 67 67 67 70 65 66 69 68 69 72 55 58 61 69 73 76 61 66 69
62 66 69 66 70 73 51 54 57 67 70 73 57 59 62 60 62 65 56 58 61 71 73 76 58 60 63 59 60 63 66 67 70 59 61 64 51 54 57 61 65 68 52 56 59 53 58 61
63 68 71 53 56 59 65 67 70 62 63 66 72 72 75 67 67 70 89 88 91 74 73 76 73 73 76 71 71 74 63 64 67 66 68 71 57 60 63 50 55 58 53 57 60 63 65 68
73 73 76 83 83 86 86 86 89 81 80 83 70 69 72 82 82 85 62 64 67 64 67 70 50 55 58 50 53 56 77 78 81 69 69 72 84 83 86 66 65 68 71 70 73 66 66 69
55 56 59 65 69 72 48 53 56 52 55 58 66 67 70 50 55 58 44 49 52 54 59 62 43 48 51 57 62 65 53 58 61 45 50 53 50 55 58 49 54 57 55 60 63 63 68 71
22 26 27 22 26 27 22 26 27 73 77 77 70 74 74 77 81 81 22 26 27 70 74 74 76 80 80 91 95 95 88 92 92 22 26 27 75 79 79 82 86 86 89 93 93 74 78 78
34 76 118 45 91 138 39 83 127 48 95 142 47 94 141 42 87 132 35 77 119 39 82 125 37 79 122 44 89 134 36 78 121 41 86 130 43 87 133 94 89 130 32 73 114 33 74 116
67 93 138 26 26 24 26 26 24 26 26 24 26 26 24 212 183 48 207 185 48 212 185 48 206 184 48 214 182 48 209 182 48 210 182 48 208 183 48 212 179 48 208 185 48 209 178 48
215 181 48 16 18 18 16 18 18 16 18 18 16 18 18 16 18 18 16 18 18 16 18 18 16 18 18 16 18 18 206 183 48 208 184 48 216 180 48 214 179 48 16 18 18 16 18 18
16 18 18 16 18 18 16 18 18 16 18 18 16 18 18 16 18 18 16 18 18 16 18 18 16 18 18 16 18 18 16 18 18 16 18 18 16 18 18 208 185 48 16 18 18 16 18 18
16 18 18 212 179 48 211 185 48 214 179 48 215 180 48 213 177 48 210 176 48 205 177 48 207 176 48 211 178 48 216 184 48 210 176 48 206 184 48 214 177 48 215 179 48 214 181 48
209 180 48 206 178 48 209 178 48 208 181 48 214 184 48 213 180 48 210 176 48 210 178 48 211 183 48 211 179 48 26 26 24 26 26 24 26 26 24 26 26 24 38 81 124 103 88 128
35 77 120 47 93 140 36 78 120 41 85 129 33 74 115 36 79 121 33 73 115 45 91 138 48 95 142 64 93 138 47 93 140 125 85 122 48 95 143 22 26 27 22 26 27 22 26 27
22 26 27 22 26 27 22 26 27 22 26 27 22 26 27 22 26 27 92 94 88 87 89 83 90 92 86 87 90 84 87 89 83 108 109 100 94 96 89 86 88 83 96 98 91 94 96 89
99 101 93 108 109 100 80 83 78 94 96 89 22 26 27 22 26 27 22 26 27 109 110 101 104 106 97 93 95 88 101 103 95 87 90 84 22 26 27 22 26 27 22 26 27 22 26 27
22 26 27 22 26 27 22 26 27 22 26 27 22 26 27 22 26 27 22 26 27 22 26 27 22 26 27 22 26 27 22 26 27 22 26 27 22 26 27 22 26 27 22 26 27 22 26 27
22 26 27 55 59 62 71 73 76 82 83 86 79 78 81 85 84 87 70 69 72 85 84 87 82 81 84 79 80 83 72 74 77 67 70 73 57 61 64 51 56 59 70 74 77 57 60 63
70 72 75 57 58 61 75 76 79 70 70 73 81 81 84 78 77 80 80 80 83 77 77 80 64 64 67 81 81 84 72 72 75 69 69 72 65 65 68 68 69 72 69 70 73 64 66 69
63 66 69 62 66 69 58 63 66 58 62 65 66 68 71 63 64 67 78 78 81 78 78 81 75 74 77 83 82 85 74 73 76 65 65 68 56 57 60 67 70 73 49 54 57 51 55 58
60 62 65 68 69 72 71 71 74 89 88 91 67 66 69 75 75 78 60 60 63 73 75 78 56 60 63 52 57 60 66 69 72 58 59 62 79 79 82 73 72 75 79 78 81 80 80 83
81 82 85 71 73 76 64 68 71 56 60 63 66 68 71 68 69 72 58 63 66 59 64 67 43 48 51 53 58 61 51 56 59 54 59 62 45 50 53 53 58 61 63 68 71 43 48 51
22 26 27 22 26 27 22 26 27 80 84 84 91 95 95 87 91 91 22 26 27 81 85 85 81 85 85 90 94 94 75 79 79 22 26 27 74 78 78 69 73 73 87 91 91 77 81 81
31 72 113 44 91 138 91 86 126 31 73 114 43 89 135 42 88 134 40 84 129 33 75 118 32 74 116 42 87 133 120 82 118 95 85 125 33 75 118 31 72 114 69 88 132 109 83 121
33 74 117 26 26 24 26 26 24 26 26 24 26 26 24 215 177 48 216 183 48 216 180 48 215 181 48 211 181 48 213 176 48 208 177 48 211 179 48 206 176 48 206 178 48 205 185 48
216 176 48 208 184 48 214 176 48 207 185 48 207 185 48 214 178 48 207 176 48 215 180 48 205 176 48 215 177 48 205 179 48 214 185 48 206 184 48 216 181 48 205 185 48 210 176 48
215 178 48 213 180 48 216 182 48 213 180 48 213 184 48 207 178 48 216 177 48 215 180 48 208 185 48 213 185 48 216 184 48 206 176 48 207 181 48 210 182 48 215 183 48 207 183 48
206 181 48 211 183 48 212 177 48 207 178 48 214 179 48 208 180 48 216 178 48 206 181 48 214 182 48 208 185 48 205 177 48 212 177 48 210 176 48 215 184 48 212 184 48 212 178 48
213 182 48 207 182 48 206 181 48 212 180 48 209 185 48 215 181 48 206 183 48 207 182 48 210 181 48 205 179 48 26 26 24 26 26 24 26 26 24 26 26 24 32 74 116 43 89 135
29 70 111 115 83 119 43 89 136 107 84 121 113 83 120 39 83 128 43 89 136 43 89 135 31 72 114 54 90 136 88 86 127 44 90 137 42 87 133 22 26 27 22 26 27 22 26 27
22 26 27 22 26 27 22 26 27 22 26 27 22 26 27 22 26 27 97 99 92 81 84 79 91 94 87 105 106 98 108 109 100 108 109 100 106 107 99 103 104 96 81 84 79 88 91 85
80 83 78 105 107 98 108 109 100 103 105 96 22 26 27 22 26 27 22 26 27 81 84 79 83 86 81 83 85 80 109 110 101 98 99 92 22 26 27 22 26 27 22 26 27 22 26 27
22 26 27 22 26 27 22 26 27 22 26 27 22 26 27 22 26 27 22 26 27 22 26 27 22 26 27 22 26 27 22 26 27 22 26 27 22 26 27 22 26 27 22 26 27 22 26 27
22 26 27 69 71 74 59 60 63 69 69 72 82 82 85 80 79 82 78 77 80 71 71 74 74 75 78 74 76 79 51 54 57 41 46 49 55 59 62 63 66 69 73 74 77 60 61 64
76 76 79 82 81 84 79 78 81 67 66 69 67 66 69 88 87 90 85 84 87 80 79 82 68 67 70 75 74 77 71 70 73 81 80 83 70 69 72 73 73 76 75 74 77 69 69 72
66 67 70 63 65 68 51 54 57 47 52 55 60 64 67 54 56 59 64 66 69 62 62 65 79 78 81 70 69 72 68 67 70 75 74 77 84 84 87 59 60 63 51 54 57 60 65 68
61 65 68 77 78 81 65 66 69 79 79 82 67 66 69 68 67 70 74 74 77 66 67 70 58 61 64 64 69 72 57 60 63 74 76 79 75 76 79 69 69 72 76 75 78 68 67 70
71 71 74 77 79 82 67 71 74 56 61 64 68 71 74 76 77 80 57 62 65 54 59 62 41 46 49 58 63 66 50 55 58 48 53 56 42 47 50 47 52 55 58 63 66 58 63 66
22 26 27 22 26 27 22 26 27 92 96 96 92 96 96 75 79 79 22 26 27 91 95 95 79 83 83 72 76 76 77 81 81 22 26 27 88 92 92 70 74 74 78 82 82 83 87 87
26 66 107 30 72 114 41 87 133 29 70 111 38 83 128 34 77 120 29 70 111 116 80 116 39 85 130 98 82 121 27 68 108 31 73 115 31 73 116 30 71 113 32 75 118 41 88 134
31 73 115 26 26 24 26 26 24 26 26 24 26 26 24 209 185 48 206 183 48 205 185 48 213 182 48 208 181 48 215 182 48 216 183 48 205 183 48 211 179 48 205 182 48 209 181 48
213 179 48 215 181 48 214 180 48 214 180 48 211 177 48 211 181 48 205 181 48 216 180 48 210 179 48 216 183 48 214 177 48 209 176 48 206 182 48 210 180 48 210 177 48 206 181 48
208 184 48 210 181 48 215 185 48 211 177 48 210 185 48 208 176 48 207 177 48 208 183 48 213 183 48 208 185 48 208 178 48 210 179 48 216 185 48 214 178 48 213 181 48 207 176 48
206 183 48 209 178 48 215 176 48 210 180 48 207 182 48 215 185 48 209 184 48 215 178 48 216 181 48 216 180 48 209 177 48 216 180 48 208 176 48 214 176 48 206 185 48 209 178 48
206 180 48 216 176 48 212 184 48 205 176 48 207 183 48 212 177 48 211 182 48 205 180 48 211 184 48 215 185 48 26 26 24 26 26 24 26 26 24 26 26 24 41 87 134 31 73 116
41 87 133 31 73 115 36 80 124 35 78 122 38 83 128 26 67 107 38 83 128 34 77 121 85 84 124 29 71 112 39 84 129 32 74 116 38 83 128 22 26 27 22 26 27 22 26 27
22 26 27 22 26 27 22 26 27 22 26 27 22 26 27 22 26 27 91 93 87 89 91 85 103 104 96 85 88 82 99 101 94 86 89 83 84 87 81 94 96 89 81 83 78 100 102 94
96 98 91 100 102 94 95 97 90 104 105 97 22 26 27 22 26 27 22 26 27 109 110 101 102 103 95 94 96 89 84 87 81 106 108 99 22 26 27 22 26 27 22 26 27 22 26 27
22 26 27 22 26 27 22 26 27 22 26 27 22 26 27 22 26 27 22 26 27 22 26 27 22 26 27 22 26 27 22 26 27 22 26 27 22 26 27 22 26 27 22 26 27 22 26 27
22 26 27 68 69 72 80 80 83 80 79 82 74 73 76 80 79 82 61 61 64 74 76 79 54 57 60 59 63 66 55 59 62 54 57 60 62 63 66 62 63 66 65 65 68 85 84 87
72 71 74 87 86 89 74 73 76 70 69 72 69 69 72 84 84 87 68 68 71 67 66 69 72 72 75 85 85 88 83 82 85 74 73 76 71 71 74 70 69 72 84 83 86 75 74 77
75 75 78 77 78 81 62 64 67 51 54 57 47 51 54 55 60 63 53 56 59 69 71 74 64 64 67 66 65 68 76 75 78 74 73 76 71 70 73 82 83 86 56 58 61 67 71 74
59 63 66 58 60 63 73 75 78 64 64 67 72 71 74 75 74 77 71 71 74 83 83 86 70 71 74 50 54 57 45 50 53 61 63 66 67 68 71 85 85 88 67 66 69 85 84 87
81 81 84 78 79 82 73 75 78 66 70 73 60 64 67 58 60 63 53 58 61 59 64 67 49 54 57 44 49 52 45 50 53 54 59 62 48 53 56 64 69 72 41 46 49 42 47 50
22 26 27 22 26 27 22 26 27 74 78 78 77 81 81 88 92 92 22 26 27 85 89 89 80 84 84 81 85 85 73 77 77 22 26 27 90 94 94 83 87 87 88 92 92 77 81 81
37 82 127 98 80 118 69 84 126 39 84 130 37 82 127 36 80 125 35 79 124 31 74 117 42 87 133 27 67 108 25 65 106 27 68 109 26 67 108 28 70 111 27 69 110 37 82 127
24 64 104 26 26 24 26 26 24 26 26 24 26 26 24 206 181 48 206 177 48 214 183 48 209 181 48 211 185 48 213 179 48 211 179 48 207 183 48 206 180 48 205 185 48 208 177 48
208 179 48 206 176 48 215 176 48 213 180 48 206 180 48 209 176 48 207 176 48 210 179 48 214 176 48 214 184 48 216 178 48 214 177 48 210 184 48 211 182 48 208 182 48 215 181 48
213 180 48 211 185 48 211 178 48 211 180 48 205 178 48 207 177 48 211 183 48 214 180 48 213 182 48 213 180 48 206 182 48 210 182 48 212 179 48 213 181 48 214 178 48 205 180 48
211 180 48 214 182 48 209 185 48 206 183 48 214 184 48 206 184 48 210 179 48 212 182 48 205 178 48 207 179 48 205 185 48 207 185 48 207 176 48 209 177 48 205 181 48 211 181 48
210 184 48 210 185 48 207 178 48 209 177 48 212 181 48 208 185 48 209 185 48 216 178 48 212 177 48 214 179 48 26 26 24 26 26 24 26 26 24 26 26 24 27 68 110 36 81 126
29 71 113 31 74 116 34 78 122 34 78 122 29 71 113 90 81 120 28 70 111 36 81 126 112 78 114 29 70 112 39 85 131 33 76 119 34 78 122 22 26 27 22 26 27 22 26 27
22 26 27 22 26 27 22 26 27 22 26 27 22 26 27 22 26 27 95 97 90 90 92 86 95 97 90 91 93 87 105 106 98 101 102 94 106 107 99 87 89 83 87 89 83 88 90 84
83 86 80 92 94 87 109 110 101 83 86 80 22 26 27 22 26 27 22 26 27 93 95 88 100 101 94 110 111 102 107 108 100 103 105 97 22 26 27 22 26 27 22 26 27 22 26 27
22 26 27 22 26 27 22 26 27 22 26 27 22 26 27 22 26 27 22 26 27 22 26 27 22 26 27 22 26 27 22 26 27 22 26 27 22 26 27 22 26 27 22 26 27 22 26 27
22 26 27 73 73 76 75 74 77 74 73 76 68 67 70 78 78 81 61 63 66 59 62 65 48 52 55 55 59 62 58 60 63 68 69 72 75 75 78 65 65 68 81 80 83 66 65 68
73 72 75 83 82 85 67 67 70 73 74 77 70 71 74 64 65 68 59 60 63 73 75 78 72 74 77 75 77 80 73 74 77 83 83 86 65 65 68 78 78 81 71 70 73 79 78 81
85 84 87 71 70 73 82 82 85 58 59 62 72 74 77 52 55 58 44 49 52 58 62 65 56 58 61 61 61 64 72 71 74 85 84 87 84 83 86 82 82 85 74 75 78 74 77 80
62 66 69 55 59 62 60 63 66 74 75 78 73 72 75 68 67 70 87 87 90 75 75 78 66 67 70 71 74 77 60 64 67 60 63 66 76 77 80 67 67 70 71 70 73 68 67 70
78 78 81 79 80 83 68 70 73 69 72 75 49 53 56 62 65 68 63 64 67 47 52 55 58 63 66 48 53 56 50 55 58 40 45 48 46 51 54 58 63 66 45 50 53 64 69 72
22 26 27 22 26 27 22 26 27 74 78 78 85 89 89 70 74 74 22 26 27 73 77 77 87 91 91 76 80 80 86 90 90 22 26 27 82 86 86 80 84 84 85 89 89 72 76 76
22 62 102 110 75 111 38 83 129 28 70 112 25 66 107 30 73 116 33 77 121 25 66 107 23 63 103 29 72 114 23 63 104 34 79 124 66 81 123 34 78 122 24 64 105 25 65 106
35 79 124 26 26 24 26 26 24 26 26 24 26 26 24 216 181 48 210 184 48 210 178 48 213 183 48 212 182 48 205 185 48 214 182 48 205 181 48 208 182 48 214 177 48 210 181 48
208 179 48 205 182 48 210 184 48 205 179 48 209 181 48 209 179 48 215 177 48 216 177 48 213 183 48 212 181 48 208 179 48 214 181 48 206 185 48 212 177 48 212 184 48 210 182 48
212 185 48 212 178 48 216 185 48 209 180 48 214 180 48 216 177 48 208 185 48 207 185 48 210 184 48 205 181 48 209 182 48 215 183 48 207 184 48 214 178 48 211 177 48 205 183 48
207 185 48 212 185 48 212 183 48 209 183 48 213 184 48 205 181 48 209 178 48 215 183 48 209 184 48 205 176 48 212 183 48 207 182 48 210 181 48 205 177 48 216 185 48 211 183 48
215 183 48 216 177 48 210 178 48 215 179 48 213 176 48 212 179 48 215 185 48 206 179 48 205 177 48 205 180 48 26 26 24 26 26 24 26 26 24 26 26 24 34 79 123 29 71 114
42 84 130 36 82 127 30 73 116 28 70 113 26 67 109 37 82 128 30 73 116 37 83 129 38 83 129 35 79 124 99 77 114 31 74 117 28 69 111 22 26 27 22 26 27 22 26 27
22 26 27 22 26 27 22 26 27 22 26 27 22 26 27 22 26 27 109 110 101 101 102 95 102 103 95 92 95 88 93 95 88 83 86 80 88 90 84 92 94 88 91 93 87 91 94 87
96 98 91 99 101 94 92 94 88 97 99 92 22 26 27 22 26 27 22 26 27 81 84 78 106 107 99 104 105 97 108 110 101 100 102 94 22 26 27 22 26 27 22 26 27 22 26 27
22 26 27 22 26 27 22 26 27 22 26 27 22 26 27 22 26 27 22 26 27 22 26 27 22 26 27 22 26 27 22 26 27 22 26 27 22 26 27 22 26 27 22 26 27 22 26 27
22 26 27 68 67 70 79 78 81 85 85 88 74 74 77 75 75 78 56 58 61 61 65 68 67 71 74 66 69 72 76 77 80 77 77 80 88 87 90 69 68 71 70 70 73 84 83 86
72 72 75 63 64 67 53 55 58 66 69 72 70 73 76 47 51 54 44 48 51 7 12 15 56 60 63 57 61 64 51 55 58 60 63 66 60 62 65 78 79 82 73 74 77 71 70 73
67 66 69 69 68 71 85 85 88 79 79 82 83 84 87 70 71 74 49 52 55 62 67 70 68 71 74 58 60 63 69 69 72 71 70 73 81 80 83 66 65 68 64 64 67 79 80 83
61 64 67 47 52 55 68 71 74 75 76 79 66 66 69 86 85 88 67 66 69 76 76 79 64 64 67 73 75 78 67 71 74 64 68 71 60 62 65 73 73 76 82 81 84 67 66 69
82 81 84 83 83 86 62 63 66 72 75 78 42 47 50 63 66 69 64 65 68 42 47 50 41 46 49 52 57 60 53 58 61 45 50 53 52 57 60 58 63 66 46 51 54 53 58 61
22 26 27 22 26 27 22 26 27 92 96 96 80 84 84 86 90 90 22 26 27 78 82 82 85 89 89 90 94 94 82 86 86 22 26 27 84 88 88 92 96 96 80 84 84 76 80 80
28 71 114 22 62 103 23 64 105 93 73 110 32 76 121 34 79 125 20 60 100 29 72 116 27 70 113 31 75 119 33 78 123 30 74 119 18 58 97 49 78 122 27 70 113 25 67 109
71 75 116 26 26 24 26 26 24 26 26 24 26 26 24 216 176 48 212 181 48 213 185 48 214 178 48 207 178 48 211 179 48 216 179 48 205 184 48 214 179 48 213 181 48 206 184 48
215 178 48 211 181 48 211 184 48 213 178 48 215 176 48 209 182 48 214 177 48 208 180 48 209 184 48 209 179 48 205 183 48 216 176 48 211 183 48 215 184 48 216 181 48 209 178 48
209 182 48 212 185 48 212 181 48 211 176 48 213 182 48 207 177 48 210 180 48 206 184 48 209 181 48 209 182 48 205 183 48 214 176 48 215 178 48 210 179 48 216 176 48 211 181 48
206 182 48 210 180 48 212 182 48 211 181 48 209 184 48 213 178 48 208 177 48 216 181 48 208 184 48 215 182 48 206 178 48 216 177 48 215 181 48 207 179 48 207 184 48 211 177 48
211 176 48 214 178 48 208 182 48 207 182 48 206 180 48 210 178 48 211 176 48 212 181 48 205 184 48 207 177 48 26 26 24 26 26 24 26 26 24 26 26 24 32 77 121 22 63 104
25 66 108 69 76 117 33 79 124 110 71 105 32 76 121 33 79 124 21 62 102 24 66 107 33 78 123 22 63 104 81 74 113 33 79 124 20 60 100 22 26 27 22 26 27 22 26 27
22 26 27 22 26 27 22 26 27 22 26 27 22 26 27 22 26 27 97 98 91 94 96 89 101 103 95 81 84 79 91 94 87 96 98 91 96 98 91 95 97 90 106 107 99 100 102 94
91 93 87 105 106 98 103 104 96 97 98 91 22 26 27 22 26 27 22 26 27 85 88 82 96 98 91 108 109 100 95 97 90 88 91 84 22 26 27 22 26 27 22 26 27 22 26 27
22 26 27 22 26 27 22 26 27 22 26 27 22 26 27 22 26 27 22 26 27 22 26 27 22 26 27 22 26 27 22 26 27 22 26 27 22 26 27 22 26 27 22 26 27 22 26 27
22 26 27 71 70 73 85 84 87 65 64 67 77 78 81 73 75 78 60 63 66 45 50 53 65 68 71 65 66 69 70 70 73 70 69 72 76 75 78 66 65 68 73 73 76 62 63 66
66 68 71 59 62 65 64 69 72 13 18 21 22 26 29 22 25 28 30 33 36 22 25 28 13 15 18 14 17 20 11 15 18 5 9 12 23 27 30 51 55 58 56 58 61 71 72 75
75 75 78 74 74 77 88 87 90 77 76 79 73 73 76 62 62 65 61 63 66 62 66 69 51 55 58 58 60 63 69 70 73 79 78 81 75 75 78 83 82 85 69 68 71 80 80 83
56 58 61 61 65 68 48 51 54 77 79 82 61 62 65 82 81 84 83 82 85 75 74 77 84 84 87 68 69 72 54 57 60 63 67 70 54 57 60 76 77 80 75 75 78 83 83 86
87 86 89 84 84 87 73 74 77 75 77 80 65 70 73 54 58 61 67 69 72 59 64 67 46 51 54 59 64 67 45 50 53 54 59 62 49 54 57 46 51 54 60 65 68 57 62 65
22 26 27 22 26 27 22 26 27 83 87 87 81 85 85 71 75 75 22 26 27 69 73 73 84 88 88 91 95 95 90 94 94 22 26 27 75 79 79 78 82 82 88 92 92 83 87 87
26 70 114 18 58 99 33 74 118 25 68 112 21 63 105 27 71 115 14 53 92 52 71 113 20 61 103 20 61 103 15 55 94 18 59 100 60 70 111 26 70 114 18 59 101 22 65 107
13 52 92 26 26 24 26 26 24 26 26 24 26 26 24 215 181 48 214 180 48 208 182 48 215 184 48 206 181 48 205 177 48 211 185 48 208 183 48 206 176 48 206 179 48 211 185 48
205 177 48 206 179 48 205 179 48 208 179 48 208 184 48 213 176 48 213 179 48 216 179 48 205 177 48 209 183 48 211 176 48 207 182 48 212 183 48 211 178 48 211 180 48 213 181 48
216 177 48 205 178 48 215 180 48 210 178 48 213 176 48 206 180 48 208 180 48 215 180 48 211 181 48 210 185 48 208 183 48 213 180 48 208 182 48 216 176 48 212 177 48 209 185 48
211 179 48 213 179 48 214 179 48 216 181 48 211 182 48 216 178 48 207 185 48 216 179 48 211 181 48 207 177 48 208 182 48 208 183 48 215 185 48 211 178 48 216 184 48 212 177 48
205 180 48 211 182 48 216 177 48 216 182 48 205 181 48 209 177 48 211 184 48 214 178 48 210 183 48 206 181 48 26 26 24 26 26 24 26 26 24 26 26 24 91 66 103 14 53 92
18 59 101 27 71 115 23 66 109 25 68 112 15 55 95 15 55 95 27 72 116 19 60 101 19 60 101 15 54 94 13 53 92 48 72 114 59 70 111 22 26 27 22 26 27 22 26 27
22 26 27 22 26 27 22 26 27 22 26 27 22 26 27 22 26 27 104 105 97 88 90 84 91 93 87 88 91 85 101 103 95 90 93 86 102 103 95 103 104 96 103 104 96 103 105 97
97 99 92 95 97 90 93 95 88 103 105 97 22 26 27 22 26 27 22 26 27 84 87 82 100 101 94 92 94 87 91 94 87 110 111 102 22 26 27 22 26 27 22 26 27 22 26 27
22 26 27 22 26 27 22 26 27 22 26 27 22 26 27 22 26 27 22 26 27 22 26 27 22 26 27 22 26 27 22 26 27 22 26 27 22 26 27 22 26 27 22 26 27 22 26 27
22 26 27 80 79 82 76 75 78 70 70 73 79 80 83 60 63 66 54 59 62 70 74 77 75 76 79 83 83 86 76 76 79 74 73 76 74 73 76 83 83 86 73 74 77 56 58 61
55 59 62 19 24 27 16 19 22 16 18 21 18 20 23 37 38 41 28 29 32 29 29 32 22 22 25 38 38 41 36 38 41 34 36 39 27 30 33 13 18 21 50 54 57 66 69 72
65 67 70 74 74 77 80 80 83 75 74 77 71 70 73 70 70 73 75 76 79 56 59 62 52 57 60 66 70 73 74 76 79 72 72 75 86 86 89 74 73 76 71 70 73 75 75 78
78 80 83 69 73 76 43 48 51 53 55 58 80 81 84 72 71 74 79 78 81 70 69 72 86 86 89 74 75 78 70 73 76 61 65 68 61 64 67 63 64 67 85 85 88 73 72 75
78 77 80 74 74 77 78 78 81 68 70 73 65 69 72 67 71 74 59 61 64 61 61 64 52 57 60 47 52 55 43 48 51 42 47 50 55 60 63 63 68 71 59 64 67 57 62 65
22 26 27 22 26 27 22 26 27 78 82 82 92 96 96 83 87 87 22 26 27 77 81 81 82 86 86 81 85 85 88 92 92 22 26 27 86 90 90 92 96 96 71 75 75 81 85 85
47 66 107 18 60 102 20 63 106 8 47 85 15 56 97 14 55 96 14 55 95 8 46 85 16 58 99 16 58 99 13 53 94 17 60 102 19 62 106 66 63 102 16 58 99 19 62 106
22 66 111 26 26 24 26 26 24 26 26 24 26 26 24 216 182 48 211 181 48 216 176 48 210 182 48 207 177 48 208 184 48 215 181 48 215 179 48 212 180 48 216 179 48 214 178 48
211 181 48 207 178 48 214 178 48 207 184 48 211 182 48 216 185 48 213 183 48 205 185 48 215 181 48 212 176 48 212 178 48 213 181 48 213 181 48 214 177 48 210 177 48 212 177 48
214 183 48 214 183 48 205 182 48 214 184 48 211 179 48 208 185 48 211 184 48 214 185 48 205 181 48 211 182 48 205 183 48 213 177 48 207 184 48 209 185 48 216 179 48 207 180 48
212 177 48 213 180 48 207 177 48 207 185 48 211 185 48 211 178 48 209 177 48 210 179 48 215 182 48 210 181 48 214 178 48 208 179 48 207 177 48 209 180 48 211 185 48 215 178 48
210 178 48 205 182 48 209 185 48 211 176 48 206 178 48 211 179 48 213 177 48 212 179 48 215 182 48 210 177 48 26 26 24 26 26 24 26 26 24 26 26 24 14 55 97 47 66 107
13 54 95 19 62 105 20 63 106 23 67 111 44 66 108 22 66 111 24 68 113 17 60 102 19 62 105 38 67 109 13 53 94 52 65 106 23 67 112 22 26 27 22 26 27 22 26 27
22 26 27 22 26 27 22 26 27 22 26 27 22 26 27 22 26 27 85 87 82 87 89 83 89 91 85 100 101 94 104 106 97 93 95 88 104 105 97 96 98 91 102 104 96 93 95 88
103 104 96 93 95 89 96 98 91 101 103 95 22 26 27 22 26 27 22 26 27 102 103 96 81 84 79 105 106 98 110 111 102 81 84 79 22 26 27 22 26 27 22 26 27 22 26 27
22 26 27 22 26 27 22 26 27 22 26 27 22 26 27 22 26 27 22 26 27 22 26 27 22 26 27 22 26 27 22 26 27 22 26 27 22 26 27 22 26 27 22 26 27 22 26 27
22 26 27 75 74 77 85 85 88 79 79 82 72 74 77 67 71 74 46 51 54 63 66 69 77 78 81 84 84 87 72 71 74 75 74 77 81 81 84 74 75 78 67 69 72 65 69 72
4 8 11 22 24 27 24 26 29 41 41 44 31 30 33 43 43 46 25 24 27 45 45 48 25 24 27 24 23 26 28 28 31 30 30 33 28 29 32 11 13 16 16 20 23 21 25 28
49 52 55 78 79 82 65 66 69 75 74 77 75 74 77 81 81 84 72 73 76 76 78 81 63 67 70 63 68 71 58 61 64 78 79 82 71 71 74 73 72 75 72 71 74 72 71 74
70 71 74 64 67 70 59 64 67 47 51 54 71 73 76 80 80 83 86 85 88 76 75 78 69 68 71 65 66 69 54 56 59 55 59 62 51 55 58 61 63 66 61 61 64 81 81 84
85 84 87 77 76 79 64 64 67 59 61 64 62 66 69 54 58 61 52 55 58 69 70 73 47 52 55 59 64 67 45 50 53 55 60 63 57 62 65 63 68 71 53 58 61 60 65 68
22 26 27 22 26 27 22 26 27 84 88 88 91 95 95 75 79 79 22 26 27 84 88 88 79 83 83 86 90 90 86 90 90 22 26 27 79 83 83 91 95 95 77 81 81 78 82 82
52 62 102 9 49 89 21 65 109 6 45 84 35 64 107 50 62 103 11 51 92 10 50 91 5 43 82 20 64 108 10 49 89 19 63 107 16 58 101 6 45 83 64 61 99 89 57 92
14 55 96 26 26 24 26 26 24 26 26 24 26 26 24 216 185 48 213 181 48 215 182 48 215 177 48 211 180 48 210 182 48 216 176 48 209 185 48 206 182 48 209 176 48 206 180 48
208 178 48 205 184 48 216 176 48 216 176 48 214 183 48 211 180 48 214 184 48 214 177 48 214 180 48 206 176 48 213 184 48 211 178 48 209 184 48 212 179 48 214 185 48 208 182 48
211 179 48 216 182 48 214 179 48 210 179 48 210 182 48 209 179 48 212 176 48 216 183 48 208 182 48 213 181 48 212 176 48 212 181 48 214 180 48 206 180 48 208 180 48 211 176 48
207 181 48 214 182 48 212 182 48 207 181 48 215 179 48 208 180 48 215 183 48 214 181 48 212 185 48 215 185 48 206 183 48 214 182 48 206 178 48 210 183 48 210 185 48 205 181 48
215 181 48 207 184 48 206 185 48 209 184 48 216 184 48 213 185 48 212 179 48 205 183 48 214 182 48 214 181 48 26 26 24 26 26 24 26 26 24 26 26 24 10 50 90 8 47 86
10 50 91 13 54 96 15 56 98 67 60 98 75 59 96 11 51 91 8 48 87 6 45 84 18 61 104 20 63 107 19 63 107 56 62 101 72 60 97 22 26 27 22 26 27 22 26 27
22 26 27 22 26 27 22 26 27 22 26 27 22 26 27 22 26 27 89 91 85 108 109 101 109 110 101 100 102 94 103 105 96 105 106 98 89 92 85 94 96 89 102 104 96 95 97 90
82 85 80 93 95 88 91 94 87 92 95 88 22 26 27 22 26 27 22 26 27 105 106 98 98 100 92 99 101 93 91 93 87 97 99 92 22 26 27 22 26 27 22 26 27 22 26 27
22 26 27 22 26 27 22 26 27 22 26 27 22 26 27 22 26 27 22 26 27 22 26 27 22 26 27 22 26 27 22 26 27 22 26 27 22 26 27 22 26 27 22 26 27 22 26 27
22 26 27 75 74 77 75 75 78 79 80 83 70 72 75 64 69 72 56 60 63 70 72 75 70 70 73 73 72 75 78 77 80 66 65 68 64 65 68 72 74 77 58 61 64 9 14 17
16 19 22 25 26 29 31 31 34 30 30 33 47 46 49 31 30 33 27 27 30 28 27 30 24 23 26 38 37 40 32 31 34 38 37 40 39 39 42 26 27 30 31 33 36 14 18 21
59 63 66 53 55 58 70 71 74 64 64 67 84 83 86 88 88 91 78 78 81 80 81 84 50 53 56 58 63 66 62 65 68 71 73 76 65 66 69 73 72 75 80 79 82 67 66 69
63 64 67 65 67 70 50 54 57 53 57 60 58 60 63 68 68 71 77 77 80 73 72 75 86 85 88 64 65 68 65 67 70 53 57 60 59 64 67 74 76 79 66 66 69 75 74 77
67 66 69 75 74 77 71 71 74 55 57 60 64 68 71 45 49 52 57 60 63 80 81 84 64 69 72 50 55 58 63 68 71 61 66 69 40 45 48 47 52 55 61 66 69 48 53 56
22 26 27 22 26 27 22 26 27 72 76 76 82 86 86 92 96 96 22 26 27 74 78 78 86 90 90 80 84 84 89 93 93 22 26 27 84 88 88 92 96 96 82 86 86 92 96 96
17 59 101 15 57 99 33 67 110 20 63 106 12 52 92 11 52 92 11 51 91 11 51 90 7 45 84 14 56 97 66 62 101 22 67 111 12 52 92 15 56 98 37 66 109 46 65 106
66 62 101 26 26 24 26 26 24 26 26 24 26 26 24 212 183 48 214 181 48 206 181 48 210 177 48 207 177 48 215 183 48 209 178 48 212 179 48 208 185 48 216 181 48 215 179 48
206 179 48 211 178 48 208 182 48 209 176 48 215 177 48 207 184 48 214 178 48 209 177 48 215 179 48 209 178 48 206 183 48 208 181 48 212 180 48 210 180 48 214 180 48 206 184 48
210 185 48 205 180 48 212 182 48 206 177 48 205 184 48 210 182 48 214 179 48 213 185 48 214 185 48 210 181 48 207 178 48 208 184 48 212 177 48 209 177 48 207 178 48 208 180 48
210 185 48 215 180 48 206 183 48 209 177 48 205 183 48 216 183 48 214 180 48 205 180 48 214 178 48 209 177 48 212 184 48 209 182 48 207 184 48 208 178 48 211 177 48 216 183 48
214 184 48 206 181 48 214 182 48 207 177 48 207 184 48 212 185 48 205 179 48 216 176 48 216 178 48 211 179 48 26 26 24 26 26 24 26 26 24 26 26 24 13 54 95 8 46 85
22 67 111 16 58 100 8 47 86 17 59 101 12 53 93 11 51 91 10 49 89 12 52 92 87 60 95 8 46 85 11 51 91 15 57 98 16 58 100 22 26 27 22 26 27 22 26 27
22 26 27 22 26 27 22 26 27 22 26 27 22 26 27 22 26 27 87 89 83 105 107 98 80 83 78 101 102 94 95 97 90 103 104 96 86 89 83 106 108 99 102 104 96 80 83 78
97 99 92 105 106 98 106 108 99 104 106 97 22 26 27 22 26 27 22 26 27 94 96 89 102 103 95 107 108 100 89 91 85 81 83 78 22 26 27 22 26 27 22 26 27 22 26 27
22 26 27 22 26 27 22 26 27 22 26 27 22 26 27 22 26 27 22 26 27 22 26 27 22 26 27 22 26 27 22 26 27 22 26 27 22 26 27 22 26 27 22 26 27 22 26 27
22 26 27 87 87 90 84 84 87 63 65 68 56 59 62 56 61 64 71 74 77 56 58 61 73 73 76 82 82 85 80 79 82 79 79 82 67 68 71 67 70 73 52 56 59 10 13 16
31 32 35 19 19 22 44 44 47 34 33 36 24 24 27 39 39 42 78 79 82 83 83 86 87 87 90 38 38 41 30 29 32 46 45 48 35 34 37 34 34 37 27 28 31 25 28 31
6 11 14 69 72 75 64 65 68 80 80 83 66 65 68 76 75 78 82 81 84 79 79 82 75 77 80 60 64 67 52 55 58 74 76 79 80 81 84 68 67 70 86 85 88 85 85 88
62 62 65 68 70 73 50 54 57 55 59 62 59 61 64 69 70 73 79 78 81 74 73 76 73 72 75 78 78 81 63 64 67 63 66 69 47 52 55 67 69 72 64 65 68 65 65 68
82 81 84 65 64 67 73 73 76 79 80 83 71 74 77 65 70 73 56 59 62 78 79 82 54 59 62 44 49 52 47 52 55 61 66 69 63 68 71 59 64 67 43 48 51 47 52 55
22 26 27 22 26 27 22 26 27 78 82 82 73 77 77 87 91 91 22 26 27 79 83 83 89 93 93 86 90 90 84 88 88 22 26 27 80 84 84 83 87 87 80 84 84 84 88 88
15 55 95 12 51 90 41 71 115 17 58 99 12 51 90 63 69 109 23 66 109 23 67 110 25 69 113 12 51 89 15 55 95 21 63 106 18 59 101 15 54 94 22 65 108 12 50 89
14 53 93 26 26 24 26 26 24 26 26 24 26 26 24 213 184 48 205 176 48 207 182 48 212 183 48 212 182 48 214 185 48 211 178 48 216 181 48 214 184 48 205 180 48 205 185 48
207 185 48 208 182 48 206 176 48 207 176 48 206 181 48 205 183 48 208 182 48 207 177 48 214 180 48 205 180 48 205 178 48 214 185 48 213 183 48 211 185 48 213 176 48 214 180 48
206 176 48 210 184 48 213 181 48 215 178 48 213 178 48 207 178 48 213 184 48 209 183 48 206 185 48 205 177 48 213 180 48 212 184 48 207 181 48 209 182 48 205 181 48 215 180 48
207 183 48 207 179 48 216 183 48 216 185 48 216 177 48 211 176 48 215 185 48 205 185 48 207 184 48 207 182 48 213 183 48 210 183 48 211 183 48 214 182 48 215 176 48 205 177 48
212 180 48 207 180 48 214 182 48 208 179 48 207 177 48 214 177 48 208 178 48 212 178 48 216 183 48 210 185 48 26 26 24 26 26 24 26 26 24 26 26 24 19 61 103 81 66 104
21 63 105 73 67 106 17 58 99 55 70 111 20 63 105 13 53 92 14 53 93 20 62 103 19 61 103 23 66 109 15 55 95 12 51 90 19 61 103 22 26 27 22 26 27 22 26 27
22 26 27 22 26 27 22 26 27 22 26 27 22 26 27 22 26 27 81 84 79 83 86 81 106 108 99 93 95 89 90 93 86 102 104 96 99 101 93 109 110 101 105 106 98 86 89 83
107 108 99 87 89 83 86 88 83 107 108 99 22 26 27 22 26 27 22 26 27 104 106 98 110 111 102 107 108 99 100 102 94 80 83 78 22 26 27 22 26 27 22 26 27 22 26 27
22 26 27 22 26 27 22 26 27 22 26 27 22 26 27 22 26 27 22 26 27 22 26 27 22 26 27 22 26 27 22 26 27 22 26 27 22 26 27 22 26 27 22 26 27 22 26 27
22 26 27 69 68 71 76 76 79 57 58 61 56 59 62 44 49 52 65 67 70 58 59 62 75 75 78 72 71 74 83 82 85 79 78 81 72 73 76 64 67 70 16 20 23 19 22 25
16 17 20 22 22 25 29 28 31 30 29 32 24 23 26 84 85 88 82 84 87 70 73 76 78 80 83 77 78 81 32 32 35 24 24 27 35 34 37 23 23 26 34 35 38 12 15 18
13 17 20 48 52 55 60 62 65 68 68 71 65 64 67 78 77 80 83 83 86 65 66 69 57 59 62 49 53 56 56 60 63 73 75 78 81 81 84 82 82 85 86 85 88 86 85 88
79 80 83 60 62 65 56 59 62 51 55 58 53 55 58 74 74 77 77 76 79 72 71 74 69 68 71 62 62 65 60 62 65 51 54 57 65 69 72 73 76 79 75 76 79 65 65 68
73 72 75 84 84 87 63 63 66 72 73 76 59 63 66 59 64 67 67 70 73 74 75 78 58 63 66 62 67 70 64 69 72 45 50 53 45 50 53 41 46 49 57 62 65 55 60 63
22 26 27 22 26 27 22 26 27 84 88 88 77 81 81 73 77 77 22 26 27 74 78 78 86 90 90 82 86 86 73 77 77 22 26 27 73 77 77 76 80 80 90 94 94 81 85 85
33 79 124 32 77 123 20 61 102 25 67 110 30 74 118 78 73 113 26 69 112 22 64 105 18 58 98 29 73 117 18 58 98 19 59 99 30 75 119 19 59 99 23 64 105 31 76 120
20 61 101 26 26 24 26 26 24 26 26 24 26 26 24 206 178 48 207 181 48 214 185 48 212 183 48 211 184 48 211 182 48 207 179 48 208 176 48 216 179 48 212 183 48 205 183 48
212 179 48 211 176 48 216 180 48 213 180 48 210 177 48 215 179 48 208 177 48 208 183 48 212 179 48 216 179 48 207 185 48 205 178 48 207 182 48 211 182 48 213 177 48 216 178 48
207 180 48 208 179 48 211 181 48 205 180 48 211 184 48 211 177 48 215 176 48 211 176 48 209 178 48 214 182 48 211 184 48 216 176 48 212 176 48 214 180 48 216 177 48 215 185 48
209 184 48 215 184 48 212 185 48 206 176 48 207 182 48 216 176 48 214 183 48 211 181 48 211 180 48 212 185 48 216 177 48 207 178 48 213 178 48 205 177 48 212 181 48 209 184 48
207 181 48 215 184 48 207 179 48 211 181 48 205 182 48 215 185 48 216 183 48 212 182 48 210 184 48 214 181 48 26 26 24 26 26 24 26 26 24 26 26 24 21 62 103 62 75 117
22 63 104 18 58 98 17 57 96 21 62 102 49 77 121 30 74 119 31 76 121 55 76 119 110 69 104 25 67 109 27 70 113 29 73 116 30 74 118 22 26 27 22 26 27 22 26 27
22 26 27 22 26 27 22 26 27 22 26 27 22 26 27 22 26 27 97 99 91 84 87 81 82 85 79 99 101 93 85 88 82 84 87 81 84 87 81 102 104 96 100 102 94 84 87 81
106 107 99 86 89 83 89 92 86 87 90 84 22 26 27 22 26 27 22 26 27 83 86 81 105 106 98 84 87 81 104 106 97 81 84 79 22 26 27 22 26 27 22 26 27 22 26 27
22 26 27 22 26 27 22 26 27 22 26 27 22 26 27 22 26 27 22 26 27 22 26 27 22 26 27 22 26 27 22 26 27 22 26 27 22 26 27 22 26 27 22 26 27 22 26 27
22 26 27 87 86 89 79 79 82 70 71 74 64 67 70 43 48 51 70 73 76 65 66 69 63 63 66 79 78 81 79 78 81 67 67 70 59 60 63 63 66 69 19 24 27 22 26 29
17 18 21 34 34 37 33 33 36 43 42 45 43 43 46 69 70 73 64 66 69 61 65 68 66 69 72 87 88 91 72 72 75 26 25 28 25 24 27 23 22 25 41 41 44 30 33 36
19 23 26 57 61 64 65 67 70 81 81 84 73 72 75 69 68 71 82 82 85 82 82 85 63 65 68 58 62 65 63 67 70 71 73 76 82 82 85 80 80 83 80 79 82 75 74 77
72 72 75 63 65 68 67 70 73 52 56 59 57 59 62 61 61 64 74 73 76 70 69 72 86 85 88 62 62 65 63 65 68 63 67 70 52 56 59 73 76 79 77 78 81 77 77 80
82 81 84 71 71 74 81 81 84 60 62 65 53 56 59 61 66 69 67 70 73 59 60 63 56 61 64 50 55 58 45 50 53 42 47 50 45 50 53 45 50 53 45 50 53 59 64 67
22 26 27 22 26 27 22 26 27 91 95 95 71 75 75 83 87 87 22 26 27 79 83 83 78 82 82 69 73 73 69 73 73 22 26 27 69 73 73 75 79 79 72 76 76 81 85 85
22 62 101 50 82 127 32 77 121 22 62 102 30 73 116 26 67 109 23 63 103 27 68 110 22 62 102 25 66 108 35 81 126 32 76 120 26 67 108 33 77 121 23 64 104 24 64 105
35 80 126 26 26 24 26 26 24 26 26 24 26 26 24 211 179 48 215 179 48 214 183 48 205 179 48 206 178 48 210 180 48 209 184 48 210 177 48 216 177 48 214 182 48 213 183 48
206 177 48 212 176 48 213 181 48 216 181 48 207 178 48 207 178 48 213 180 48 210 177 48 215 180 48 213 182 48 206 183 48 216 177 48 208 178 48 212 183 48 212 181 48 213 183 48
214 181 48 216 184 48 208 180 48 210 176 48 206 184 48 216 180 48 211 185 48 209 180 48 205 181 48 213 176 48 208 177 48 209 181 48 208 185 48 213 184 48 208 178 48 205 179 48
208 180 48 210 176 48 210 179 48 215 181 48 211 179 48 211 179 48 216 182 48 205 183 48 214 178 48 207 180 48 216 184 48 214 176 48 206 178 48 209 177 48 210 177 48 216 182 48
206 177 48 210 184 48 215 177 48 210 179 48 209 181 48 214 182 48 212 177 48 211 184 48 210 180 48 215 178 48 26 26 24 26 26 24 26 26 24 26 26 24 109 75 111 34 78 123
31 75 118 25 67 108 36 82 127 32 76 120 30 74 117 38 84 130 60 81 124 28 70 112 50 82 127 28 70 112 26 68 109 38 84 130 27 69 110 22 26 27 22 26 27 22 26 27
22 26 27 22 26 27 22 26 27 22 26 27 22 26 27 22 26 27 90 93 86 85 88 82 95 97 90 104 105 97 87 90 84 87 90 84 109 110 101 85 88 82 107 109 100 94 96 89
80 83 78 83 86 81 99 101 93 101 103 95 22 26 27 22 26 27 22 26 27 84 86 81 100 101 94 106 107 99 104 106 97 108 109 100 22 26 27 22 26 27 22 26 27 22 26 27
22 26 27 22 26 27 22 26 27 22 26 27 22 26 27 22 26 27 22 26 27 22 26 27 22 26 27 22 26 27 22 26 27 22 26 27 22 26 27 22 26 27 22 26 27 22 26 27
22 26 27 71 71 74 82 82 85 64 65 68 55 58 61 51 56 59 52 55 58 58 59 62 86 86 89 77 76 79 87 86 89 85 85 88 66 67 70 55 58 61 9 13 16 26 29 32
36 37 40 25 25 28 33 32 35 32 31 34 27 26 29 31 31 34 72 73 76 79 80 83 73 74 77 76 77 80 30 29 32 29 28 31 40 40 43 21 21 24 22 23 26 32 34 37
4 9 12 58 62 65 58 60 63 84 84 87 74 73 76 85 84 87 83 82 85 65 66 69 56 58 61 47 51 54 53 57 60 58 60 63 68 69 72 68 68 71 77 76 79 84 84 87
80 81 84 59 61 64 64 68 71 56 60 63 66 68 71 79 80 83 70 69 72 87 86 89 67 66 69 69 69 72 77 78 81 47 50 53 49 54 57 68 70 73 81 82 85 82 82 85
80 79 82 87 87 90 79 79 82 73 74 77 64 67 70 49 53 56 55 58 61 63 64 67 41 46 49 50 55 58 62 67 70 59 64 67 52 57 60 45 50 53 61 66 69 50 55 58
22 26 27 22 26 27 22 26 27 84 88 88 74 78 78 70 74 74 22 26 27 84 88 88 90 94 94 75 79 79 78 82 82 22 26 27 88 92 92 83 87 87 91 95 95 77 81 81
31 74 116 37 82 127 38 83 129 106 78 115 40 87 133 33 76 120 32 75 118 26 66 107 37 82 127 40 86 132 64 84 127 35 80 124 40 86 132 28 69 110 32 74 117 27 69 110
29 71 113 26 26 24 26 26 24 26 26 24 26 26 24 212 179 48 205 179 48 207 183 48 206 182 48 209 183 48 211 184 48 214 182 48 207 185 48 216 177 48 216 180 48 207 176 48
216 178 48 213 179 48 207 181 48 206 176 48 214 178 48 208 178 48 213 182 48 212 179 48 208 177 48 205 178 48 210 176 48 213 183 48 216 180 48 210 177 48 206 184 48 212 184 48
207 179 48 207 181 48 206 185 48 216 176 48 210 177 48 216 183 48 212 185 48 213 181 48 215 183 48 215 179 48 206 184 48 211 185 48 216 179 48 213 178 48 212 178 48 213 184 48
211 178 48 212 181 48 216 180 48 205 182 48 211 185 48 216 181 48 216 179 48 215 185 48 205 180 48 209 179 48 209 177 48 215 182 48 209 179 48 210 184 48 206 180 48 215 177 48
206 181 48 212 183 48 216 181 48 208 178 48 207 185 48 215 176 48 210 183 48 212 176 48 215 178 48 208 180 48 26 26 24 26 26 24 26 26 24 26 26 24 25 65 106 39 85 132
39 84 130 35 79 123 40 87 133 28 70 112 26 66 107 36 81 126 26 67 107 37 82 127 102 79 117 27 68 109 40 87 133 34 78 122 28 70 112 22 26 27 22 26 27 22 26 27
22 26 27 22 26 27 22 26 27 22 26 27 22 26 27 22 26 27 107 108 100 90 92 86 105 107 98 91 94 87 88 90 84 98 99 92 92 94 88 103 105 97 91 93 87 93 95 88
83 85 80 98 99 92 96 98 91 87 90 84 22 26 27 22 26 27 22 26 27 102 103 95 103 105 97 87 89 83 107 108 100 101 103 95 22 26 27 22 26 27 22 26 27 22 26 27
22 26 27 22 26 27 22 26 27 22 26 27 22 26 27 22 26 27 22 26 27 22 26 27 22 26 27 22 26 27 22 26 27 22 26 27 22 26 27 22 26 27 22 26 27 22 26 27
22 26 27 81 80 83 67 67 70 69 70 73 71 74 77 61 66 69 51 55 58 61 63 66 84 84 87 81 80 83 81 80 83 65 65 68 71 71 74 71 73 76 69 73 76 8 12 15
11 13 16 25 26 29 37 37 40 46 45 48 44 43 46 42 42 45 35 35 38 28 27 30 34 33 36 44 43 46 37 36 39 35 34 37 34 33 36 30 31 34 28 30 33 15 19 22
21 26 29 72 75 78 66 66 69 79 79 82 86 85 88 86 85 88 80 80 83 66 66 69 53 56 59 52 56 59 61 64 67 69 70 73 85 85 88 85 84 87 78 77 80 78 77 80
70 71 74 63 66 69 45 49 52 64 68 71 60 62 65 67 67 70 87 87 90 68 67 70 87 86 89 64 64 67 62 64 67 57 61 64 50 54 57 54 57 60 76 76 79 67 66 69
68 67 70 80 79 82 82 82 85 66 68 71 63 66 69 58 63 66 63 66 69 78 79 82 52 57 60 44 49 52 64 69 72 56 61 64 47 52 55 63 68 71 40 45 48 43 48 51
22 26 27 22 26 27 22 26 27 75 79 79 82 86 86 78 82 82 22 26 27 88 92 92 72 76 76 88 92 92 84 88 88 22 26 27 90 94 94 87 91 91 84 88 88 75 79 79
26 67 107 35 79 123 52 87 133 38 83 128 43 89 135 34 77 120 72 85 127 26 67 107 32 75 118 34 77 120 27 68 109 40 86 132 40 86 132 31 74 116 37 81 125 28 69 109
58 87 131 26 26 24 26 26 24 26 26 24 26 26 24 211 180 48 216 184 48 210 178 48 215 185 48 216 180 48 215 179 48 214 177 48 214 185 48 207 179 48 206 179 48 215 179 48
211 179 48 215 185 48 207 181 48 212 178 48 209 185 48 214 184 48 212 181 48 214 176 48 207 180 48 209 176 48 206 178 48 213 179 48 206 177 48 207 183 48 212 176 48 211 182 48
205 179 48 216 177 48 213 180 48 210 180 48 214 179 48 208 177 48 208 181 48 207 179 48 216 176 48 209 179 48 215 184 48 214 182 48 209 185 48 213 184 48 208 181 48 209 178 48
208 185 48 214 176 48 214 179 48 207 180 48 208 180 48 207 179 48 211 180 48 212 181 48 212 183 48 213 185 48 206 176 48 208 183 48 209 183 48 213 180 48 210 183 48 215 178 48
211 185 48 206 179 48 210 178 48 216 181 48 213 184 48 215 176 48 215 180 48 211 184 48 206 181 48 216 180 48 26 26 24 26 26 24 26 26 24 26 26 24 36 80 124 30 72 113
97 82 120 33 76 119 34 78 121 62 86 130 35 78 122 83 84 124 26 67 107 33 75 118 42 88 135 42 88 135 29 70 111 35 78 122 29 70 111 22 26 27 22 26 27 22 26 27
22 26 27 22 26 27 22 26 27 22 26 27 22 26 27 22 26 27 105 107 98 90 92 86 99 100 93 95 97 90 108 110 101 100 102 94 97 98 91 105 106 98 96 98 91 95 97 90
81 84 79 106 107 99 109 110 101 83 86 80 22 26 27 22 26 27 22 26 27 22 26 27 22 26 27 22 26 27 22 26 27 22 26 27 22 26 27 22 26 27 22 26 27 22 26 27
22 26 27 22 26 27 22 26 27 22 26 27 22 26 27 22 26 27 22 26 27 22 26 27 22 26 27 22 26 27 22 26 27 22 26 27 22 26 27 22 26 27 22 26 27 22 26 27
22 26 27 72 71 74 84 83 86 63 64 67 75 77 80 58 62 65 61 65 68 55 57 60 69 70 73 81 80 83 88 87 90 87 86 89 78 78 81 75 76 79 67 70 73 21 25 28
18 22 25 30 32 35 22 23 26 40 40 43 32 32 35 34 34 37 36 35 38 25 24 27 27 26 29 31 30 33 28 27 30 35 34 37 20 21 24 17 19 22 8 11 14 11 16 19
63 67 70 62 63 66 83 84 87 87 87 90 67 66 69 74 73 76 82 82 85 57 59 62 58 62 65 44 49 52 70 73 76 58 59 62 71 71 74 67 67 70 76 75 78 66 66 69
68 69 72 70 72 75 65 70 73 60 63 66 69 70 73 77 77 80 85 84 87 78 77 80 86 86 89 69 69 72 74 76 79 61 64 67 48 52 55 73 75 78 80 81 84 67 67 70
90 89 92 83 82 85 83 83 86 74 76 79 57 61 64 65 70 73 63 65 68 65 66 69 59 64 67 47 52 55 63 68 71 51 56 59 47 52 55 63 68 71 52 57 60 61 66 69
22 26 27 22 26 27 22 26 27 91 95 95 76 80 80 89 93 93 22 26 27 92 96 96 92 96 96 76 80 80 72 76 76 22 26 27 92 96 96 74 78 78 90 94 94 83 87 87
34 76 119 33 75 117 31 72 114 36 80 123 38 82 126 62 89 133 42 88 134 31 73 115 28 68 109 36 80 123 91 85 125 32 75 117 33 76 118 39 84 129 28 69 110 33 75 117
105 83 121 26 26 24 26 26 24 26 26 24 26 26 24 210 181 48 207 180 48 213 184 48 207 176 48 212 182 48 212 185 48 216 183 48 212 176 48 211 179 48 211 183 48 215 178 48
214 181 48 206 184 48 215 177 48 215 176 48 206 176 48 212 184 48 209 178 48 205 183 48 214 180 48 207 178 48 211 181 48 211 182 48 208 183 48 211 176 48 207 184 48 209 176 48
215 177 48 215 181 48 212 179 48 211 185 48 212 185 48 211 181 48 209 176 48 211 178 48 205 185 48 209 183 48 215 178 48 213 180 48 209 185 48 206 182 48 213 182 48 205 179 48
214 176 48 214 184 48 206 185 48 209 182 48 210 184 48 210 180 48 210 184 48 209 180 48 211 180 48 215 179 48 215 185 48 216 184 48 210 178 48 214 177 48 211 185 48 209 179 48
205 185 48 207 178 48 205 179 48 208 183 48 209 184 48 209 182 48 215 176 48 215 178 48 214 181 48 216 185 48 26 26 24 26 26 24 26 26 24 26 26 24 38 82 126 39 84 129
65 88 132 30 71 113 59 89 134 41 87 133 32 74 116 77 87 129 42 88 134 41 87 132 29 69 110 30 71 112 33 76 119 43 90 136 35 78 121 22 26 27 22 26 27 22 26 27
22 26 27 22 26 27 22 26 27 22 26 27 22 26 27 22 26 27 89 92 86 87 90 84 97 99 92 86 89 83 95 97 90 95 97 90 108 109 100 93 95 89 84 87 81 109 110 101
87 89 84 97 99 92 85 87 82 95 97 90 22 26 27 22 26 27 22 26 27 22 26 27 22 26 27 22 26 27 22 26 27 22 26 27 22 26 27 22 26 27 22 26 27 22 26 27
22 26 27 22 26 27 22 26 27 22 26 27 22 26 27 22 26 27 22 26 27 22 26 27 22 26 27 22 26 27 22 26 27 22 26 27 22 26 27 22 26 27 22 26 27 22 26 27
22 26 27 74 73 76 81 80 83 79 79 82 71 73 76 52 55 58 47 52 55 62 65 68 68 69 72 65 65 68 77 76 79 84 83 86 74 73 76 83 83 86 78 79 82 53 56 59
10 14 17 24 28 31 18 21 24 17 18 21 36 37 40 21 22 25 37 37 40 27 27 30 31 31 34 30 30 33 23 24 27 19 20 23 26 28 31 23 27 30 0 3 6 55 58 61
67 69 72 74 75 78 80 80 83 86 85 88 82 81 84 65 65 68 81 82 85 74 76 79 62 66 69 50 54 57 69 71 74 72 73 76 72 71 74 82 81 84 70 69 72 66 66 69
71 72 75 52 55 58 60 65 68 58 61 64 80 82 85 67 67 70 77 77 80 82 81 84 77 77 80 69 70 73 75 78 81 49 53 56 55 59 62 60 62 65 81 81 84 75 74 77
88 87 90 86 86 89 81 81 84 75 77 80 63 67 70 48 52 55 57 59 62 74 75 78 61 66 69 47 52 55 53 58 61 58 63 66 55 60 63 61 66 69 45 50 53 46 51 54
22 26 27 22 26 27 22 26 27 93 97 97 80 84 84 79 83 83 22 26 27 83 87 87 78 82 82 77 81 81 70 74 74 22 26 27 70 74 74 90 94 94 84 88 88 81 85 85
46 92 139 35 77 119 37 80 124 33 74 115 35 78 120 34 75 117 39 83 127 44 89 135 32 73 114 33 74 115 100 88 127 46 92 139 44 90 136 44 89 135 42 87 132 31 72 113
116 86 123 26 26 24 26 26 24 26 26 24 26 26 24 215 184 48 208 179 48 207 185 48 210 183 48 209 178 48 212 176 48 207 178 48 205 184 48 214 182 48 215 183 48 213 180 48
215 183 48 213 185 48 208 178 48 215 176 48 209 177 48 208 184 48 213 184 48 215 183 48 209 180 48 216 184 48 216 183 48 215 181 48 216 184 48 207 184 48 208 178 48 213 180 48
213 180 48 210 181 48 214 183 48 208 184 48 208 177 48 213 184 48 214 179 48 210 183 48 206 183 48 205 181 48 213 179 48 206 178 48 216 182 48 215 179 48 208 185 48 206 184 48
206 182 48 209 180 48 208 185 48 214 184 48 214 185 48 210 183 48 215 176 48 209 182 48 205 177 48 205 184 48 205 184 48 209 182 48 215 183 48 211 182 48 208 181 48 214 177 48
207 183 48 214 178 48 207 183 48 216 182 48 216 182 48 210 180 48 208 184 48 215 183 48 209 184 48 206 180 48 26 26 24 26 26 24 26 26 24 26 26 24 35 77 119 37 80 124
32 73 114 39 82 126 47 94 141 44 89 135 39 82 126 55 93 140 47 94 141 37 79 122 47 94 141 34 75 117 37 80 123 60 93 138 34 75 117 22 26 27 22 26 27 22 26 27
22 26 27 22 26 27 22 26 27 22 26 27 22 26 27 22 26 27 93 95 89 85 87 82 88 91 85 81 84 79 95 97 90 92 94 88 84 87 82 87 89 84 103 105 97 102 103 96
84 86 81 81 84 79 106 107 99 98 100 93 22 26 27 22 26 27 22 26 27 22 26 27 22 26 27 22 26 27 22 26 27 22 26 27 22 26 27 22 26 27 22 26 27 22 26 27
22 26 27 22 26 27 22 26 27 22 26 27 22 26 27 22 26 27 22 26 27 22 26 27 22 26 27 22 26 27 22 26 27 22 26 27 22 26 27 22 26 27 22 26 27 22 26 27
22 26 27 69 68 71 69 68 71 79 79 82 70 71 74 55 57 60 62 66 69 67 71 74 72 74 77 60 61 64 79 79 82 76 76 79 76 75 78 86 86 89 66 66 69 63 65 68
67 69 72 63 67 70 19 24 27 23 27 30 17 21 24 23 26 29 17 19 22 23 24 27 16 18 21 13 15 18 26 28 31 15 19 22 19 23 26 66 71 74 49 52 55 63 65 68
82 83 86 77 77 80 80 79 82 83 82 85 84 83 86 71 71 74 67 69 72 57 60 63 57 62 65 61 64 67 66 67 70 81 81 84 79 78 81 76 75 78 73 72 75 74 74 77
69 71 74 53 57 60 53 58 61 63 65 68 76 76 79 78 78 81 79 78 81 84 84 87 64 64 67 59 61 64 59 62 65 42 47 50 57 60 63 60 61 64 79 79 82 84 83 86
68 67 70 88 87 90 59 59 62 70 73 76 48 52 55 63 66 69 75 77 80 55 60 63 52 57 60 41 46 49 50 55 58 42 47 50 43 48 51 50 55 58 52 57 60 53 58 61
22 26 27 22 26 27 22 26 27 84 88 88 73 77 77 93 97 97 22 26 27 85 89 89 76 80 80 92 96 96 82 86 86 22 26 27 72 76 76 76 80 80 91 95 95 91 95 95
52 99 147 117 91 130 50 96 143 38 79 121 50 96 143 49 95 141 38 80 122 41 84 127 43 87 131 52 99 147 108 92 132 41 84 128 45 90 135 55 99 147 46 90 136 40 83 126
37 78 120 26 26 24 26 26 24 26 26 24 26 26 24 208 185 48 208 177 48 213 179 48 206 179 48 206 176 48 212 183 48 213 180 48 213 183 48 209 176 48 211 179 48 206 183 48
216 183 48 211 181 48 211 182 48 210 182 48 215 185 48 212 178 48 207 182 48 213 176 48 213 180 48 207 176 48 208 176 48 216 177 48 212 178 48 206 177 48 212 180 48 205 181 48
208 184 48 205 184 48 211 184 48 214 184 48 209 179 48 207 176 48 209 185 48 206 178 48 208 182 48 208 181 48 209 179 48 205 176 48 206 181 48 216 181 48 209 176 48 214 184 48
207 183 48 216 184 48 207 177 48 206 185 48 215 185 48 212 177 48 209 180 48 214 182 48 206 181 48 212 181 48 214 181 48 210 181 48 210 180 48 206 179 48 207 178 48 209 176 48
213 180 48 208 177 48 213 179 48 208 177 48 205 177 48 207 181 48 214 179 48 210 184 48 208 183 48 215 182 48 26 26 24 26 26 24 26 26 24 26 26 24 67 98 144 45 89 134
37 78 120 39 80 123 39 81 124 36 77 119 48 93 140 37 78 120 50 97 144 37 79 121 41 84 128 52 99 147 83 96 139 48 94 141 52 99 147 22 26 27 22 26 27 22 26 27
22 26 27 22 26 27 22 26 27 22 26 27 22 26 27 22 26 27 100 101 94 101 103 95 84 87 81 93 95 88 94 96 89 81 84 79 102 103 95 81 84 79 104 106 97 104 106 97
84 87 81 92 94 87 98 100 93 91 93 87 22 26 27 22 26 27 22 26 27 22 26 27 22 26 27 22 26 27 22 26 27 22 26 27 22 26 27 22 26 27 22 26 27 22 26 27
22 26 27 22 26 27 22 26 27 22 26 27 22 26 27 22 26 27 22 26 27 22 26 27 22 26 27 22 26 27 22 26 27 22 26 27 22 26 27 22 26 27 22 26 27 22 26 27
22 26 27 78 78 81 80 79 82 67 66 69 69 69 72 78 79 82 66 69 72 61 65 68 69 73 76 56 58 61 76 77 80 74 74 77 78 78 81 80 79 82 75 74 77 84 84 87
61 61 64 77 78 81 71 74 77 51 55 58 51 55 58 2 6 9 2 7 10 8 12 15 9 14 17 11 16 19 12 17 20 47 51 54 62 65 68 75 77 80 63 64 67 76 76 79
66 65 68 68 67 70 75 74 77 76 76 79 82 82 85 75 77 80 63 66 69 49 54 57 68 71 74 59 61 64 79 79 82 79 78 81 85 84 87 77 76 79 68 68 71 69 70 73
62 65 68 62 67 70 64 67 70 74 75 78 69 69 72 80 79 82 79 78 81 80 80 83 72 73 76 65 67 70 53 57 60 53 57 60 56 58 61 82 83 86 70 70 73 78 77 80
72 72 75 76 76 79 70 71 74 52 55 58 61 66 69 68 71 74 72 73 76 55 60 63 57 62 65 58 63 66 46 51 54 59 64 67 40 45 48 61 66 69 59 64 67 55 60 63
22 26 27 22 26 27 22 26 27 80 84 84 70 74 74 90 94 94 22 26 27 75 79 79 84 88 88 88 92 92 72 76 76 22 26 27 86 90 90 81 85 85 87 91 91 78 82 82
58 105 154 53 98 145 52 98 144 101 100 143 42 84 126 52 97 144 44 86 130 53 99 146 49 93 138 54 100 148 43 84 127 44 86 129 46 89 133 50 95 141 43 85 128 53 98 145
45 87 131 26 26 24 26 26 24 26 26 24 26 26 24 211 182 48 215 177 48 212 176 48 212 176 48 211 181 48 205 185 48 211 183 48 211 180 48 206 180 48 212 177 48 208 182 48
210 180 48 213 181 48 212 182 48 212 177 48 211 177 48 215 183 48 214 184 48 207 180 48 208 182 48 212 179 48 207 179 48 212 179 48 210 176 48 214 182 48 207 179 48 210 183 48
205 185 48 211 181 48 209 176 48 205 180 48 213 180 48 215 176 48 206 184 48 212 176 48 209 185 48 214 185 48 212 185 48 214 177 48 205 183 48 210 176 48 209 177 48 211 176 48
210 180 48 205 178 48 208 177 48 208 178 48 212 183 48 211 182 48 216 177 48 208 185 48 207 185 48 205 178 48 208 184 48 212 177 48 211 177 48 213 185 48 205 177 48 205 181 48
212 177 48 207 184 48 213 176 48 210 182 48 208 183 48 208 183 48 211 181 48 216 183 48 214 183 48 208 182 48 26 26 24 26 26 24 26 26 24 26 26 24 42 84 127 53 99 145
47 90 135 55 101 149 50 95 140 68 105 152 53 99 146 48 91 136 48 92 137 45 87 131 46 88 132 55 101 149 44 86 130 43 84 127 125 97 136 22 26 27 22 26 27 22 26 27
22 26 27 22 26 27 22 26 27 22 26 27 22 26 27 22 26 27 103 104 96 108 109 100 91 93 87 98 100 92 102 104 96 87 89 83 106 107 99 101 102 95 96 98 91 110 111 102
101 102 94 94 96 89 99 101 93 86 89 83 22 26 27 22 26 27 22 26 27 22 26 27 22 26 27 22 26 27 22 26 27 22 26 27 22 26 27 22 26 27 22 26 27 22 26 27
22 26 27 22 26 27 22 26 27 22 26 27 22 26 27 22 26 27 22 26 27 22 26 27 22 26 27 22 26 27 22 26 27 22 26 27 22 26 27 22 26 27 22 26 27 22 26 27
22 26 27 65 65 68 71 70 73 76 75 78 76 76 79 83 84 87 76 77 80 59 62 65 51 55 58 58 61 64 69 71 74 73 73 76 79 78 81 81 80 83 68 67 70 72 71 74
78 78 81 74 74 77 66 67 70 76 77 80 67 69 72 69 72 75 60 63 66 70 72 75 68 70 73 72 74 77 54 55 58 66 67 70 80 81 84 81 81 84 84 84 87 75 74 77
82 81 84 88 87 90 85 84 87 80 81 84 59 61 64 64 67 70 65 70 73 49 53 56 71 74 77 66 67 70 70 70 73 84 83 86 80 79 82 84 83 86 77 78 81 59 61 64
61 65 68 62 66 69 74 76 79 71 72 75 66 66 69 76 75 78 73 72 75 79 79 82 64 65 68 59 61 64 52 56 59 54 57 60 63 65 68 73 73 76 73 73 76 78 77 80
77 76 79 70 70 73 70 71 74 48 51 54 59 63 66 66 69 72 80 80 83 42 47 50 47 52 55 63 68 71 60 65 68 45 50 53 46 51 54 55 60 63 41 46 49 53 58 61
22 26 27 22 26 27 22 26 27 93 97 97 79 83 83 81 85 85 22 26 27 87 91 91 80 84 84 88 92 92 78 82 82 22 26 27 73 77 77 83 87 87 92 96 96 77 81 81
62 109 158 58 104 152 56 101 148 63 111 160 57 103 150 56 101 148 48 89 133 55 100 146 49 91 135 52 95 140 49 91 135 109 106 150 49 92 135 112 106 149 64 112 162 64 112 161
51 93 138 26 26 24 26 26 24 26 26 24 26 26 24 212 183 48 208 176 48 215 183 48 205 183 48 206 180 48 212 183 48 210 184 48 211 178 48 216 183 48 205 182 48 211 181 48
216 177 48 206 178 48 210 178 48 210 176 48 210 177 48 215 180 48 211 180 48 206 176 48 214 185 48 213 178 48 216 184 48 213 181 48 208 176 48 216 176 48 208 178 48 207 179 48
210 180 48 210 178 48 206 183 48 206 179 48 212 185 48 209 176 48 209 177 48 210 185 48 214 180 48 207 183 48 212 179 48 215 180 48 205 178 48 207 178 48 211 177 48 212 177 48
207 185 48 212 178 48 216 177 48 212 185 48 211 183 48 216 178 48 212 177 48 211 178 48 208 185 48 212 185 48 206 185 48 209 178 48 205 177 48 212 176 48 205 185 48 213 184 48
207 181 48 207 180 48 211 179 48 210 176 48 207 185 48 206 181 48 209 179 48 208 176 48 207 176 48 207 185 48 26 26 24 26 26 24 26 26 24 26 26 24 84 110 156 48 89 133
48 89 132 61 108 156 60 107 155 127 104 145 53 97 143 48 89 132 49 91 135 55 100 146 48 89 133 61 107 156 61 108 156 57 102 149 50 92 136 22 26 27 22 26 27 22 26 27
22 26 27 22 26 27 22 26 27 22 26 27 22 26 27 22 26 27 91 93 87 83 86 81 95 97 90 85 88 82 105 106 98 106 107 99 86 88 83 99 100 93 97 99 92 86 89 83
92 94 88 104 106 97 85 87 82 96 98 90 22 26 27 22 26 27 22 26 27 22 26 27 22 26 27 22 26 27 22 26 27 22 26 27 22 26 27 22 26 27 22 26 27 22 26 27
22 26 27 22 26 27 22 26 27 22 26 27 22 26 27 22 26 27 22 26 27 22 26 27 22 26 27 22 26 27 22 26 27 22 26 27 22 26 27 22 26 27 22 26 27 22 26 27
22 26 27 81 81 84 81 81 84 81 80 83 80 79 82 75 74 77 79 79 82 55 57 60 53 56 59 46 51 54 66 69 72 63 65 68 65 66 69 81 81 84 75 74 77 83 83 86
70 69 72 78 77 80 76 75 78 68 67 70 75 74 77 77 78 81 83 83 86 66 67 70 78 78 81 72 72 75 79 79 82 65 65 68 79 79 82 87 87 90 88 87 90 72 71 74
87 86 89 78 78 81 81 81 84 55 57 60 63 66 69 57 62 65 59 63 66 75 77 80 65 66 69 62 62 65 82 81 84 74 73 76 71 71 74 79 79 82 58 60 63 70 73 76
50 55 58 71 74 77 72 74 77 62 62 65 68 67 70 69 68 71 87 86 89 78 78 81 78 79 82 64 68 71 43 48 51 70 73 76 66 67 70 77 77 80 80 80 83 68 67 70
67 66 69 69 69 72 63 65 68 53 57 60 65 69 72 60 62 65 62 67 70 50 55 58 51 56 59 55 60 63 57 62 65 47 52 55 42 47 50 47 52 55 62 67 70 47 52 55
22 26 27 22 26 27 22 26 27 74 78 78 72 76 76 73 77 77 22 26 27 90 94 94 74 78 78 89 93 93 72 76 76 22 26 27 72 76 76 72 76 76 82 86 86 69 73 73
62 108 156 59 104 151 55 99 144 124 109 151 62 108 155 54 96 141 54 96 141 65 112 162 122 110 152 56 100 145 82 115 163 62 108 156 64 111 160 113 111 155 62 108 156 65 112 161
126 109 151 26 26 24 26 26 24 26 26 24 26 26 24 26 26 24 26 26 24 26 26 24 26 26 24 26 26 24 26 26 24 26 26 24 26 26 24 26 26 24 26 26 24 26 26 24
26 26 24 26 26 24 26 26 24 26 26 24 26 26 24 26 26 24 26 26 24 26 26 24 26 26 24 26 26 24 26 26 24 26 26 24 26 26 24 26 26 24 26 26 24 26 26 24
26 26 24 26 26 24 26 26 24 26 26 24 26 26 24 26 26 24 26 26 24 26 26 24 26 26 24 26 26 24 26 26 24 26 26 24 26 26 24 26 26 24 26 26 24 26 26 24
26 26 24 26 26 24 26 26 24 26 26 24 26 26 24 26 26 24 26 26 24 26 26 24 26 26 24 26 26 24 26 26 24 26 26 24 26 26 24 26 26 24 26 26 24 26 26 24
26 26 24 26 26 24 26 26 24 26 26 24 26 26 24 26 26 24 26 26 24 26 26 24 26 26 24 26 26 24 26 26 24 26 26 24 26 26 24 26 26 24 63 110 158 54 97 142
110 111 155 57 101 147 58 103 149 59 104 151 132 108 149 65 112 161 107 112 156 64 111 160 64 111 160 58 103 150 66 113 163 54 97 141 57 101 147 22 26 27 22 26 27 22 26 27
22 26 27 22 26 27 22 26 27 22 26 27 22 26 27 22 26 27 102 103 95 108 109 100 91 94 87 96 98 91 100 102 94 106 107 99 104 105 97 81 84 79 100 102 94 101 103 95
97 99 92 91 93 87 100 102 94 94 96 89 22 26 27 22 26 27 22 26 27 22 26 27 22 26 27 22 26 27 22 26 27 22 26 27 22 26 27 22 26 27 22 26 27 22 26 27
22 26 27 22 26 27 22 26 27 22 26 27 22 26 27 22 26 27 22 26 27 22 26 27 22 26 27 22 26 27 22 26 27 22 26 27 22 26 27 22 26 27 22 26 27 22 26 27
22 26 27 72 74 77 67 67 70 66 65 68 83 82 85 83 82 85 73 72 75 64 64 67 69 71 74 67 70 73 49 53 56 43 47 50 50 53 56 67 69 72 73 74 77 63 63 66
72 72 75 70 69 72 70 69 72 80 79 82 69 68 71 81 80 83 69 68 71 70 69 72 81 80 83 70 69 72 85 84 87 80 79 82 86 85 88 73 72 75 73 73 76 72 72 75
78 79 82 59 60 63 57 59 62 63 67 70 56 61 64 59 62 65 58 60 63 78 79 82 79 78 81 84 83 86 78 77 80 67 66 69 65 65 68 77 79 82 58 60 63 49 54 57
64 67 70 74 76 79 64 65 68 74 73 76 80 79 82 77 76 79 66 66 69 67 68 71 55 57 60 51 55 58 64 68 71 74 76 79 74 74 77 74 73 76 87 86 89 83 82 85
75 75 78 61 62 65 68 71 74 63 68 71 54 57 60 79 80 83 59 64 67 62 67 70 42 47 50 42 47 50 61 66 69 62 67 70 60 65 68 54 59 62 42 47 50 58 63 66
22 26 27 22 26 27 22 26 27 85 89 89 83 87 87 92 96 96 22 26 27 85 89 89 92 96 96 86 90 90 78 82 82 22 26 27 76 80 80 77 81 81 83 87 87 70 74 74
56 99 144 67 114 163 71 118 168 68 116 166 59 103 149 143 109 148 68 117 167 57 100 146 55 98 142 62 108 156 53 96 140 57 100 146 65 112 161 64 110 159 64 111 159 65 112 161
69 117 167 26 26 24 26 26 24 26 26 24 26 26 24 26 26 24 26 26 24 26 26 24 26 26 24 26 26 24 26 26 24 26 26 24 26 26 24 26 26 24 26 26 24 26 26 24
26 26 24 26 26 24 26 26 24 26 26 24 26 26 24 26 26 24 26 26 24 26 26 24 26 26 24 26 26 24 26 26 24 26 26 24 26 26 24 26 26 24 26 26 24 26 26 24
26 26 24 26 26 24 26 26 24 26 26 24 26 26 24 26 26 24 26 26 24 26 26 24 26 26 24 26 26 24 26 26 24 26 26 24 26 26 24 26 26 24 26 26 24 26 26 24
26 26 24 26 26 24 26 26 24 26 26 24 26 26 24 26 26 24 26 26 24 26 26 24 26 26 24 26 26 24 26 26 24 26 26 24 26 26 24 26 26 24 26 26 24 26 26 24
26 26 24 26 26 24 26 26 24 26 26 24 26 26 24 26 26 24 26 26 24 26 26 24 26 26 24 26 26 24 26 26 24 26 26 24 26 26 24 26 26 24 60 105 152 58 102 149
137 109 150 63 109 157 67 114 164 62 108 156 99 114 160 59 103 149 58 102 148 54 96 141 55 98 143 68 116 166 80 117 165 93 115 162 64 110 158 22 26 27 22 26 27 22 26 27
22 26 27 22 26 27 22 26 27 22 26 27 22 26 27 22 26 27 101 103 95 108 109 100 94 96 89 107 108 99 95 97 90 91 93 87 101 103 95 90 92 86 87 89 83 101 103 95
103 104 96 82 85 80 109 110 102 81 84 79 22 26 27 22 26 27 22 26 27 22 26 27 22 26 27 22 26 27 22 26 27 22 26 27 22 26 27 22 26 27 22 26 27 22 26 27
22 26 27 22 26 27 22 26 27 22 26 27 22 26 27 22 26 27 22 26 27 22 26 27 22 26 27 22 26 27 22 26 27 22 26 27 22 26 27 22 26 27 22 26 27 22 26 27
22 26 27 64 67 70 69 70 73 71 71 74 77 76 79 73 72 75 71 70 73 71 71 74 75 75 78 66 67 70 60 62 65 58 62 65 49 54 57 47 51 54 63 66 69 56 58 61
77 78 81 60 61 64 65 65 68 67 67 70 74 73 76 66 66 69 73 72 75 79 78 81 83 82 85 75 74 77 72 71 74 85 85 88 71 71 74 79 79 82 81 82 85 64 65 68
57 59 62 48 52 55 59 64 67 63 67 70 62 65 68 67 69 72 76 76 79 74 74 77 78 78 81 72 71 74 89 88 91 72 72 75 66 67 70 63 65 68 44 49 52 66 70 73
51 54 57 78 79 82 68 67 70 87 87 90 75 74 77 66 65 68 65 65 68 70 72 75 66 70 73 57 61 64 68 71 74 74 75 78 75 75 78 81 80 83 88 87 90 66 65 68
77 78 81 65 67 70 52 56 59 47 51 54 72 74 77 70 71 74 52 57 60 41 46 49 57 62 65 45 50 53 47 52 55 60 65 68 53 58 61 63 68 71 47 52 55 61 66 69
22 26 27 22 26 27 22 26 27 90 94 94 83 87 87 73 77 77 22 26 27 73 77 77 72 76 76 77 81 81 80 84 84 22 26 27 72 76 76 86 90 90 83 87 87 75 79 79
58 103 149 66 114 163 69 116 166 64 111 159 58 102 149 67 116 166 66 114 164 64 111 159 125 109 150 53 95 139 67 115 165 53 96 140 62 109 157 124 109 150 67 115 165 60 106 153
63 109 158 26 26 24 26 26 24 26 26 24 26 26 24 26 26 24 26 26 24 26 26 24 26 26 24 26 26 24 26 26 24 26 26 24 26 26 24 26 26 24 26 26 24 26 26 24
26 26 24 26 26 24 26 26 24 26 26 24 26 26 24 26 26 24 26 26 24 26 26 24 26 26 24 26 26 24 26 26 24 26 26 24 26 26 24 26 26 24 26 26 24 26 26 24
26 26 24 26 26 24 26 26 24 26 26 24 26 26 24 26 26 24 26 26 24 26 26 24 26 26 24 26 26 24 26 26 24 26 26 24 26 26 24 26 26 24 26 26 24 26 26 24
26 26 24 26 26 24 26 26 24 26 26 24 26 26 24 26 26 24 26 26 24 26 26 24 26 26 24 26 26 24 26 26 24 26 26 24 26 26 24 26 26 24 26 26 24 26 26 24
26 26 24 26 26 24 26 26 24 26 26 24 26 26 24 26 26 24 26 26 24 26 26 24 26 26 24 26 26 24 26 26 24 26 26 24 26 26 24 26 26 24 56 101 146 54 96 141
51 93 137 61 107 155 66 114 164 58 103 150 60 106 153 62 108 155 54 97 142 66 114 164 98 112 158 55 98 144 65 112 161 66 114 164 67 115 165 22 26 27 22 26 27 22 26 27
22 26 27 22 26 27 22 26 27 22 26 27 22 26 27 22 26 27 94 96 89 102 104 96 81 84 79 98 99 92 101 103 95 91 93 87 81 84 79 106 107 99 101 102 94 92 94 87
85 88 82 91 94 87 97 99 92 98 99 92 22 26 27 22 26 27 22 26 27 22 26 27 22 26 27 22 26 27 22 26 27 22 26 27 22 26 27 22 26 27 22 26 27 22 26 27
22 26 27 22 26 27 22 26 27 22 26 27 22 26 27 22 26 27 22 26 27 22 26 27 22 26 27 22 26 27 22 26 27 22 26 27 22 26 27 22 26 27 22 26 27 22 26 27
22 26 27 44 49 52 55 58 61 70 72 75 81 81 84 83 83 86 68 68 71 73 72 75 87 86 89 71 70 73 64 65 68 67 69 72 58 60 63 47 51 54 53 58 61 48 52 55
60 63 66 61 64 67 55 57 60 63 64 67 63 65 68 74 75 78 76 77 80 76 77 80 62 63 66 66 67 70 76 77 80 55 57 60 70 72 75 57 59 62 71 74 77 49 53 56
55 60 63 50 54 57 63 66 69 64 65 68 62 63 66 79 79 82 74 74 77 85 84 87 81 80 83 82 82 85 80 80 83 80 82 85 64 67 70 49 53 56 45 49 52 60 62 65
75 76 79 79 79 82 84 83 86 79 78 81 75 74 77 69 69 72 57 58 61 65 68 71 49 54 57 61 64 67 71 73 76 80 81 84 77 77 80 74 73 76 68 67 70 81 81 84
75 76 79 71 74 77 59 64 67 69 72 75 79 81 84 54 59 62 44 49 52 50 55 58 56 61 64 64 69 72 52 57 60 50 55 58 63 68 71 44 49 52 53 58 61 44 49 52
22 26 27 22 26 27 22 26 27 88 92 92 75 79 79 90 94 94 22 26 27 73 77 77 70 74 74 80 84 84 78 82 82 22 26 27 80 84 84 78 82 82 87 91 91 88 92 92
60 107 156 102 106 150 62 110 159 56 102 148 57 103 150 90 107 153 49 92 136 62 110 159 59 106 154 118 104 145 73 110 158 54 98 144 51 95 140 61 108 156 52 95 141 88 108 154
57 103 151 26 26 24 26 26 24 26 26 24 26 26 24 26 26 24 26 26 24 26 26 24 26 26 24 26 26 24 26 26 24 26 26 24 26 26 24 26 26 24 26 26 24 26 26 24
26 26 24 26 26 24 26 26 24 26 26 24 26 26 24 26 26 24 26 26 24 26 26 24 26 26 24 26 26 24 26 26 24 26 26 24 26 26 24 26 26 24 26 26 24 26 26 24
26 26 24 26 26 24 26 26 24 26 26 24 26 26 24 26 26 24 26 26 24 26 26 24 26 26 24 26 26 24 26 26 24 26 26 24 26 26 24 26 26 24 26 26 24 26 26 24
26 26 24 26 26 24 26 26 24 26 26 24 26 26 24 26 26 24 26 26 24 26 26 24 26 26 24 26 26 24 26 26 24 26 26 24 26 26 24 26 26 24 26 26 24 26 26 24
26 26 24 26 26 24 26 26 24 26 26 24 26 26 24 26 26 24 26 26 24 26 26 24 26 26 24 26 26 24 26 26 24 26 26 24 26 26 24 26 26 24 48 90 133 69 110 159
49 92 136 133 102 141 119 104 145 139 101 140 50 93 138 127 103 143 94 107 152 50 93 138 53 98 144 57 102 149 57 102 149 62 110 159 53 98 144 22 26 27 22 26 27 22 26 27
22 26 27 22 26 27 22 26 27 22 26 27 22 26 27 22 26 27 82 85 79 82 85 80 97 99 92 98 100 93 101 103 95 95 97 90 106 108 99 105 106 98 104 105 97 100 101 94
93 95 88 89 91 85 84 87 81 101 102 95 22 26 27 22 26 27 22 26 27 22 26 27 22 26 27 22 26 27 22 26 27 22 26 27 22 26 27 22 26 27 22 26 27 22 26 27
22 26 27 22 26 27 22 26 27 22 26 27 22 26 27 22 26 27 22 26 27 22 26 27 22 26 27 22 26 27 22 26 27 22 26 27 22 26 27 22 26 27 22 26 27 22 26 27
22 26 27 56 59 62 44 49 52 70 73 76 73 75 78 62 63 66 70 70 73 80 79 82 86 85 88 70 69 72 68 68 71 71 71 74 76 77 80 78 79 82 62 64 67 64 67 70
58 62 65 58 62 65 51 56 59 59 64 67 63 67 70 56 59 62 48 52 55 62 65 68 54 57 60 70 73 76 58 61 64 45 49 52 42 47 50 46 50 53 51 55 58 71 74 77
66 68 71 71 73 76 67 68 71 82 82 85 87 86 89 84 84 87 71 70 73 77 77 80 85 85 88 70 70 73 66 68 71 64 67 70 45 49 52 49 53 56 71 73 76 79 80 83
86 86 89 74 73 76 68 67 70 88 87 90 84 84 87 72 73 76 67 69 72 44 48 51 59 63 66 53 55 58 80 81 84 80 80 83 78 77 80 80 79 82 83 83 86 82 82 85
72 74 77 58 62 65 60 64 67 54 56 59 68 69 72 42 47 50 52 57 60 54 59 62 61 66 69 44 49 52 60 65 68 40 45 48 60 65 68 61 66 69 43 48 51 60 65 68
22 26 27 22 26 27 22 26 27 76 80 80 81 85 85 86 90 90 22 26 27 83 87 87 82 86 86 85 89 89 87 91 91 22 26 27 72 76 76 74 78 78 83 87 87 71 75 75
51 96 142 54 100 147 54 100 148 43 85 128 47 91 136 45 88 132 46 89 134 57 104 153 49 94 140 42 84 126 52 98 144 49 94 140 63 104 152 55 102 150 73 102 149 48 93 138
56 103 151 55 101 149 52 98 145 56 103 152 51 97 143 124 96 135 44 86 129 48 92 138 49 94 139 64 104 151 125 96 135 93 100 143 44 87 130 43 85 128 118 97 136 126 96 134
73 102 149 45 89 133 57 105 153 44 86 130 61 104 152 46 89 133 52 97 144 57 104 153 55 102 150 57 104 153 48 91 137 108 98 139 63 104 152 107 98 140 44 86 130 41 83 125
43 84 127 111 98 138 44 86 130 71 103 149 51 96 143 48 92 138 48 92 138 51 97 143 54 101 149 55 102 150 56 103 152 44 86 130 79 102 147 53 100 147 40 82 124 44 87 130
56 104 153 49 94 140 71 103 149 41 82 125 42 84 127 99 99 142 42 83 126 43 85 128 45 88 133 53 99 146 55 102 150 44 86 130 41 82 125 45 87 131 55 102 150 103 99 141
55 102 150 98 99 142 131 95 133 52 97 144 43 85 128 42 83 126 48 92 137 46 89 134 49 93 139 75 102 148 46 89 134 43 85 128 96 100 143 52 97 144 48 92 137 57 104 153
41 82 124 47 90 135 52 98 145 48 92 137 52 98 144 42 84 127 124 96 135 83 101 146 43 85 128 80 102 147 113 97 138 44 87 131 52 98 145 22 26 27 22 26 27 22 26 27
22 26 27 22 26 27 22 26 27 22 26 27 22 26 27 22 26 27 102 104 96 88 90 84 97 99 92 80 83 78 105 106 98 84 87 81 95 97 90 104 105 97 103 104 96 87 90 84
108 109 101 84 87 82 86 88 82 105 106 98 22 26 27 22 26 27 22 26 27 22 26 27 22 26 27 22 26 27 22 26 27 22 26 27 22 26 27 22 26 27 22 26 27 22 26 27
22 26 27 22 26 27 22 26 27 22 26 27 22 26 27 22 26 27 22 26 27 22 26 27 22 26 27 22 26 27 22 26 27 22 26 27 22 26 27 22 26 27 22 26 27 22 26 27
22 26 27 72 74 77 62 65 68 57 62 65 48 52 55 59 62 65 77 78 81 84 85 88 73 73 76 83 82 85 83 82 85 85 84 87 80 79 82 81 81 84 79 79 82 73 74 77
64 66 69 75 77 80 62 64 67 59 62 65 68 71 74 58 62 65 56 60 63 65 69 72 63 67 70 67 70 73 54 57 60 66 69 72 65 68 71 68 70 73 71 72 75 74 75 78
83 83 86 84 84 87 72 71 74 88 88 91 82 81 84 88 87 90 75 75 78 67 67 70 71 72 75 74 76 79 55 59 62 63 68 71 56 60 63 73 75 78 60 61 64 62 62 65
72 71 74 78 77 80 75 74 77 76 76 79 79 80 83 63 65 68 46 50 53 55 59 62 73 75 78 73 74 77 78 78 81 65 64 67 68 67 70 84 84 87 62 63 66 65 66 69
62 66 69 51 56 59 56 59 62 78 79 82 62 67 70 48 53 56 41 46 49 43 48 51 43 48 51 51 56 59 56 61 64 63 68 71 48 53 56 42 47 50 58 63 66 63 68 71
22 26 27 22 26 27 22 26 27 83 87 87 69 73 73 90 94 94 22 26 27 93 97 97 70 74 74 80 84 84 69 73 73 22 26 27 76 80 80 90 94 94 69 73 73 85 89 89
47 93 139 41 84 128 51 98 145 36 77 119 43 87 131 44 89 134 46 92 138 46 91 137 43 87 132 51 98 146 48 94 141 40 82 126 50 97 144 43 86 131 41 84 128 50 97 145
68 96 142 42 86 130 40 83 127 39 82 125 41 84 127 47 92 139 74 95 140 123 89 127 49 95 142 43 87 132 37 78 120 40 83 127 110 91 130 35 76 118 47 93 139 42 85 129
40 82 126 39 81 125 42 86 130 50 97 144 40 83 127 44 89 134 37 78 120 49 95 143 65 97 142 43 87 132 38 80 123 49 96 143 48 94 141 45 90 135 93 93 135 51 98 146
44 88 133 44 89 134 41 85 129 49 95 142 49 96 143 36 77 119 41 84 128 38 80 123 114 90 129 42 86 130 46 91 136 41 84 128 47 93 139 43 88 132 49 95 142 40 83 126
66 96 142 48 94 141 113 91 129 39 81 124 42 86 130 37 79 121 38 80 123 49 96 143 49 95 142 50 96 144 48 94 141 97 92 134 47 93 140 48 94 141 47 93 139 39 81 124
46 92 138 49 96 143 50 97 144 44 88 134 37 78 121 49 95 142 40 83 127 42 86 131 77 95 139 35 76 118 39 81 124 118 90 128 46 91 136 41 85 129 38 80 122 50 97 145
89 94 136 42 85 130 41 84 128 48 94 140 43 87 132 45 90 136 44 88 133 43 87 132 37 79 121 49 95 143 45 90 135 40 83 127 40 83 126 22 26 27 22 26 27 22 26 27
22 26 27 22 26 27 22 26 27 22 26 27 22 26 27 22 26 27 85 88 82 87 89 83 92 94 87 99 100 93 95 97 90 109 110 101 98 100 93 84 87 81 94 96 89 102 104 96
108 109 100 102 104 96 109 110 101 101 102 94 22 26 27 22 26 27 22 26 27 22 26 27 22 26 27 22 26 27 22 26 27 22 26 27 22 26 27 22 26 27 22 26 27 22 26 27
22 26 27 22 26 27 22 26 27 22 26 27 22 26 27 22 26 27 22 26 27 22 26 27 22 26 27 22 26 27 22 26 27 22 26 27 22 26 27 22 26 27 22 26 27 22 26 27
22 26 27 77 77 80 75 77 80 57 60 63 52 56 59 45 50 53 52 55 58 60 62 65 57 58 61 80 80 83 68 67 70 69 68 71 81 80 83 76 75 78 65 65 68 81 81 84
66 66 69 63 63 66 79 80 83 64 65 68 68 69 72 64 65 68 61 63 66 59 60 63 56 58 61 66 67 70 63 64 67 82 82 85 80 80 83 82 82 85 64 63 66 88 87 90
75 74 77 66 65 68 72 71 74 72 71 74 64 64 67 79 79 82 76 77 80 59 60 63 73 76 79 53 57 60 62 66 69 68 71 74 76 78 81 78 79 82 77 77 80 82 81 84
81 80 83 74 73 76 77 77 80 67 68 71 63 65 68 56 60 63 52 57 60 63 65 68 79 80 83 62 62 65 73 72 75 82 81 84 71 70 73 71 71 74 72 74 77 66 68 71
51 56 59 48 52 55 72 74 77 64 69 72 54 59 62 52 57 60 43 48 51 51 56 59 44 49 52 51 56 59 47 52 55 53 58 61 47 52 55 54 59 62 52 57 60 49 54 57
22 26 27 22 26 27 22 26 27 78 82 82 71 75 75 74 78 78 22 26 27 77 81 81 72 76 76 91 95 95 89 93 93 22 26 27 70 74 74 91 95 95 74 78 78 71 75 75
32 72 114 120 84 121 89 88 129 34 75 117 36 79 122 38 82 126 114 85 122 45 92 138 43 88 134 43 88 134 39 83 127 35 77 120 40 85 129 36 78 121 43 89 135 31 72 113
46 93 140 38 82 125 41 86 131 101 87 126 45 92 138 46 93 140 38 82 125 45 92 139 32 74 115 121 84 121 34 76 119 38 81 125 35 78 120 35 78 120 73 90 134 39 82 126
41 86 131 43 89 135 43 89 135 44 91 137 34 76 118 36 79 122 31 71 112 37 80 124 44 90 136 45 92 139 30 71 112 30 71 112 44 90 136 35 77 119 43 88 133 41 86 131
42 88 133 92 88 128 32 73 114 34 76 118 34 76 119 41 86 131 36 79 122 62 92 137 41 86 131 34 76 118 41 85 130 41 85 130 40 85 130 35 77 119 35 78 120 55 93 139
31 72 113 38 82 126 44 89 135 52 93 139 57 92 138 41 86 131 64 91 136 41 85 130 38 81 125 103 86 125 71 90 134 31 72 113 36 78 121 31 72 113 44 90 136 32 74 115
109 86 124 34 76 119 42 88 133 51 93 140 41 85 130 44 90 136 54 93 139 33 75 117 51 93 140 35 77 120 38 81 125 38 82 126 37 81 124 119 84 121 42 86 132 116 85 122
36 79 123 45 91 138 45 92 138 39 82 126 42 88 133 42 87 132 76 90 133 45 91 138 35 78 121 36 78 121 44 89 135 32 73 114 32 74 115 22 26 27 22 26 27 22 26 27
22 26 27 22 26 27 22 26 27 22 26 27 22 26 27 22 26 27 96 98 91 82 85 79 93 96 89 109 110 101 81 83 78 99 100 93 97 99 92 110 111 102 85 88 82 97 99 92
104 106 97 94 96 89 107 108 99 90 92 86 22 26 27 22 26 27 22 26 27 22 26 27 22 26 27 22 26 27 22 26 27 22 26 27 22 26 27 22 26 27 22 26 27 22 26 27
22 26 27 22 26 27 22 26 27 22 26 27 22 26 27 22 26 27 22 26 27 22 26 27 22 26 27 22 26 27 22 26 27 22 26 27 22 26 27 22 26 27 22 26 27 22 26 27
22 26 27 72 72 75 81 82 85 79 80 83 69 71 74 55 59 62 48 52 55 52 56 59 56 59 62 55 57 60 72 73 76 82 83 86 73 72 75 82 82 85 69 69 72 86 85 88
81 80 83 66 65 68 77 77 80 76 75 78 72 71 74 83 83 86 82 81 84 85 84 87 78 77 80 88 88 91 76 76 79 88 87 90 88 87 90 79 78 81 70 69 72 79 78 81
75 74 77 76 75 78 74 74 77 66 66 69 69 70 73 70 71 74 56 59 62 61 64 67 60 65 68 62 66 69 58 60 63 63 64 67 65 65 68 82 82 85 89 89 92 90 89 92
68 67 70 63 63 66 64 65 68 67 69 72 46 50 53 63 68 71 55 58 61 68 69 72 71 71 74 66 66 69 85 84 87 69 68 71 82 81 84 73 74 77 62 65 68 58 62 65
54 58 61 71 74 77 79 80 83 61 66 69 53 58 61 50 55 58 45 50 53 45 50 53 63 68 71 47 52 55 42 47 50 54 59 62 51 56 59 52 57 60 47 52 55 47 52 55
22 26 27 22 26 27 22 26 27 88 92 92 74 78 78 79 83 83 22 26 27 85 89 89 81 85 85 75 79 79 70 74 74 22 26 27 93 97 97 78 82 82 86 90 90 77 81 81
86 85 126 34 77 120 32 74 116 109 82 119 38 82 126 33 76 119 38 82 126 52 89 135 28 68 109 80 86 127 40 85 130 33 75 118 29 70 112 36 79 123 28 68 109 41 86 132
86 85 126 41 86 132 33 75 117 38 83 128 63 88 132 71 87 130 38 83 127 120 81 116 33 75 118 32 74 116 31 72 114 29 70 111 32 74 116 27 68 108 28 69 109 116 81 118
42 89 135 53 89 135 37 81 126 35 78 122 34 77 120 32 74 116 32 74 116 30 72 113 38 82 127 36 79 123 43 89 136 39 84 129 92 84 124 117 81 117 27 67 108 40 86 131
35 78 121 91 84 124 42 88 134 43 89 136 41 87 133 39 83 128 39 83 128 102 83 121 32 74 116 43 90 137 34 76 119 31 72 114 35 78 121 36 80 124 36 80 124 41 86 132
43 90 137 34 77 120 42 88 135 42 88 135 28 69 110 43 89 136 41 87 132 38 82 126 43 89 136 29 70 111 28 68 108 29 69 110 32 75 117 64 88 132 40 85 131 105 83 120
41 87 133 33 76 119 61 88 132 95 84 123 41 87 133 38 83 127 34 76 119 109 82 119 42 88 135 33 75 117 34 77 120 28 68 109 43 90 137 37 81 125 81 86 127 37 82 126
28 69 109 34 76 119 29 70 111 42 88 134 103 83 121 56 89 134 31 73 115 33 76 118 29 70 112 29 70 111 29 69 110 29 70 111 28 69 109 22 26 27 22 26 27 22 26 27
22 26 27 22 26 27 22 26 27 22 26 27 22 26 27 22 26 27 22 26 27 22 26 27 22 26 27 22 26 27 22 26 27 22 26 27 22 26 27 22 26 27 22 26 27 22 26 27
22 26 27 22 26 27 22 26 27 22 26 27 22 26 27 22 26 27 22 26 27 22 26 27 22 26 27 22 26 27 22 26 27 22 26 27 22 26 27 22 26 27 22 26 27 22 26 27
22 26 27 22 26 27 22 26 27 22 26 27 22 26 27 22 26 27 22 26 27 22 26 27 22 26 27 22 26 27 22 26 27 22 26 27 22 26 27 22 26 27 22 26 27 22 26 27
22 26 27 90 89 92 88 87 90 67 67 70 61 61 64 78 79 82 68 71 74 47 51 54 50 55 58 50 55 58 70 73 76 56 58 61 71 73 76 78 79 82 79 80 83 63 63 66
87 87 90 67 67 70 77 76 79 79 79 82 76 75 78 88 87 90 81 80 83 85 84 87 66 65 68 70 69 72 73 72 75 84 83 86 88 87 90 88 87 90 69 68 71 64 63 66
67 67 70 82 83 86 74 76 79 53 55 58 57 60 63 50 54 57 54 59 62 49 53 56 66 68 71 72 74 77 83 83 86 73 73 76 82 81 84 75 74 77 69 68 71 88 88 91
77 77 80 71 73 76 67 69 72 48 52 55 55 59 62 65 68 71 74 75 78 81 81 84 69 69 72 68 67 70 66 65 68 68 68 71 77 77 80 58 60 63 61 64 67 60 65 68
59 61 64 78 80 83 56 61 64 49 54 57 60 65 68 55 60 63 60 65 68 48 53 56 54 59 62 53 58 61 62 67 70 51 56 59 52 57 60 46 51 54 57 62 65 61 66 69
22 26 27 22 26 27 22 26 27 80 84 84 81 85 85 70 74 74 22 26 27 84 88 88 92 96 96 83 87 87 83 87 87 22 26 27 77 81 81 87 91 91 81 85 85 70 74 74
37 82 126 32 75 118 33 76 119 74 84 126 27 68 109 40 85 131 35 79 123 34 78 122 35 78 122 43 88 135 41 88 134 35 79 123 41 88 134 27 67 108 40 85 131 45 88 134
110 80 116 39 85 130 41 88 134 31 73 116 41 88 134 35 79 123 29 71 112 38 83 128 33 76 120 32 75 118 41 88 134 37 82 127 31 73 115 46 88 134 39 85 130 36 81 125
41 88 134 37 81 126 81 83 124 34 78 121 40 86 132 40 86 132 31 73 115 29 71 112 40 86 132 81 83 124 36 80 124 40 86 131 40 86 132 35 79 123 31 73 115 32 74 117
33 76 119 116 79 115 36 80 124 41 87 133 31 73 116 49 87 133 38 83 128 33 77 120 52 87 132 39 85 130 31 73 115 29 70 111 41 87 133 37 81 126 69 85 127 40 85 131
89 82 122 41 88 134 30 72 113 35 78 122 26 66 107 34 77 121 42 88 135 52 87 132 44 88 134 39 84 129 26 66 106 28 69 110 33 76 120 32 74 117 32 75 118 106 80 117
30 72 114 28 68 109 33 76 119 35 79 123 28 70 111 34 78 121 28 69 110 28 68 109 32 75 118 36 80 124 33 76 119 58 86 131 27 68 109 29 71 113 33 76 119 39 85 131
80 84 125 33 76 119 28 68 109 27 68 109 31 74 116 47 88 133 32 74 117 28 70 111 28 69 110 37 82 127 26 67 107 61 86 130 32 74 117 22 26 27 22 26 27 22 26 27
22 26 27 22 26 27 22 26 27 22 26 27 22 26 27 22 26 27 22 26 27 22 26 27 22 26 27 22 26 27 22 26 27 22 26 27 22 26 27 22 26 27 22 26 27 22 26 27
22 26 27 22 26 27 22 26 27 22 26 27 22 26 27 22 26 27 22 26 27 22 26 27 22 26 27 22 26 27 22 26 27 22 26 27 22 26 27 22 26 27 22 26 27 22 26 27
22 26 27 22 26 27 22 26 27 22 26 27 22 26 27 22 26 27 22 26 27 22 26 27 22 26 27 22 26 27 22 26 27 22 26 27 22 26 27 22 26 27 22 26 27 22 26 27
22 26 27 85 85 88 88 87 90 77 76 79 73 72 75 71 71 74 75 76 79 78 79 82 60 62 65 52 56 59 52 56 59 48 53 56 57 61 64 65 68 71 69 72 75 70 72 75
66 67 70 69 70 73 82 83 86 74 75 78 65 65 68 70 70 73 82 82 85 65 65 68 79 79 82 85 85 88 71 71 74 82 82 85 65 65 68 75 76 79 80 81 84 55 56 59
68 70 73 69 72 75 65 69 72 65 70 73 65 69 72 64 68 71 62 65 68 63 65 68 68 69 72 78 79 82 86 85 88 85 84 87 71 70 73 85 84 87 66 66 69 80 81 84
72 73 76 60 63 66 44 48 51 65 69 72 71 74 77 63 64 67 61 61 64 71 71 74 87 86 89 77 76 79 82 82 85 73 74 77 56 58 61 55 59 62 51 56 59 66 69 72
76 78 81 48 53 56 56 61 64 46 51 54 56 61 64 59 64 67 48 53 56 44 49 52 59 64 67 47 52 55 42 47 50 46 51 54 64 69 72 57 62 65 63 68 71 41 46 49
22 26 27 22 26 27 22 26 27 88 92 92 71 75 75 70 74 74 22 26 27 81 85 85 86 90 90 71 75 75 75 79 79 22 26 27 72 76 76 71 75 75 75 79 79 87 91 91
27 68 109 29 71 113 34 78 122 36 81 126 35 79 123 34 77 121 27 68 109 30 72 115 37 83 128 36 81 126 67 83 125 27 68 109 36 81 127 36 81 126 40 86 133 32 76 119
34 79 123 24 64 103 71 82 124 37 82 127 40 86 132 40 86 132 33 77 120 34 78 122 24 64 103 29 71 114 34 77 121 30 72 114 24 64 104 36 80 125 37 82 127 25 65 106
27 69 110 33 76 120 29 71 113 108 78 114 30 73 115 36 80 125 29 71 113 49 85 130 25 65 106 37 82 127 24 64 105 89 80 119 24 63 103 62 84 127 106 78 115 92 80 118
25 65 106 27 69 110 37 82 127 39 85 131 36 80 125 37 82 127 28 70 112 31 74 117 28 69 111 79 81 122 37 82 128 27 68 109 35 79 124 25 65 106 101 79 116 27 68 110
39 85 131 27 69 110 38 84 129 110 77 114 35 79 123 28 69 111 34 78 123 27 68 109 26 67 107 34 78 122 30 72 115 38 84 130 55 84 129 33 76 120 98 79 117 35 79 123
33 77 121 32 76 119 80 81 122 39 86 132 24 64 104 35 80 125 29 71 113 28 70 112 43 86 132 26 67 109 29 71 113 67 83 125 37 83 128 39 85 131 28 70 111 25 65 105
28 70 112 28 69 110 35 79 123 24 64 104 38 84 129 36 80 125 95 79 118 72 82 124 34 78 122 40 86 133 29 71 113 25 66 107 37 82 128 98 102 100 94 98 96 77 81 79
85 89 87 90 94 92 90 94 92 85 89 87 88 92 90 85 89 87 96 100 98 81 85 83 90 94 92 81 85 83 77 81 79 97 101 99 93 97 95 87 91 89 97 101 99 88 92 90
98 102 100 83 87 85 91 95 93 80 84 82 89 93 91 96 100 98 85 89 87 82 86 84 85 89 87 90 94 92 85 89 87 82 86 84 93 97 95 75 79 77 87 91 89 92 92 90
104 106 104 88 91 89 98 101 99 91 93 91 96 96 94 114 113 111 113 111 109 105 103 101 107 105 103 110 109 107 95 95 93 103 104 102 83 85 83 78 81 79 91 94 92 89 91 89
111 112 110 117 116 114 103 102 100 122 120 118 121 119 117 123 121 119 104 102 100 112 110 108 117 116 114 102 102 100 93 93 91 102 104 102 99 101 99 97 101 99 80 84 82 81 84 82
89 92 90 104 107 105 86 88 86 104 105 103 90 91 89 93 95 93 111 112 110 106 107 105 97 98 96 88 89 87 101 102 100 99 100 98 90 91 89 102 104 102 88 91 89 45 49 52
49 54 57 44 49 52 45 49 52 66 69 72 70 73 76 76 77 80 79 80 83 83 83 86 82 81 84 78 78 81 88 87 90 70 70 73 66 65 68 69 69 72 75 76 79 72 74 77
49 52 55 61 66 69 64 68 71 69 71 74 78 79 82 71 71 74 71 70 73 77 76 79 89 89 92 74 74 77 65 66 69 56 58 61 58 61 64 61 65 68 61 64 67 73 75 78
56 61 64 59 64 67 47 52 55 58 63 66 50 55 58 60 65 68 54 59 62 58 63 66 47 52 55 48 53 56 52 57 60 44 49 52 43 48 51 42 47 50 55 60 63 56 61 64
22 26 27 22 26 27 22 26 27 85 89 89 77 81 81 91 95 95 22 26 27 78 82 82 70 74 74 85 89 89 92 96 96 22 26 27 71 75 75 80 84 84 71 75 75 76 80 80
34 79 124 25 67 108 77 78 118 24 65 106 28 71 114 25 67 108 36 81 127 34 79 124 34 79 125 62 80 122 26 68 110 72 79 120 97 75 113 45 82 127 24 65 106 34 79 124
29 72 115 27 68 110 35 81 126 30 73 116 21 61 101 23 64 105 56 81 124 24 65 105 28 71 114 36 82 128 30 73 117 28 71 114 22 61 101 28 71 114 31 74 118 42 82 128
37 83 128 106 74 110 30 74 117 70 79 120 22 63 103 27 70 112 21 60 100 34 79 124 29 71 114 30 73 116 73 78 119 21 61 100 34 79 124 59 80 123 28 71 114 37 83 129
36 82 128 24 65 105 40 83 128 57 81 124 27 69 111 109 74 109 22 62 102 26 68 109 35 80 126 27 70 112 34 79 124 57 80 124 28 71 113 34 80 125 29 72 115 115 73 108
111 74 109 87 77 116 29 72 115 26 67 109 31 75 118 26 67 109 26 68 110 23 63 104 26 68 110 30 73 116 22 62 102 32 76 120 29 72 115 114 73 108 37 83 129 22 62 102
21 61 101 32 77 121 34 78 123 26 68 110 28 70 112 28 70 112 25 67 108 35 81 127 22 62 102 23 64 105 73 79 119 34 79 124 26 68 110 34 79 124 35 80 125 32 77 121
30 73 116 30 74 117 29 71 114 29 72 115 35 80 126 34 79 124 25 67 108 31 74 118 21 61 101 35 80 125 25 67 108 24 65 106 25 66 107 86 90 88 75 79 77 79 83 81
89 93 91 82 86 84 87 91 89 88 92 90 93 97 95 81 85 83 88 92 90 94 98 96 87 91 89 79 83 81 95 99 97 94 98 96 91 95 93 78 82 80 80 84 82 91 95 93
96 100 98 86 90 88 86 90 88 93 97 95 86 90 88 97 101 99 88 92 90 84 88 86 78 82 80 88 92 90 96 100 98 91 95 93 95 99 97 85 89 87 79 83 81 98 102 100
90 91 89 99 101 99 96 99 97 89 92 90 108 109 107 95 95 93 109 108 106 98 97 95 109 107 105 119 117 115 111 109 107 109 109 107 95 95 93 105 106 104 80 83 81 95 99 97
84 86 84 96 97 95 104 104 102 99 98 96 107 106 104 109 107 105 107 105 103 123 121 119 103 101 99 120 118 116 98 97 95 98 98 96 110 110 108 90 91 89 92 93 91 106 108 106
87 89 87 93 96 94 94 97 95 86 89 87 82 86 84 93 97 95 94 98 96 89 93 91 92 96 94 91 95 93 81 85 83 75 79 77 80 83 81 101 104 102 102 105 103 58 61 64
52 54 57 54 56 59 59 60 63 77 77 80 65 65 68 69 69 72 87 86 89 87 86 89 84 83 86 73 73 76 65 65 68 82 82 85 67 68 71 59 61 64 50 53 56 67 72 75
62 66 69 64 68 71 59 61 64 73 74 77 75 74 77 83 82 85 67 66 69 75 74 77 85 84 87 80 81 84 66 68 71 69 73 76 56 60 63 50 53 56 57 59 62 43 48 51
50 55 58 64 69 72 48 53 56 54 59 62 51 56 59 59 64 67 61 66 69 60 65 68 59 64 67 43 48 51 54 59 62 46 51 54 46 51 54 60 65 68 46 51 54 62 67 70
22 26 27 22 26 27 22 26 27 72 76 76 87 91 91 81 85 85 22 26 27 80 84 84 79 83 83 69 73 73 82 86 86 22 26 27 82 86 86 76 80 80 73 77 77 81 85 85
25 68 111 19 60 100 26 70 113 26 69 112 80 72 111 32 77 123 19 60 101 73 73 112 51 76 118 28 71 115 32 78 123 31 77 122 24 66 108 30 75 120 20 61 102 26 70 113
85 71 109 25 68 111 21 62 104 20 60 101 23 65 107 31 76 122 29 74 118 23 65 107 32 77 123 21 62 103 21 61 102 28 72 116 31 76 121 22 63 105 29 74 119 45 76 120
19 59 99 93 70 107 56 75 117 26 69 112 100 69 105 25 67 110 28 72 116 17 56 95 26 70 113 20 60 101 25 68 110 32 78 123 24 66 108 84 71 109 20 61 101 20 61 102
26 70 113 26 69 112 28 73 117 23 64 106 22 63 104 22 63 104 22 63 104 93 70 107 21 62 104 28 72 115 23 65 108 26 70 113 22 63 105 16 55 94 23 65 107 25 68 110
25 68 110 58 75 116 26 68 111 26 69 112 19 59 99 30 75 119 79 72 111 31 76 121 28 73 117 20 60 101 27 70 113 23 65 107 21 61 102 42 77 121 19 60 100 19 59 99
24 66 108 52 75 118 104 69 104 28 71 115 23 65 106 26 70 113 29 74 119 28 72 115 20 61 102 28 72 116 22 63 104 17 56 96 31 76 121 30 75 120 22 64 106 17 57 97
22 64 106 20 60 101 20 61 102 20 61 102 17 56 96 17 56 96 24 66 109 32 78 123 28 72 115 17 56 96 27 71 115 108 68 103 65 74 115 90 94 92 97 101 99 95 99 97
78 82 80 86 90 88 98 102 100 76 80 78 79 83 81 85 89 87 77 81 79 91 95 93 79 83 81 83 87 85 97 101 99 83 87 85 89 93 91 95 99 97 95 99 97 88 92 90
98 102 100 80 84 82 92 96 94 76 80 78 85 89 87 92 96 94 86 90 88 96 100 98 85 89 87 75 79 77 84 88 86 85 89 87 98 102 100 82 86 84 94 98 96 81 85 83
81 85 83 110 111 109 105 107 105 80 83 81 80 83 81 99 101 99 103 103 101 116 116 114 104 102 100 122 120 118 119 117 115 114 112 110 117 116 114 95 95 93 106 107 105 106 108 106
92 95 93 87 90 88 97 99 97 90 91 89 96 96 94 100 100 98 112 111 109 106 104 102 100 98 96 115 113 111 116 114 112 113 111 109 106 104 102 102 101 99 100 99 97 108 108 106
94 94 92 103 103 101 100 100 98 104 105 103 96 98 96 88 89 87 105 107 105 98 99 97 109 111 109 89 91 89 95 96 94 106 107 105 102 103 101 101 102 100 93 93 91 82 82 85
78 79 82 76 76 79 66 66 69 68 67 70 77 77 80 71 70 73 89 88 91 75 74 77 83 82 85 64 64 67 67 68 71 69 71 74 68 71 74 53 57 60 57 62 65 47 51 54
67 69 72 64 65 68 82 82 85 68 67 70 81 80 83 84 83 86 74 73 76 63 63 66 65 66 69 72 74 77 55 58 61 54 59 62 71 74 77 64 66 69 61 66 69 49 54 57
62 67 70 57 62 65 59 64 67 53 58 61 57 62 65 63 68 71 50 55 58 54 59 62 59 64 67 44 49 52 62 67 70 40 45 48 58 63 66 41 46 49 62 67 70 58 63 66
22 26 27 22 26 27 22 26 27 87 91 91 69 73 73 72 76 76 22 26 27 80 84 84 82 86 86 91 95 95 70 74 74 22 26 27 90 94 94 80 84 84 74 78 78 73 77 77
95 63 98 16 57 97 21 64 107 26 70 115 13 53 93 18 60 101 87 64 100 25 69 113 23 66 110 92 64 99 15 55 96 20 63 105 24 68 112 101 62 97 23 67 110 25 69 113
73 66 104 20 62 105 93 63 99 17 58 100 24 68 112 17 58 99 25 69 114 11 49 88 19 61 102 62 67 107 22 65 108 12 51 90 14 54 94 25 70 115 17 59 100 92 63 99
20 63 105 20 63 105 26 70 115 21 63 106 67 67 106 18 59 101 44 70 112 17 58 99 10 49 88 31 71 116 15 56 96 14 55 95 56 68 109 26 71 116 42 70 113 14 54 94
69 66 105 14 55 95 22 66 109 78 65 103 12 51 91 26 71 115 16 57 99 16 57 98 15 55 95 94 63 98 19 61 103 19 61 103 60 68 108 25 69 114 104 62 96 20 62 104
27 72 117 20 63 106 22 65 109 14 54 94 20 62 105 88 64 100 63 67 107 15 56 96 12 52 91 25 69 114 16 57 98 19 61 104 23 67 111 11 50 89 19 61 103 20 63 105
20 62 105 20 62 105 43 70 112 23 67 110 24 68 112 24 69 113 42 70 113 15 56 96 63 67 107 17 58 99 25 69 113 11 49 88 19 61 103 11 50 88 13 53 92 17 59 100
22 66 109 12 51 90 16 57 98 11 50 88 13 52 91 23 66 110 11 49 88 11 50 89 12 51 90 27 72 117 95 63 98 67 67 106 45 69 112 97 101 99 86 90 88 85 89 87
91 95 93 79 83 81 94 98 96 90 94 92 74 78 76 87 91 89 91 95 93 80 84 82 74 78 76 80 84 82 88 92 90 88 92 90 75 79 77 75 79 77 97 101 99 78 82 80
92 96 94 80 84 82 93 97 95 88 92 90 81 85 83 79 83 81 75 79 77 78 82 80 82 86 84 84 88 86 81 85 83 88 92 90 77 81 79 79 83 81 80 84 82 87 91 89
90 94 92 96 100 98 91 91 89 90 92 90 82 85 83 94 97 95 91 93 91 92 93 91 103 103 101 101 100 98 113 111 109 122 120 118 107 106 104 104 102 100 111 110 108 111 111 109
98 99 97 87 89 87 82 86 84 99 102 100 99 101 99 100 101 99 105 105 103 113 113 111 100 99 97 105 103 101 108 106 104 115 113 111 111 109 107 108 106 104 120 118 116 115 113 111
120 119 117 113 111 109 113 112 110 104 103 101 109 108 106 112 111 109 115 114 112 99 98 96 111 110 108 105 104 102 96 95 93 108 107 105 117 115 113 98 97 95 106 105 103 72 71 74
78 78 81 85 84 87 72 71 74 71 70 73 85 84 87 70 70 73 78 78 81 80 80 83 63 64 67 69 70 73 65 68 71 50 54 57 46 51 54 54 58 61 63 66 69 74 76 79
70 71 74 83 82 85 68 67 70 77 76 79 83 82 85 65 64 67 68 68 71 69 70 73 71 73 76 53 57 60 59 64 67 55 58 61 78 80 83 45 50 53 41 46 49 40 45 48
57 62 65 46 51 54 59 64 67 45 50 53 52 57 60 47 52 55 59 64 67 41 46 49 43 48 51 51 56 59 44 49 52 56 61 64 55 60 63 46 51 54 59 64 67 48 53 56
22 26 27 22 26 27 22 26 27 72 76 76 93 97 97 73 77 77 22 26 27 92 96 96 87 91 91 75 79 79 82 86 86 22 26 27 71 75 75 88 92 92 83 87 87 77 81 81
11 51 91 8 47 85 20 64 107 9 49 88 19 62 106 17 59 102 21 66 110 7 46 85 11 52 92 10 50 90 7 46 84 10 50 90 6 45 83 22 67 111 17 60 103 22 67 111
14 56 97 54 63 103 11 51 91 14 55 97 7 45 84 18 61 104 13 54 95 38 65 107 10 50 90 75 60 97 17 60 102 6 44 82 11 51 91 16 58 100 21 66 110 6 45 83
11 51 91 12 53 94 27 67 111 19 63 106 15 57 99 37 65 108 10 50 90 19 62 105 11 52 92 11 51 91 16 58 101 86 59 94 8 48 87 16 59 101 64 62 100 9 48 87
19 63 106 18 61 104 20 64 108 16 58 100 55 63 103 17 59 102 7 46 85 14 55 96 15 57 98 8 46 85 58 63 102 97 58 91 20 63 107 13 53 94 30 66 110 9 48 87
7 46 85 14 55 96 19 62 105 20 63 107 21 65 109 52 63 104 16 59 101 17 59 102 14 56 97 68 61 99 19 62 105 11 51 91 15 56 98 16 59 101 14 56 97 19 62 105
9 48 87 84 59 95 20 64 108 7 46 85 13 53 94 67 61 100 6 44 83 16 58 100 54 63 103 11 52 92 11 52 92 88 59 94 19 63 106 13 54 95 11 51 92 17 60 103
13 54 95 12 52 92 20 63 107 16 58 100 10 50 89 18 60 103 21 65 110 8 47 86 16 58 100 14 55 97 6 44 83 38 65 107 58 63 102 79 83 81 93 97 95 97 101 99
89 93 91 94 98 96 92 96 94 76 80 78 78 82 80 96 100 98 96 100 98 92 96 94 92 96 94 91 95 93 95 99 97 79 83 81 84 88 86 89 93 91 96 100 98 90 94 92
81 85 83 97 101 99 91 95 93 80 84 82 87 91 89 79 83 81 84 88 86 76 80 78 97 101 99 84 88 86 77 81 79 90 94 92 86 90 88 96 100 98 79 83 81 95 99 97
90 94 92 83 87 85 88 92 90 94 94 92 93 94 92 90 92 90 96 100 98 104 107 105 93 94 92 112 112 110 117 116 114 119 118 116 102 100 98 111 109 107 119 117 115 106 105 103
100 99 97 92 92 90 101 102 100 82 85 83 97 100 98 83 86 84 94 97 95 93 95 93 110 110 108 111 111 109 94 94 92 115 114 112 104 103 101 102 101 99 114 112 110 110 108 106
121 119 117 111 109 107 106 104 102 121 119 117 116 114 112 120 118 116 123 121 119 107 105 103 100 98 96 124 122 120 112 110 108 117 115 113 102 100 98 120 118 116 112 110 108 74 73 76
67 66 69 68 68 71 63 63 66 71 71 74 76 76 79 66 67 70 76 77 80 64 67 70 67 70 73 65 70 73 41 46 49 57 60 63 60 63 66 55 56 59 76 76 79 71 71 74
75 75 78 74 73 76 73 72 75 82 81 84 77 77 80 70 70 73 73 75 78 51 54 57 46 51 54 49 53 56 59 61 64 80 81 84 56 61 64 60 65 68 47 52 55 43 48 51
45 50 53 48 53 56 63 68 71 56 61 64 46 51 54 51 56 59 60 65 68 48 53 56 43 48 51 47 52 55 58 63 66 42 47 50 43 48 51 59 64 67 52 57 60 54 59 62
22 26 27 22 26 27 22 26 27 77 81 81 92 96 96 82 86 86 22 26 27 90 94 94 77 81 81 85 89 89 83 87 87 22 26 27 89 93 93 93 97 97 78 82 82 74 78 78
14 55 97 90 58 92 99 56 90 32 65 108 15 58 100 80 59 95 9 48 87 8 48 87 5 43 82 82 59 94 17 59 102 21 66 110 8 47 86 15 57 100 18 61 104 11 52 93
99 56 89 15 56 98 13 54 95 88 58 93 20 63 107 17 60 102 8 48 87 15 58 100 20 64 109 9 48 88 11 51 91 22 66 111 59 61 100 21 66 111 15 57 99 6 45 83
9 48 88 13 54 95 19 63 106 6 44 82 21 66 110 5 43 81 9 48 88 14 55 96 14 55 97 16 58 101 19 63 106 16 58 101 9 48 88 9 49 88 17 60 103 96 57 90
16 58 100 20 64 108 19 62 105 44 63 105 49 63 103 7 45 84 44 63 105 35 64 107 13 55 96 15 57 99 17 59 102 79 59 95 5 44 82 6 45 83 12 52 93 44 63 104
78 59 95 99 56 90 11 51 91 13 55 96 19 63 106 6 44 82 12 53 93 21 65 109 10 50 90 37 64 107 22 66 111 6 44 82 6 44 83 10 50 90 62 61 100 95 57 91
51 62 103 12 53 94 96 57 90 11 52 92 9 48 87 5 44 82 7 45 84 8 47 87 18 61 105 67 60 98 7 46 84 12 53 93 11 52 92 10 50 90 6 45 83 7 46 85
83 58 94 10 50 90 16 59 101 9 49 88 79 59 95 6 44 82 20 64 108 63 61 100 15 57 99 15 56 98 14 55 97 71 60 97 9 49 89 94 98 96 95 99 97 84 88 86
84 88 86 88 92 90 84 88 86 96 100 98 94 98 96 78 82 80 86 90 88 82 86 84 74 78 76 92 96 94 90 94 92 88 92 90 76 80 78 91 95 93 93 97 95 84 88 86
83 87 85 87 91 89 87 91 89 97 101 99 83 87 85 95 99 97 81 85 83 90 94 92 93 97 95 84 88 86 77 81 79 88 92 90 76 80 78 97 101 99 83 87 85 96 100 98
96 100 98 90 94 92 86 90 88 93 97 95 98 98 96 105 106 104 106 108 106 87 90 88 91 94 92 103 105 103 95 95 93 102 102 100 107 106 104 114 112 110 111 109 107 114 112 110
112 110 108 112 111 109 97 96 94 92 92 90 100 101 99 94 96 94 84 87 85 84 88 86 96 99 97 101 104 102 102 103 101 110 111 109 98 99 97 114 114 112 99 99 97 111 111 109
116 115 113 98 96 94 110 109 107 115 113 111 98 97 95 120 119 117 109 107 105 109 107 105 104 102 100 118 116 114 117 116 114 120 118 116 118 117 115 111 110 108 112 111 109 67 67 70
64 64 67 64 65 68 62 63 66 59 61 64 72 74 77 66 69 72 60 64 67 63 68 71 65 69 72 57 60 63 70 72 75 68 70 73 82 83 86 83 83 86 66 66 69 77 76 79
85 84 87 83 82 85 87 87 90 72 73 76 76 78 81 55 58 61 65 68 71 41 46 49 58 61 64 76 79 82 68 69 72 59 64 67 40 45 48 42 47 50 44 49 52 52 57 60
44 49 52 43 48 51 46 51 54 54 59 62 46 51 54 51 56 59 55 60 63 48 53 56 62 67 70 56 61 64 41 46 49 44 49 52 62 67 70 48 53 56 49 54 57 55 60 63
22 26 27 22 26 27 22 26 27 81 85 85 93 97 97 90 94 94 22 26 27 77 81 81 86 90 90 78 82 82 74 78 78 22 26 27 75 79 79 80 84 84 84 88 88 78 82 82
24 68 113 83 62 98 40 68 110 15 56 97 11 51 91 20 62 105 11 51 90 20 63 106 11 51 91 14 55 95 23 67 112 87 62 97 16 58 99 13 53 94 20 63 106 22 66 110
9 48 87 18 60 102 11 50 89 35 68 112 18 60 102 22 66 110 86 62 98 15 56 98 22 66 110 69 64 102 88 62 97 80 63 99 12 51 91 14 55 95 19 62 104 20 64 107
19 62 105 85 62 98 16 57 98 25 69 114 11 50 89 18 60 102 32 69 112 24 69 113 98 60 94 24 68 112 20 63 107 40 68 110 12 52 92 13 53 94 18 60 102 15 56 98
14 54 95 12 52 92 10 49 88 87 62 97 77 63 100 9 47 86 24 68 113 24 68 113 14 55 96 20 64 107 24 68 112 22 66 109 21 65 108 21 65 108 17 58 100 23 67 112
11 50 89 37 68 111 10 49 88 16 57 99 89 61 97 17 58 100 9 48 86 19 62 104 93 61 96 8 47 85 100 60 94 21 64 107 10 49 88 69 64 102 13 53 93 18 60 103
20 63 106 14 54 95 20 64 107 12 52 91 23 67 111 12 52 92 23 68 112 43 67 109 18 60 103 11 51 90 21 65 108 13 54 94 13 54 94 20 64 107 18 61 103 9 47 86
21 65 108 17 58 100 79 63 100 21 65 108 15 56 96 9 48 87 19 62 105 21 65 108 15 56 96 19 61 103 21 65 108 11 51 91 15 56 97 94 98 96 94 98 96 77 81 79
74 78 76 94 98 96 85 89 87 76 80 78 92 96 94 98 102 100 74 78 76 89 93 91 85 89 87 89 93 91 74 78 76 87 91 89 76 80 78 95 99 97 77 81 79 89 93 91
76 80 78 82 86 84 76 80 78 82 86 84 89 93 91 92 96 94 76 80 78 85 89 87 77 81 79 86 90 88 95 99 97 94 98 96 74 78 76 86 90 88 98 102 100 91 95 93
85 89 87 80 84 82 75 79 77 79 83 81 84 88 86 87 91 89 109 109 107 104 106 104 80 82 80 87 91 89 91 94 92 96 98 96 113 113 111 115 114 112 110 109 107 102 100 98
113 111 109 102 100 98 104 102 100 120 119 117 110 109 107 109 109 107 94 95 93 96 97 95 96 98 96 79 82 80 76 79 77 81 85 83 80 83 81 90 92 90 93 95 93 106 107 105
108 109 107 102 103 101 107 108 106 93 94 92 103 103 101 96 95 93 116 116 114 99 99 97 110 110 108 108 108 106 108 108 106 97 97 95 106 106 104 90 90 88 105 106 104 71 73 76
51 53 56 50 54 57 53 57 60 52 57 60 42 47 50 60 64 67 58 62 65 70 72 75 61 63 66 78 79 82 66 66 69 74 73 76 76 76 79 83 82 85 84 83 86 72 72 75
87 86 89 71 71 74 71 72 75 76 78 81 63 66 69 57 62 65 57 61 64 52 55 58 65 66 69 71 72 75 61 66 69 44 49 52 55 60 63 60 65 68 54 59 62 55 60 63
64 69 72 56 61 64 63 68 71 47 52 55 58 63 66 52 57 60 59 64 67 43 48 51 60 65 68 58 63 66 61 66 69 48 53 56 56 61 64 62 67 70 61 66 69 51 56 59
22 26 27 22 26 27 22 26 27 81 85 85 79 83 83 84 88 88 22 26 27 84 88 88 76 80 80 74 78 78 88 92 92 22 26 27 86 90 90 70 74 74 78 82 82 79 83 83
17 57 97 16 55 95 93 67 104 24 66 109 26 70 114 29 75 120 20 61 102 22 65 107 15 55 94 15 55 94 21 63 105 107 66 100 26 70 114 29 74 119 26 70 114 22 65 107
27 71 115 21 62 104 96 67 103 18 59 99 14 53 92 63 71 112 29 74 119 15 54 93 26 70 113 20 62 104 14 53 93 64 71 112 14 53 91 17 58 98 14 54 93 24 67 110
73 70 109 68 71 111 25 69 112 17 57 97 15 54 94 27 71 115 28 73 118 70 70 110 19 60 101 23 65 108 21 62 104 78 69 108 17 57 97 18 58 99 98 67 102 23 65 108
17 57 97 108 66 100 28 72 117 68 71 111 29 74 119 57 72 113 29 73 118 24 67 110 97 67 103 25 69 112 15 55 95 14 53 93 14 53 91 17 57 98 17 58 98 85 68 106
68 71 110 76 70 108 20 62 103 22 64 106 25 69 112 29 74 119 30 75 121 24 66 109 28 72 116 21 62 104 18 59 99 39 74 118 28 73 118 60 72 113 27 72 116 30 75 120
23 66 109 22 65 107 27 72 116 24 67 110 19 60 101 18 59 99 21 63 105 24 68 111 30 75 121 28 73 117 20 61 102 29 74 119 19 60 101 27 72 116 18 58 99 16 56 96
20 62 104 16 56 95 28 73 118 14 53 92 15 55 94 29 73 118 25 69 113 19 60 101 20 61 103 23 66 109 23 66 108 24 67 110 20 61 102 75 79 77 79 83 81 89 93 91
82 86 84 80 84 82 94 98 96 89 93 91 85 89 87 87 91 89 89 93 91 87 91 89 90 94 92 97 101 99 87 91 89 75 79 77 97 101 99 85 89 87 93 97 95 89 93 91
94 98 96 96 100 98 94 98 96 79 83 81 90 94 92 90 94 92 91 95 93 92 96 94 92 96 94 75 79 77 80 84 82 84 88 86 94 98 96 77 81 79 94 98 96 95 99 97
79 83 81 82 86 84 82 86 84 96 100 98 83 87 85 82 86 84 89 93 91 115 114 112 107 108 106 99 101 99 82 85 83 81 84 82 97 100 98 92 93 91 109 109 107 106 105 103
114 113 111 108 106 104 112 110 108 107 105 103 101 100 98 118 117 115 105 103 101 101 100 98 113 113 111 100 100 98 109 110 108 90 92 90 98 100 98 92 95 93 85 88 86 84 88 86
99 103 101 91 94 92 79 82 80 82 85 83 86 89 87 81 83 81 93 95 93 105 107 105 95 97 95 84 86 84 93 96 94 99 102 100 85 88 86 78 81 79 83 86 84 47 52 55
52 57 60 67 70 73 54 57 60 55 58 61 71 73 76 74 75 78 67 68 71 78 78 81 71 71 74 81 80 83 74 73 76 71 70 73 80 79 82 76 75 78 65 64 67 68 68 71
70 71 74 72 74 77 55 58 61 57 61 64 57 61 64 50 54 57 67 70 73 63 64 67 62 67 70 42 47 50 45 50 53 63 68 71 60 65 68 57 62 65 53 58 61 47 52 55
45 50 53 49 54 57 48 53 56 44 49 52 41 46 49 46 51 54 42 47 50 63 68 71 49 54 57 54 59 62 45 50 53 52 57 60 59 64 67 54 59 62 55 60 63 56 61 64
22 26 27 22 26 27 22 26 27 79 83 83 80 84 84 83 87 87 22 26 27 71 75 75 76 80 80 78 82 82 87 91 91 22 26 27 92 96 96 75 79 79 83 87 87 88 92 92
28 71 114 30 74 117 26 68 110 20 60 100 25 66 108 90 74 112 30 74 118 26 68 110 69 77 118 35 81 127 29 73 116 94 74 111 104 73 108 27 69 112 28 71 114 21 62 102
28 72 115 29 72 116 25 66 108 24 66 107 25 66 108 28 71 114 38 81 127 23 64 105 26 68 110 29 72 115 59 78 121 41 80 125 105 72 108 110 72 107 35 80 126 27 70 112
97 73 110 20 60 100 32 77 121 20 60 100 73 76 117 65 77 119 32 77 122 94 74 111 35 81 126 32 76 121 24 66 107 23 64 105 26 68 110 35 81 126 34 79 125 44 80 125
107 72 108 33 78 123 27 70 113 31 75 120 31 76 120 31 76 120 29 73 117 78 76 115 25 67 108 34 80 126 33 79 124 33 78 123 98 73 110 31 75 119 55 79 122 19 59 99
34 80 125 29 72 115 31 76 120 110 72 107 26 68 110 24 65 106 37 81 127 31 75 119 33 78 124 39 81 126 24 66 107 30 74 117 58 78 121 34 80 126 30 74 118 26 69 111
30 74 118 26 68 110 24 66 108 89 74 112 29 72 115 19 59 99 26 68 110 20 60 100 23 64 106 23 64 105 42 80 125 34 79 124 36 81 127 81 75 115 19 59 98 31 75 119
27 70 113 35 81 127 25 67 109 80 76 115 99 73 110 23 64 105 22 63 103 21 62 102 23 64 105 20 60 100 21 61 101 23 64 105 33 79 124 97 101 99 84 88 86 80 84 82
90 94 92 84 88 86 97 101 99 90 94 92 89 93 91 85 89 87 95 99 97 93 97 95 86 90 88 81 85 83 86 90 88 80 84 82 77 81 79 78 82 80 93 97 95 96 100 98
98 102 100 87 91 89 96 100 98 97 101 99 86 90 88 88 92 90 90 94 92 98 102 100 91 95 93 87 91 89 88 92 90 77 81 79 89 93 91 76 80 78 83 87 85 84 88 86
91 95 93 86 90 88 87 91 89 96 100 98 92 96 94 88 92 90 78 82 80 91 95 93 95 99 97 98 98 96 106 107 105 93 95 93 80 83 81 93 97 95 86 89 87 99 100 98
94 94 92 94 94 92 104 103 101 118 116 114 109 107 105 124 122 120 117 115 113 117 116 114 103 102 100 102 101 99 113 112 110 96 95 93 105 105 103 109 109 107 91 92 90 102 103 101
105 107 105 91 92 90 97 99 97 95 98 96 87 89 87 103 106 104 90 93 91 100 103 101 103 106 104 80 82 80 91 94 92 91 93 91 93 95 93 106 108 106 106 107 105 71 73 76
76 78 81 64 65 68 70 71 74 63 64 67 82 82 85 75 74 77 76 75 78 81 80 83 83 82 85 75 74 77 73 72 75 80 79 82 72 72 75 82 83 86 70 71 74 59 61 64
63 66 69 63 67 70 52 57 60 58 62 65 74 77 80 65 66 69 59 64 67 46 51 54 57 62 65 45 50 53 48 53 56 55 60 63 46 51 54 59 64 67 46 51 54 49 54 57
57 62 65 56 61 64 61 66 69 48 53 56 53 58 61 47 52 55 50 55 58 49 54 57 42 47 50 42 47 50 52 57 60 42 47 50 63 68 71 63 68 71 57 62 65 54 59 62
22 26 27 22 26 27 22 26 27 89 93 93 85 89 89 88 92 92 22 26 27 75 79 79 86 90 90 83 87 87 93 97 97 22 26 27 90 94 94 89 93 93 77 81 81 83 87 87
107 77 113 38 84 130 35 79 124 35 79 124 39 85 131 31 75 118 35 79 124 30 73 116 34 78 123 23 64 104 99 78 115 25 66 107 24 64 105 28 70 113 38 84 130 27 69 110
48 84 129 32 75 119 29 72 114 28 70 112 26 67 108 26 67 108 28 70 112 27 69 111 36 81 126 38 84 130 37 82 128 24 64 104 34 78 123 31 74 117 39 85 131 39 85 131
25 65 106 29 71 113 37 83 128 31 74 118 33 76 120 29 71 113 28 70 112 34 78 122 26 67 109 35 80 125 30 72 115 28 71 113 43 85 130 28 70 112 23 63 103 24 65 105
30 72 115 39 85 131 80 80 120 35 80 125 24 64 104 35 79 124 36 81 126 37 82 128 31 75 118 28 69 111 37 82 127 42 85 131 35 79 124 65 82 124 35 80 125 39 85 131
33 76 120 39 85 131 37 82 128 26 66 107 27 68 110 25 66 107 23 63 104 28 70 112 76 81 121 39 85 131 32 75 118 34 79 123 27 68 109 33 77 121 30 73 115 26 67 108
33 78 122 26 68 109 27 69 111 38 83 129 100 78 115 38 84 129 24 64 104 23 62 102 37 82 127 33 76 120 28 70 112 24 65 105 25 65 106 28 70 112 33 77 122 29 71 114
28 70 113 29 72 115 32 75 118 23 62 102 37 82 128 30 73 116 38 84 130 27 69 111 31 74 117 26 67 108 60 83 126 32 75 119 38 83 129 80 84 82 86 90 88 93 97 95
96 100 98 85 89 87 83 87 85 85 89 87 85 89 87 88 92 90 95 99 97 86 90 88 94 98 96 84 88 86 93 97 95 96 100 98 93 97 95 97 101 99 76 80 78 91 95 93
83 87 85 83 87 85 98 102 100 92 96 94 89 93 91 93 97 95 87 91 89 88 92 90 87 91 89 89 93 91 97 101 99 97 101 99 80 84 82 87 91 89 91 95 93 76 80 78
98 102 100 91 95 93 91 95 93 98 102 100 84 88 86 80 84 82 81 85 83 76 80 78 76 80 78 98 102 100 74 78 76 110 110 108 109 111 109 92 94 92 101 104 102 81 84 82
82 85 83 104 105 103 109 110 108 110 110 108 112 112 110 98 96 94 117 116 114 100 98 96 102 100 98 123 121 119 105 103 101 103 101 99 116 114 112 109 107 105 98 96 94 103 102 100
104 103 101 102 101 99 113 112 110 107 107 105 105 105 103 98 98 96 115 115 113 111 111 109 93 93 91 114 114 112 92 92 90 111 111 109 97 96 94 96 96 94 96 96 94 64 64 67
71 71 74 72 72 75 67 67 70 81 80 83 87 86 89 77 76 79 74 73 76 69 68 71 71 70 73 73 73 76 67 67 70 78 78 81 79 80 83 65 67 70 57 60 63 63 67 70
61 66 69 66 70 73 65 67 70 56 58 61 60 61 64 63 68 71 46 51 54 62 67 70 57 62 65 46 51 54 45 50 53 53 58 61 59 64 67 59 64 67 51 56 59 56 61 64
49 54 57 42 47 50 52 57 60 46 51 54 45 50 53 54 59 62 52 57 60 48 53 56 43 48 51 49 54 57 53 58 61 47 52 55 45 50 53 56 61 64 55 60 63 60 65 68
22 26 27 22 26 27 22 26 27 71 75 75 79 83 83 74 78 78 22 26 27 71 75 75 85 89 89 78 82 82 79 83 83 22 26 27 83 87 87 84 88 88 75 79 79 88 92 92
28 69 110 33 76 119 40 85 131 28 69 110 34 77 121 38 84 129 39 84 130 26 66 107 36 81 126 37 81 126 25 65 106 39 85 130 40 87 133 39 85 131 31 73 116 38 84 129
26 67 107 33 77 120 25 65 105 37 82 127 28 69 111 29 71 113 35 79 124 29 71 113 34 77 121 36 81 126 35 79 124 31 73 116 39 84 130 33 77 120 94 81 120 26 66 106
113 78 114 34 78 122 37 82 127 35 79 123 41 88 134 79 83 124 31 73 116 39 85 131 25 65 105 29 71 113 63 85 128 27 68 109 27 68 109 39 85 131 34 78 122 29 71 113
35 79 124 36 81 125 37 82 127 25 65 105 31 74 117 30 72 114 56 86 130 39 85 130 29 71 113 31 73 115 36 81 125 31 73 116 38 83 128 33 76 119 33 76 119 37 81 126
33 77 120 34 78 121 36 81 125 35 80 124 36 80 124 35 79 123 109 79 115 34 77 121 36 80 125 26 66 106 28 69 111 30 71 113 33 76 119 55 86 130 38 83 128 78 83 124
37 82 127 26 67 108 32 74 117 34 77 121 36 81 126 37 82 127 34 78 122 31 74 116 40 86 132 83 82 123 37 82 127 31 73 116 40 86 132 59 85 129 50 86 132 36 81 125
37 82 127 36 81 125 33 76 119 77 83 124 26 66 106 32 74 117 34 78 122 34 78 122 31 73 115 28 70 111 39 85 130 25 65 105 108 79 116 92 96 94 88 92 90 90 94 92
88 92 90 94 98 96 97 101 99 95 99 97 92 96 94 89 93 91 77 81 79 92 96 94 94 98 96 84 88 86 94 98 96 94 98 96 93 97 95 80 84 82 88 92 90 97 101 99
85 89 87 80 84 82 86 90 88 91 95 93 85 89 87 97 101 99 95 99 97 85 89 87 97 101 99 92 96 94 96 100 98 92 96 94 75 79 77 86 90 88 88 92 90 83 87 85
79 83 81 93 97 95 79 83 81 76 80 78 97 101 99 93 97 95 94 98 96 79 83 81 92 96 94 87 91 89 82 86 84 76 80 78 94 98 96 99 99 97 103 104 102 106 108 106
92 95 93 94 98 96 88 91 89 103 105 103 108 109 107 110 111 109 108 108 106 112 112 110 105 104 102 113 111 109 105 103 101 121 119 117 110 108 106 119 117 115 115 113 111 123 121 119
113 111 109 115 113 111 101 99 97 106 104 102 105 104 102 110 109 107 104 103 101 112 110 108 104 102 100 104 103 101 98 97 95 115 113 111 119 117 115 105 103 101 119 118 116 76 75 78
73 72 75 72 71 74 68 67 70 68 67 70 70 69 72 82 81 84 66 65 68 64 64 67 63 63 66 74 75 78 58 60 63 59 61 64 64 67 70 55 59 62 45 49 52 47 51 54
55 58 61 68 69 72 73 74 77 49 54 57 57 62 65 58 63 66 53 58 61 61 66 69 44 49 52 60 65 68 57 62 65 59 64 67 60 65 68 63 68 71 55 60 63 62 67 70
57 62 65 62 67 70 42 47 50 49 54 57 60 65 68 48 53 56 63 68 71 53 58 61 52 57 60 51 56 59 51 56 59 49 54 57 57 62 65 44 49 52 50 55 58 58 63 66
22 26 27 22 26 27 22 26 27 83 87 87 70 74 74 81 85 85 22 26 27 85 89 89 77 81 81 78 82 82 92 96 96 22 26 27 82 86 86 77 81 81 78 82 82 73 77 77
31 73 115 40 86 132 39 84 130 75 85 127 38 82 127 27 67 108 40 85 131 42 89 135 35 79 122 32 75 117 30 71 113 33 75 118 106 81 119 31 73 114 32 75 117 64 87 130
97 83 121 41 87 133 33 76 119 120 80 115 32 75 117 33 76 119 31 73 115 34 77 120 28 69 110 41 87 133 41 86 132 48 89 135 32 74 116 31 74 116 36 81 125 35 78 121
30 72 114 27 67 107 31 73 115 38 83 128 89 84 124 40 86 132 27 67 108 32 74 116 31 73 115 104 82 119 68 86 129 27 67 107 32 75 117 42 89 136 27 67 108 42 89 135
33 75 118 35 78 121 37 82 126 29 71 112 49 89 135 30 72 114 32 74 116 52 88 134 29 70 111 109 81 118 32 75 117 42 88 135 108 81 118 30 71 113 30 72 114 41 87 133
28 69 110 27 68 108 43 89 136 39 84 130 42 88 134 34 78 121 29 70 111 42 88 135 39 85 130 39 84 129 37 82 126 32 75 117 34 76 120 37 82 126 64 87 130 77 85 127
28 69 110 41 87 134 32 74 117 32 75 118 39 84 130 30 72 113 33 76 119 103 82 120 31 73 115 36 79 123 38 82 127 30 71 113 37 81 125 32 75 117 40 85 131 37 82 126
42 88 134 33 76 119 42 88 134 37 81 125 58 87 132 39 84 129 30 72 114 27 67 108 72 86 128 37 81 126 30 71 112 30 72 114 31 73 115 90 94 92 90 94 92 83 87 85
86 90 88 86 90 88 96 100 98 90 94 92 97 101 99 87 91 89 74 78 76 93 97 95 81 85 83 75 79 77 81 85 83 78 82 80 92 96 94 78 82 80 74 78 76 84 88 86
81 85 83 82 86 84 78 82 80 78 82 80 92 96 94 97 101 99 84 88 86 85 89 87 95 99 97 76 80 78 81 85 83 93 97 95 76 80 78 97 101 99 97 101 99 88 92 90
74 78 76 83 87 85 96 100 98 95 99 97 77 81 79 77 81 79 82 86 84 81 85 83 85 89 87 77 81 79 74 78 76 88 92 90 90 94 92 75 79 77 91 95 93 114 114 112
93 94 92 97 98 96 94 96 94 93 96 94 92 96 94 96 98 96 82 84 82 88 89 87 107 108 106 106 106 104 99 99 97 100 99 97 116 116 114 108 106 104 113 111 109 106 105 103
101 99 97 107 105 103 114 113 111 103 101 99 105 103 101 123 121 119 107 105 103 106 104 102 110 108 106 116 114 112 103 101 99 108 106 104 109 107 105 110 108 106 120 118 116 71 70 73
67 66 69 68 68 71 75 75 78 82 82 85 68 69 72 58 59 62 59 60 63 57 59 62 55 58 61 56 59 62 52 57 60 66 70 73 65 69 72 54 57 60 70 72 75 73 74 77
60 65 68 60 65 68 54 59 62 63 68 71 63 68 71 47 52 55 42 47 50 55 60 63 61 66 69 62 67 70 42 47 50 53 58 61 61 66 69 46 51 54 63 68 71 50 55 58
53 58 61 63 68 71 63 68 71 42 47 50 59 64 67 53 58 61 42 47 50 42 47 50 44 49 52 49 54 57 53 58 61 63 68 71 44 49 52 41 46 49 60 65 68 60 65 68
22 26 27 22 26 27 22 26 27 90 94 94 86 90 90 73 77 77 22 26 27 90 94 94 86 90 90 89 93 93 70 74 74 22 26 27 70 74 74 79 83 83 85 89 89 78 82 82
38 82 126 100 85 124 40 84 129 44 91 137 43 89 135 44 90 137 42 88 134 35 77 120 41 86 132 42 87 133 71 89 132 120 83 119 35 78 121 44 90 136 42 88 134 29 69 110
32 73 115 104 85 123 42 88 134 102 85 124 89 87 127 40 85 130 30 71 113 36 80 123 35 78 121 44 90 137 39 83 127 36 78 122 33 75 117 33 75 117 35 77 120 67 89 133
43 89 136 31 72 114 80 88 130 64 90 134 29 70 111 52 91 137 34 76 119 50 92 138 30 70 111 36 80 123 89 87 127 44 90 137 44 91 137 40 85 130 34 77 120 43 89 135
30 71 113 41 87 132 44 90 137 37 80 124 35 78 121 39 83 128 30 70 111 44 91 137 36 79 123 39 84 129 30 71 112 37 81 124 82 87 129 33 75 117 45 92 139 37 80 124
41 87 132 40 85 130 33 76 118 81 88 129 30 71 112 41 86 132 89 87 127 35 77 120 40 85 130 42 87 133 38 82 126 35 78 121 43 89 135 30 71 112 30 70 111 39 84 129
38 82 126 38 82 126 44 91 138 66 89 133 39 84 129 52 91 137 43 89 135 45 92 139 42 88 134 76 88 131 34 77 119 45 92 139 43 89 136 30 70 111 39 83 127 30 71 113
38 82 127 34 76 119 33 75 117 34 76 118 35 77 120 43 89 135 38 82 126 42 88 134 43 89 136 29 70 110 58 90 136 41 86 131 31 72 114 83 87 85 82 86 84 78 82 80
75 79 77 91 95 93 81 85 83 96 100 98 83 87 85 76 80 78 77 81 79 76 80 78 93 97 95 78 82 80 96 100 98 95 99 97 81 85 83 80 84 82 88 92 90 77 81 79
87 91 89 77 81 79 81 85 83 75 79 77 78 82 80 77 81 79 78 82 80 84 88 86 96 100 98 82 86 84 89 93 91 79 83 81 78 82 80 85 89 87 92 96 94 78 82 80
88 92 90 95 99 97 75 79 77 75 79 77 75 79 77 92 96 94 81 85 83 96 100 98 91 95 93 96 100 98 83 87 85 80 84 82 77 81 79 78 82 80 89 93 91 88 92 90
91 95 93 76 80 78 101 101 99 100 100 98 97 99 97 87 89 87 82 85 83 88 92 90 83 86 84 103 106 104 84 86 84 95 97 95 102 103 101 90 91 89 96 96 94 97 97 95
107 107 105 98 98 96 109 109 107 117 116 114 118 117 115 109 108 106 118 117 115 96 95 93 109 108 106 99 98 96 103 102 100 110 109 107 109 109 107 117 116 114 103 102 100 64 65 68
71 72 75 67 69 72 68 70 73 70 73 76 59 62 65 58 62 65 58 62 65 56 61 64 57 62 65 57 60 63 64 67 70 67 70 73 59 60 63 75 75 78 48 53 56 49 54 57
61 66 69 49 54 57 53 58 61 58 63 66 52 57 60 42 47 50 44 49 52 44 49 52 53 58 61 41 46 49 46 51 54 63 68 71 62 67 70 46 51 54 40 45 48 58 63 66
63 68 71 52 57 60 41 46 49 59 64 67 54 59 62 54 59 62 48 53 56 56 61 64 50 55 58 40 45 48 45 50 53 44 49 52 40 45 48 53 58 61 47 52 55 44 49 52
22 26 27 22 26 27 22 26 27 79 83 83 90 94 94 75 79 79 22 26 27 71 75 75 84 88 88 79 83 83 88 92 92 22 26 27 71 75 75 76 80 80 93 97 97 78 82 82
47 93 140 47 93 139 40 83 127 40 83 127 34 75 117 48 94 141 37 79 122 42 87 132 48 95 142 38 80 123 45 90 136 45 90 136 71 93 138 42 86 130 49 96 143 37 79 121
34 75 116 33 74 115 46 93 139 38 80 123 36 78 121 82 92 135 45 91 137 41 85 129 53 96 143 40 84 128 34 76 117 39 82 126 36 78 120 38 81 124 42 87 132 45 90 136
36 78 121 33 74 115 48 95 142 37 79 122 74 93 137 67 94 139 39 83 126 47 93 139 42 86 131 36 77 119 66 94 139 34 74 116 45 91 137 102 90 129 44 90 135 57 95 142
38 81 124 43 87 133 84 92 134 95 90 131 41 85 130 47 93 140 39 82 126 38 81 124 48 94 142 33 74 115 117 88 125 34 75 116 75 93 137 45 90 136 100 90 130 49 96 143
36 79 121 47 93 140 43 88 133 72 93 138 47 93 139 41 84 129 42 86 131 41 85 129 38 81 124 93 91 132 125 87 123 36 78 121 37 80 123 44 89 135 35 76 118 37 79 122
86 92 134 46 91 137 49 96 144 40 84 128 48 94 141 82 92 135 39 82 126 79 92 136 34 76 117 92 91 132 42 86 130 45 90 136 52 96 143 49 96 143 43 88 133 48 95 143
103 89 129 44 89 134 64 94 140 103 89 129 39 82 126 39 83 126 49 96 143 40 84 128 40 84 128 68 94 139 39 82 126 43 88 133 36 78 120 92 96 94 88 92 90 90 94 92
95 99 97 86 90 88 76 80 78 89 93 91 75 79 77 91 95 93 97 101 99 81 85 83 83 87 85 91 95 93 85 89 87 83 87 85 85 89 87 76 80 78 94 98 96 81 85 83
95 99 97 77 81 79 95 99 97 97 101 99 81 85 83 85 89 87 89 93 91 76 80 78 82 86 84 89 93 91 94 98 96 79 83 81 95 99 97 93 97 95 78 82 80 83 87 85
96 100 98 78 82 80 82 86 84 86 90 88 97 101 99 97 101 99 81 85 83 81 85 83 86 90 88 84 88 86 88 92 90 90 94 92 93 97 95 79 83 81 76 80 78 80 84 82
78 82 80 87 91 89 85 89 87 88 92 90 112 111 109 93 93 91 100 100 98 99 100 98 100 102 100 98 101 99 88 91 89 89 93 91 83 87 85 80 83 81 99 102 100 100 102 100
89 91 89 92 94 92 106 108 106 109 111 109 108 109 107 105 106 104 99 100 98 109 110 108 104 105 103 108 110 108 96 97 95 97 99 97 103 104 102 106 107 105 94 97 95 58 61 64
68 72 75 62 66 69 43 47 50 61 65 68 63 67 70 55 59 62 69 72 75 62 64 67 61 62 65 60 61 64 82 82 85 63 68 71 64 69 72 59 64 67 48 53 56 59 64 67
63 68 71 44 49 52 54 59 62 61 66 69 61 66 69 62 67 70 48 53 56 64 69 72 55 60 63 54 59 62 64 69 72 60 65 68 63 68 71 64 69 72 42 47 50 61 66 69
51 56 59 47 52 55 53 58 61 59 64 67 44 49 52 63 68 71 52 57 60 44 49 52 54 59 62 50 55 58 42 47 50 44 49 52 50 55 58 56 61 64 63 68 71 42 47 50
22 26 27 22 26 27 22 26 27 70 74 74 77 81 81 75 79 79 22 26 27 77 81 81 86 90 90 82 86 86 76 80 80 22 26 27 80 84 84 88 92 92 87 91 91 89 93 93
44 87 131 45 89 133 53 100 148 43 86 130 53 100 148 49 94 140 54 101 150 44 87 131 116 94 134 43 87 131 47 91 136 39 80 122 45 89 134 40 81 124 46 90 135 39 80 123
67 100 147 44 87 131 51 97 144 50 96 143 46 90 136 40 81 124 46 90 135 41 83 126 64 101 148 44 88 132 40 82 125 42 84 127 52 99 146 52 99 146 54 101 149 102 96 137
41 83 125 45 88 133 46 90 135 54 101 149 40 81 124 39 81 123 52 98 146 47 92 137 52 98 145 39 80 122 50 96 143 44 88 132 63 101 148 48 93 139 45 89 134 45 89 134
47 91 137 78 99 144 46 91 136 85 98 142 54 101 150 52 98 146 47 91 137 42 84 128 42 85 128 50 95 142 93 97 140 59 101 149 51 97 143 43 86 130 44 87 131 50 96 143
54 102 150 125 93 131 74 100 145 44 87 132 40 81 124 49 95 141 44 87 131 44 87 131 50 95 142 69 100 146 41 83 126 48 93 138 93 97 140 49 94 141 43 85 129 52 98 145
42 84 128 41 83 125 48 92 138 51 97 144 51 98 145 96 97 139 48 93 139 107 95 136 47 92 138 46 91 136 118 94 133 39 81 123 54 101 149 121 93 132 54 101 150 38 79 121
50 95 142 43 85 129 45 88 133 45 88 133 47 91 136 117 94 133 42 85 128 53 100 147 48 93 139 45 89 133 54 101 149 45 88 133 49 95 141 96 100 98 75 79 77 93 97 95
85 89 87 76 80 78 75 79 77 88 92 90 89 93 91 89 93 91 85 89 87 78 82 80 89 93 91 82 86 84 78 82 80 90 94 92 87 91 89 98 102 100 86 90 88 96 100 98
85 89 87 88 92 90 84 88 86 78 82 80 84 88 86 84 88 86 75 79 77 79 83 81 96 100 98 82 86 84 78 82 80 79 83 81 84 88 86 75 79 77 76 80 78 84 88 86
96 100 98 94 98 96 93 97 95 86 90 88 82 86 84 85 89 87 94 98 96 78 82 80 77 81 79 97 101 99 75 79 77 78 82 80 89 93 91 76 80 78 96 100 98 95 99 97
87 91 89 81 85 83 88 92 90 93 97 95 95 99 97 90 94 92 82 86 84 79 83 81 95 95 93 114 114 112 97 98 96 87 88 86 93 94 92 85 87 85 84 87 85 104 106 104
80 83 81 78 81 79 86 89 87 98 102 100 83 87 85 96 100 98 84 87 85 77 81 79 88 91 89 98 102 100 85 89 87 84 88 86 77 80 78 95 98 96 93 96 94 64 68 71
48 51 54 57 61 64 64 67 70 68 70 73 72 74 77 64 65 68 73 74 77 61 66 69 42 47 50 52 57 60 64 69 72 52 57 60 43 48 51 52 57 60 48 53 56 60 65 68
59 64 67 42 47 50 50 55 58 44 49 52 49 54 57 54 59 62 50 55 58 57 62 65 52 57 60 60 65 68 56 61 64 61 66 69 54 59 62 41 46 49 45 50 53 53 58 61
52 57 60 41 46 49 49 54 57 48 53 56 51 56 59 60 65 68 63 68 71 48 53 56 54 59 62 50 55 58 44 49 52 54 59 62 60 65 68 50 55 58 46 51 54 49 54 57
22 26 27 22 26 27 22 26 27 84 88 88 93 97 97 83 87 87 22 26 27 87 91 91 71 75 75 78 82 82 82 86 86 22 26 27 79 83 83 74 78 78 77 81 81 77 81 81
84 105 151 99 103 147 51 95 140 55 100 147 52 96 142 58 105 153 48 90 134 46 89 132 52 96 142 49 93 138 57 104 152 59 106 155 67 108 156 83 106 151 55 100 147 56 102 149
47 89 133 48 92 136 112 102 143 86 105 151 44 86 129 47 89 133 129 100 139 60 108 158 119 101 142 60 108 158 52 96 142 84 105 151 45 87 130 60 107 156 54 99 146 60 108 157
48 91 135 56 102 150 100 103 147 60 107 156 55 100 147 60 108 157 47 89 133 46 89 132 54 99 146 46 89 132 48 91 135 52 97 143 58 105 154 51 96 141 76 107 154 50 94 139
49 92 136 52 96 142 48 91 135 46 88 131 50 93 138 53 97 143 59 106 155 48 91 135 44 86 129 50 94 140 50 93 138 55 101 148 44 86 128 46 87 131 54 100 147 48 91 135
52 96 142 44 86 128 45 86 129 52 97 143 130 100 139 54 99 146 60 107 156 47 90 134 52 96 142 53 97 143 48 91 135 47 90 134 122 101 141 49 92 136 50 94 140 99 104 147
120 101 141 58 105 153 54 99 146 48 90 134 50 94 139 45 87 130 59 106 155 55 101 148 46 88 132 51 96 141 58 106 154 132 99 138 59 106 155 55 101 148 54 99 146 55 101 148
74 107 154 60 107 156 83 106 152 59 106 155 49 92 137 49 92 137 47 90 133 50 93 138 78 106 153 49 92 137 44 86 128 60 108 157 47 89 133 93 97 95 89 93 91 88 92 90
77 81 79 76 80 78 97 101 99 87 91 89 78 82 80 76 80 78 87 91 89 84 88 86 95 99 97 89 93 91 83 87 85 77 81 79 91 95 93 81 85 83 95 99 97 96 100 98
78 82 80 94 98 96 89 93 91 97 101 99 80 84 82 96 100 98 88 92 90 85 89 87 89 93 91 83 87 85 90 94 92 87 91 89 87 91 89 85 89 87 97 101 99 84 88 86
82 86 84 93 97 95 95 99 97 75 79 77 92 96 94 80 84 82 88 92 90 96 100 98 81 85 83 92 96 94 86 90 88 78 82 80 79 83 81 89 93 91 90 94 92 96 100 98
77 81 79 94 98 96 82 86 84 87 91 89 87 91 89 91 95 93 76 80 78 79 83 81 87 91 89 92 96 94 96 100 98 82 86 84 81 85 83 112 112 110 99 99 97 97 97 95
96 96 94 111 111 109 104 105 103 100 101 99 105 107 105 96 97 95 103 104 102 90 91 89 103 104 102 91 92 90 89 90 88 94 95 93 99 100 98 101 102 100 106 107 105 57 59 62
76 76 79 83 83 86 51 56 59 57 62 65 52 57 60 55 60 63 55 60 63 44 49 52 59 64 67 47 52 55 45 50 53 49 54 57 46 51 54 53 58 61 59 64 67 64 69 72
44 49 52 57 62 65 53 58 61 48 53 56 55 60 63 42 47 50 42 47 50 48 53 56 50 55 58 44 49 52 56 61 64 59 64 67 40 45 48 63 68 71 53 58 61 46 51 54
45 50 53 40 45 48 51 56 59 53 58 61 62 67 70 62 67 70 64 69 72 51 56 59 64 69 72 56 61 64 47 52 55 60 65 68 58 63 66 43 48 51 58 63 66 41 46 49
22 26 27 22 26 27 22 26 27 76 80 80 85 89 89 75 79 79 22 26 27 80 84 84 84 88 88 87 91 91 93 97 97 22 26 27 86 90 90 90 94 94 90 94 94 79 83 83
62 108 157 61 107 155 77 113 161 55 99 145 50 93 137 57 102 149 51 93 138 54 98 144 98 110 155 58 103 150 123 107 149 61 107 155 50 92 136 54 98 143 83 112 159 100 110 155
51 94 138 54 98 143 60 105 153 52 95 139 58 103 149 56 101 147 50 92 136 58 103 149 54 97 143 57 101 148 52 95 140 50 91 135 132 106 146 57 102 148 56 100 146 50 92 135
52 95 139 55 99 145 59 104 152 59 105 152 60 106 153 61 107 155 61 108 156 70 114 163 87 111 158 90 111 157 65 113 163 118 108 150 63 111 160 60 106 154 50 93 137 49 91 135
57 102 149 121 107 149 63 111 160 53 96 141 59 104 152 54 98 143 65 113 162 137 105 145 65 113 163 62 108 157 66 114 164 52 95 140 135 105 145 142 104 143 61 108 156 54 98 143
63 110 159 63 110 159 57 102 148 52 95 139 81 112 160 100 110 155 62 109 158 59 104 151 52 95 140 58 103 149 57 101 148 92 111 157 53 97 142 60 106 153 50 92 135 78 113 161
65 113 163 53 97 142 56 100 146 114 108 151 63 110 159 65 113 162 50 92 136 63 110 159 76 113 161 59 105 152 59 104 152 54 97 143 87 111 158 132 106 146 77 113 161 136 105 145
58 104 151 49 91 135 60 106 153 82 112 160 51 93 137 60 105 153 60 106 154 53 96 141 57 102 149 54 97 143 131 106 146 49 91 135 64 111 160 86 90 88 83 87 85 85 89 87
97 101 99 82 86 84 98 102 100 86 90 88 86 90 88 77 81 79 78 82 80 83 87 85 90 94 92 84 88 86 94 98 96 82 86 84 90 94 92 85 89 87 85 89 87 83 87 85
84 88 86 89 93 91 84 88 86 87 91 89 98 102 100 79 83 81 97 101 99 80 84 82 93 97 95 89 93 91 84 88 86 94 98 96 84 88 86 95 99 97 86 90 88 78 82 80
87 91 89 86 90 88 94 98 96 86 90 88 80 84 82 78 82 80 87 91 89 78 82 80 86 90 88 84 88 86 83 87 85 97 101 99 87 91 89 93 97 95 76 80 78 92 96 94
76 80 78 91 95 93 81 85 83 95 99 97 90 94 92 93 97 95 77 81 79 88 92 90 78 82 80 80 84 82 83 87 85 86 90 88 98 102 100 74 78 76 83 87 85 95 99 97
96 100 98 95 99 97 84 88 86 90 94 92 81 85 83 90 94 92 75 79 77 90 94 92 82 86 84 94 98 96 82 86 84 89 93 91 85 89 87 84 88 86 84 88 86 45 50 53
41 46 49 41 46 49 44 49 52 59 64 67 54 59 62 59 64 67 49 54 57 53 58 61 52 57 60 43 48 51 63 68 71 55 60 63 40 45 48 53 58 61 61 66 69 60 65 68
52 57 60 56 61 64 41 46 49 59 64 67 55 60 63 56 61 64 59 64 67 61 66 69 55 60 63 49 54 57 45 50 53 42 47 50 49 54 57 41 46 49 54 59 62 62 67 70
51 56 59 59 64 67 54 59 62 56 61 64 54 59 62 63 68 71 50 55 58 58 63 66 54 59 62 63 68 71 60 65 68 63 68 71 46 51 54 59 64 67 52 57 60 49 54 57
22 26 27 22 26 27 22 26 27 70 74 74 85 89 89 81 85 85 22 26 27 87 91 91 90 94 94 69 73 73 75 79 79 22 26 27 71 75 75 91 95 95 89 93 93 88 92 92
59 103 150 61 107 154 55 98 143 66 113 162 101 113 159 116 112 155 101 113 159 74 117 167 130 110 151 55 98 143 65 112 161 54 96 140 67 115 165 54 96 140 62 108 156 53 95 139
67 114 164 122 111 154 63 110 158 68 117 167 117 111 155 68 116 166 55 99 144 68 117 167 56 99 144 53 95 139 67 114 164 60 106 153 115 112 155 53 96 140 53 95 139 56 99 144
131 110 151 56 99 144 80 116 165 55 98 142 109 112 157 65 112 161 66 114 163 68 117 167 55 98 143 59 104 150 63 109 157 57 101 146 68 117 167 117 111 155 56 99 145 116 112 155
63 109 157 92 115 162 130 110 151 141 108 148 101 113 159 56 100 145 56 100 145 59 104 150 63 109 158 63 109 157 66 114 163 58 102 149 65 111 160 121 111 154 56 99 145 63 109 157
55 98 143 69 117 168 68 117 167 69 117 168 67 114 164 99 114 160 61 106 153 101 113 159 62 107 155 98 114 160 66 113 163 67 114 164 68 116 166 62 107 155 64 111 160 66 113 162
78 116 166 54 97 142 56 99 145 56 99 144 54 97 141 64 111 160 55 97 142 99 114 160 53 95 140 67 115 165 63 108 156 53 95 139 53 95 140 56 99 144 100 114 160 54 97 141
140 108 148 58 102 148 70 117 168 64 110 159 67 115 165 74 117 167 60 104 151 69 117 168 66 113 162 61 107 154 69 117 168 53 95 139 67 115 165 81 85 83 84 88 86 77 81 79
91 95 93 84 88 86 97 101 99 91 95 93 79 83 81 85 89 87 75 79 77 87 91 89 74 78 76 89 93 91 74 78 76 86 90 88 81 85 83 79 83 81 75 79 77 90 94 92
81 85 83 85 89 87 81 85 83 95 99 97 85 89 87 96 100 98 90 94 92 78 82 80 93 97 95 84 88 86 96 100 98 75 79 77 85 89 87 87 91 89 81 85 83 83 87 85
78 82 80 85 89 87 94 98 96 97 101 99 86 90 88 86 90 88 94 98 96 94 98 96 90 94 92 87 91 89 97 101 99 76 80 78 98 102 100 78 82 80 85 89 87 96 100 98
97 101 99 97 101 99 97 101 99 81 85 83 94 98 96 92 96 94 89 93 91 86 90 88 86 90 88 90 94 92 80 84 82 84 88 86 90 94 92 82 86 84 94 98 96 90 94 92
81 85 83 78 82 80 76 80 78 81 85 83 85 89 87 97 101 99 80 84 82 93 97 95 89 93 91 82 86 84 76 80 78 78 82 80 77 81 79 95 99 97 96 100 98 52 57 60
57 62 65 58 63 66 58 63 66 47 52 55 45 50 53 41 46 49 62 67 70 51 56 59 55 60 63 60 65 68 60 65 68 62 67 70 55 60 63 61 66 69 47 52 55 42 47 50
52 57 60 53 58 61 57 62 65 42 47 50 62 67 70 56 61 64 62 67 70 45 50 53 49 54 57 49 54 57 47 52 55 60 65 68 53 58 61 56 61 64 49 54 57 64 69 72
54 59 62 57 62 65 49 54 57 47 52 55 62 67 70 42 47 50 55 60 63 53 58 61 46 51 54 40 45 48 58 63 66 56 61 64 54 59 62 43 48 51 59 64 67 59 64 67
22 26 27 22 26 27 22 26 27 90 94 94 80 84 84 78 82 82 22 26 27 72 76 76 83 87 87 77 81 81 71 75 75 22 26 27 87 91 91 74 78 78 80 84 84 75 79 79
86 115 163 67 115 164 123 111 153 55 98 142 57 101 147 68 117 167 71 117 167 84 116 164 66 113 162 67 115 165 64 111 159 58 102 149 57 101 147 64 110 158 56 99 144 69 117 167
90 115 162 59 103 149 93 114 161 123 111 153 68 116 166 56 99 144 54 97 142 57 100 146 66 114 163 143 108 148 121 111 154 55 98 143 64 110 159 68 116 166 85 115 164 120 111 154
57 101 146 65 112 161 60 105 152 54 97 141 53 95 139 54 97 142 61 106 153 64 111 160 61 107 154 55 98 142 67 115 164 60 105 151 69 117 167 103 113 159 109 112 157 58 102 149
68 116 166 62 108 156 66 113 162 105 113 158 68 116 166 64 110 159 56 100 145 53 96 140 62 107 155 54 96 141 59 103 150 61 107 155 60 105 152 64 111 160 55 99 144 57 101 147
68 116 166 60 104 151 118 111 155 57 101 147 54 97 141 111 112 156 68 116 166 109 112 157 114 112 156 71 117 167 69 117 168 121 111 154 68 116 167 54 96 141 68 116 166 53 95 139
59 103 150 122 111 153 57 101 147 71 117 167 59 104 151 60 106 153 57 100 146 58 103 149 62 107 155 56 100 145 58 102 148 61 107 154 142 108 148 108 113 157 67 114 164 61 106 154
68 116 166 66 113 162 67 115 165 59 103 150 54 96 141 66 114 164 66 114 163 66 113 162 65 112 161 59 103 149 58 102 149 117 111 155 63 110 158 77 81 79 87 91 89 75 79 77
93 97 95 90 94 92 92 96 94 93 97 95 80 84 82 96 100 98 84 88 86 95 99 97 83 87 85 95 99 97 86 90 88 88 92 90 90 94 92 84 88 86 95 99 97 76 80 78
91 95 93 77 81 79 75 79 77 88 92 90 86 90 88 90 94 92 79 83 81 86 90 88 78 82 80 89 93 91 94 98 96 86 90 88 81 85 83 92 96 94 94 98 96 91 95 93
76 80 78 84 88 86 87 91 89 93 97 95 83 87 85 97 101 99 88 92 90 94 98 96 89 93 91 75 79 77 75 79 77 80 84 82 74 78 76 76 80 78 97 101 99 82 86 84
95 99 97 81 85 83 83 87 85 93 97 95 97 101 99 82 86 84 96 100 98 90 94 92 84 88 86 92 96 94 82 86 84 75 79 77 90 94 92 89 93 91 82 86 84 85 89 87
93 97 95 75 79 77 79 83 81 95 99 97 88 92 90 77 81 79 82 86 84 81 85 83 94 98 96 80 84 82 77 81 79 95 99 97 75 79 77 95 99 97 75 79 77 51 56 59
46 51 54 54 59 62 58 63 66 52 57 60 47 52 55 46 51 54 59 64 67 63 68 71 60 65 68 49 54 57 42 47 50 62 67 70 57 62 65 42 47 50 45 50 53 42 47 50
60 65 68 42 47 50 42 47 50 47 52 55 53 58 61 62 67 70 58 63 66 55 60 63 42 47 50 53 58 61 40 45 48 45 50 53 41 46 49 50 55 58 61 66 69 60 65 68
48 53 56 40 45 48 43 48 51 50 55 58 54 59 62 59 64 67 57 62 65 54 59 62 53 58 61 63 68 71 61 66 69 55 60 63 50 55 58 51 56 59 47 52 55 59 64 67
22 26 27 22 26 27 22 26 27 80 84 84 86 90 90 89 93 93 22 26 27 91 95 95 79 83 83 83 87 87 71 75 75 22 26 27 77 81 81 90 94 94 78 82 82 88 92 92
51 94 138 82 112 160 56 100 146 62 109 158 57 102 148 53 97 142 83 112 159 52 95 140 60 105 153 139 105 144 64 112 161 53 96 141 60 106 154 52 95 140 54 97 142 59 104 151
63 110 159 82 112 160 54 97 142 73 113 162 51 93 137 53 96 141 74 113 162 62 109 157 72 113 162 64 112 161 111 108 152 92 111 157 50 92 136 59 104 152 75 113 162 50 92 135
57 102 149 62 109 158 61 107 155 85 112 159 78 113 161 55 99 145 63 110 158 51 94 138 65 113 162 65 112 162 83 112 160 53 96 141 136 105 145 112 108 152 62 109 157 52 95 140
50 91 135 57 101 148 59 104 151 83 112 159 61 108 156 57 101 148 60 106 153 63 111 160 51 93 137 104 109 154 75 113 162 133 106 146 65 114 164 51 94 138 59 105 152 51 93 138
60 106 154 53 95 140 50 92 135 58 103 150 56 101 147 61 108 156 118 108 150 54 98 144 79 112 161 64 111 161 51 93 138 52 95 139 60 106 154 59 105 153 54 98 144 57 101 147
64 112 162 55 99 145 50 92 135 50 92 136 82 112 160 64 111 160 66 114 164 55 99 145 61 108 156 117 108 150 138 105 144 61 107 156 144 104 143 55 100 146 65 114 163 61 108 156
64 112 162 64 112 162 54 97 142 59 105 152 62 109 158 66 114 164 98 110 155 66 114 164 54 97 142 57 101 148 63 110 159 144 104 143 56 100 147 77 81 79 86 90 88 95 99 97
76 80 78 95 99 97 77 81 79 97 101 99 76 80 78 88 92 90 96 100 98 76 80 78 85 89 87 90 94 92 95 99 97 79 83 81 87 91 89 80 84 82 92 96 94 92 96 94
96 100 98 84 88 86 96 100 98 79 83 81 89 93 91 94 98 96 87 91 89 84 88 86 77 81 79 96 100 98 86 90 88 75 79 77 79 83 81 87 91 89 95 99 97 75 79 77
93 97 95 81 85 83 84 88 86 82 86 84 80 84 82 85 89 87 86 90 88 87 91 89 86 90 88 93 97 95 90 94 92 81 85 83 92 96 94 80 84 82 91 95 93 95 99 97
92 96 94 98 102 100 96 100 98 94 98 96 98 102 100 86 90 88 87 91 89 76 80 78 85 89 87 94 98 96 86 90 88 87 91 89 95 99 97 81 85 83 80 84 82 90 94 92
82 86 84 87 91 89 84 88 86 80 84 82 81 85 83 96 100 98 83 87 85 82 86 84 80 84 82 98 102 100 84 88 86 94 98 96 92 96 94 86 90 88 79 83 81 60 65 68
46 51 54 47 52 55 49 54 57 41 46 49 56 61 64 47 52 55 62 67 70 44 49 52 49 54 57 50 55 58 43 48 51 58 63 66 62 67 70 45 50 53 50 55 58 63 68 71
56 61 64 53 58 61 47 52 55 58 63 66 42 47 50 44 49 52 50 55 58 42 47 50 44 49 52 53 58 61 46 51 54 55 60 63 50 55 58 42 47 50 47 52 55 63 68 71
43 48 51 43 48 51 43 48 51 43 48 51 52 57 60 48 53 56 55 60 63 43 48 51 55 60 63 54 59 62 49 54 57 59 64 67 58 63 66 57 62 65 58 63 66 59 64 67
22 26 27 22 26 27 22 26 27 77 81 81 75 79 79 79 83 83 22 26 27 91 95 95 85 89 89 87 91 91 71 75 75 22 26 27 81 85 85 78 82 82 71 75 75 93 97 97
52 97 143 77 106 153 84 105 151 51 95 140 50 93 138 124 100 140 50 94 139 46 89 132 50 94 140 52 96 142 50 93 138 54 100 147 45 87 130 59 107 156 55 101 148 48 91 136
52 96 142 138 99 136 59 106 155 52 97 142 48 91 135 57 103 151 49 92 136 50 94 139 56 102 150 45 87 130 119 101 142 52 97 143 53 98 145 48 91 136 45 87 130 46 89 132
48 91 135 52 96 142 58 105 154 60 108 157 128 100 139 59 106 155 57 103 151 53 98 145 50 93 138 49 93 138 50 94 139 52 96 142 54 99 146 60 108 157 53 98 144 45 87 130
56 102 150 52 97 143 48 91 135 48 91 135 60 108 157 50 93 138 50 94 139 56 103 150 129 100 139 54 100 146 57 103 151 47 89 133 51 95 140 97 104 148 53 98 144 57 103 151
82 106 152 47 90 133 46 88 132 55 101 148 44 86 129 57 103 151 53 98 144 53 98 144 59 106 155 59 107 156 62 108 157 46 87 131 44 85 128 59 106 155 45 87 130 55 101 148
57 104 151 59 107 156 133 99 138 117 101 142 53 99 145 60 108 157 110 102 144 45 87 130 136 99 137 97 104 148 53 98 144 50 94 139 50 93 138 47 89 133 115 102 143 50 94 139
53 98 145 52 96 142 53 98 145 60 107 156 49 93 138 49 93 137 60 108 157 46 89 132 50 93 138 57 104 152 45 87 130 52 96 142 64 108 157 90 94 92 82 86 84 74 78 76
84 88 86 78 82 80 78 82 80 88 92 90 76 80 78 89 93 91 81 85 83 97 101 99 95 99 97 93 97 95 96 100 98 74 78 76 89 93 91 85 89 87 86 90 88 78 82 80
94 98 96 82 86 84 86 90 88 85 89 87 90 94 92 78 82 80 95 99 97 79 83 81 77 81 79 82 86 84 85 89 87 96 100 98 89 93 91 92 96 94 77 81 79 91 95 93
75 79 77 95 99 97 78 82 80 88 92 90 75 79 77 91 95 93 75 79 77 97 101 99 79 83 81 96 100 98 94 98 96 92 96 94 81 85 83 90 94 92 85 89 87 89 93 91
97 101 99 92 96 94 81 85 83 74 78 76 96 100 98 83 87 85 86 90 88 79 83 81 97 101 99 87 91 89 74 78 76 86 90 88 87 91 89 82 86 84 77 81 79 92 96 94
83 87 85 76 80 78 85 89 87 94 98 96 85 89 87 77 81 79 83 87 85 80 84 82 89 93 91 92 96 94 76 80 78 80 84 82 88 92 90 87 91 89 92 96 94 53 58 61
51 56 59 47 52 55 47 52 55 63 68 71 63 68 71 47 52 55 48 53 56 43 48 51 41 46 49 47 52 55 56 61 64 55 60 63 57 62 65 50 55 58 54 59 62 60 65 68
48 53 56 49 54 57 63 68 71 47 52 55 41 46 49 48 53 56 63 68 71 45 50 53 48 53 56 57 62 65 49 54 57 56 61 64 55 60 63 51 56 59 55 60 63 59 64 67
49 54 57 43 48 51 56 61 64 53 58 61 44 49 52 55 60 63 55 60 63 48 53 56 44 49 52 52 57 60 52 57 60 51 56 59 49 54 57 41 46 49 41 46 49 55 60 63
22 26 27 22 26 27 22 26 27 73 77 77 69 73 73 85 89 89 22 26 27 81 85 85 70 74 74 81 85 85 93 97 97 22 26 27 74 78 78 77 81 81 77 81 81 73 77 77
41 82 125 47 91 137 50 95 142 40 82 124 47 91 136 48 93 139 40 82 125 42 84 127 52 98 145 113 95 134 52 99 146 102 96 137 40 82 125 42 85 128 48 93 139 49 94 140
102 96 137 48 93 139 53 100 148 39 81 123 42 85 128 49 95 141 54 101 149 41 83 126 45 89 134 51 97 144 115 94 134 48 94 140 39 81 123 51 97 144 52 99 146 53 99 147
48 93 138 42 84 127 38 79 121 131 92 129 48 92 138 42 85 128 45 89 133 50 95 142 43 85 129 52 98 146 54 101 149 123 93 132 47 91 136 46 90 135 44 88 132 52 99 147
51 97 144 48 93 139 95 97 139 40 82 125 49 94 140 81 99 143 49 95 141 42 84 128 43 86 130 40 82 125 56 102 150 83 98 143 103 96 137 52 99 146 52 98 146 122 93 132
40 82 125 53 100 148 39 80 123 51 97 144 123 93 132 50 96 142 50 95 142 46 90 135 45 89 134 49 95 141 46 90 135 48 93 139 46 90 135 46 90 135 40 81 124 41 83 126
46 90 135 56 102 150 52 98 146 42 85 129 39 80 122 43 86 130 46 91 136 50 96 142 39 81 123 38 80 122 50 96 143 48 92 138 41 83 127 40 81 124 121 94 132 84 98 142
54 102 150 41 83 126 45 89 133 53 100 148 51 97 144 105 96 137 50 96 142 53 99 147 53 100 148 50 96 142 39 80 122 39 80 122 121 93 132 76 80 78 97 101 99 75 79 77
80 84 82 86 90 88 95 99 97 76 80 78 76 80 78 91 95 93 93 97 95 75 79 77 94 98 96 84 88 86 76 80 78 93 97 95 96 100 98 84 88 86 79 83 81 86 90 88
76 80 78 84 88 86 94 98 96 89 93 91 95 99 97 97 101 99 91 95 93 92 96 94 86 90 88 95 99 97 85 89 87 92 96 94 89 93 91 79 83 81 86 90 88 77 81 79
93 97 95 93 97 95 80 84 82 75 79 77 76 80 78 93 97 95 82 86 84 76 80 78 89 93 91 83 87 85 91 95 93 77 81 79 80 84 82 85 89 87 87 91 89 75 79 77
87 91 89 81 85 83 86 90 88 77 81 79 79 83 81 96 100 98 91 95 93 81 85 83 84 88 86 84 88 86 81 85 83 82 86 84 87 91 89 75 79 77 83 87 85 95 99 97
82 86 84 77 81 79 91 95 93 83 87 85 80 84 82 91 95 93 81 85 83 83 87 85 95 99 97 76 80 78 91 95 93 77 81 79 75 79 77 82 86 84 89 93 91 22 26 27
22 26 27 22 26 27 22 26 27 22 26 27 22 26 27 22 26 27 22 26 27 22 26 27 22 26 27 22 26 27 22 26 27 22 26 27 22 26 27 22 26 27 22 26 27 22 26 27
22 26 27 22 26 27 22 26 27 22 26 27 22 26 27 22 26 27 22 26 27 22 26 27 22 26 27 22 26 27 22 26 27 22 26 27 22 26 27 22 26 27 22 26 27 22 26 27
22 26 27 22 26 27 22 26 27 22 26 27 22 26 27 22 26 27 22 26 27 22 26 27 22 26 27 22 26 27 22 26 27 22 26 27 22 26 27 22 26 27 22 26 27 22 26 27
22 26 27 22 26 27 22 26 27 74 78 78 84 88 88 83 87 87 22 26 27 79 83 83 80 84 84 75 79 79 85 89 89 22 26 27 79 83 83 84 88 88 86 90 90 72 76 76
38 81 124 36 78 121 42 86 131 46 92 139 43 87 132 49 96 144 43 88 133 35 76 118 40 83 127 41 84 129 120 87 124 42 86 131 47 93 140 42 86 131 44 89 134 78 93 136
47 93 139 47 94 141 39 82 126 45 91 137 53 96 143 48 94 141 47 93 139 38 80 123 34 75 117 45 90 136 34 75 117 39 82 126 43 88 134 37 79 122 34 75 117 118 88 125
37 80 123 39 83 126 40 84 128 43 87 133 113 88 126 37 80 123 37 80 123 35 76 118 44 89 134 90 91 133 37 79 122 45 91 137 72 93 138 46 91 138 100 90 130 33 74 115
44 90 135 34 75 117 43 88 134 39 82 126 41 85 130 36 78 121 43 88 133 35 76 118 37 79 121 35 77 119 75 93 137 44 89 135 49 96 144 45 91 137 47 94 141 44 89 135
36 78 120 43 88 133 41 85 129 45 90 136 68 94 139 53 96 143 92 91 132 41 85 130 34 75 117 41 84 129 40 83 127 37 79 122 46 92 138 38 81 124 125 87 123 107 89 128
36 78 121 34 75 117 42 87 132 43 87 132 45 91 137 49 96 144 41 85 129 94 91 132 33 74 115 33 73 115 37 79 122 103 89 129 122 87 124 47 94 141 46 92 139 40 83 127
47 93 140 46 92 138 33 74 115 40 83 127 41 85 130 48 95 142 41 84 129 44 89 134 45 90 136 120 87 124 44 90 136 118 88 125 36 77 120 87 91 89 90 94 92 95 99 97
96 100 98 76 80 78 91 95 93 98 102 100 85 89 87 78 82 80 92 96 94 95 99 97 90 94 92 95 99 97 95 99 97 80 84 82 92 96 94 95 99 97 98 102 100 85 89 87
93 97 95 94 98 96 96 100 98 75 79 77 78 82 80 87 91 89 75 79 77 90 94 92 88 92 90 81 85 83 86 90 88 97 101 99 80 84 82 77 81 79 92 96 94 83 87 85
88 92 90 88 92 90 78 82 80 81 85 83 86 90 88 85 89 87 81 85 83 91 95 93 74 78 76 86 90 88 77 81 79 88 92 90 86 90 88 85 89 87 79 83 81 94 98 96
74 78 76 92 96 94 93 97 95 77 81 79 78 82 80 83 87 85 92 96 94 81 85 83 97 101 99 89 93 91 97 101 99 79 83 81 88 92 90 85 89 87 80 84 82 77 81 79
90 94 92 84 88 86 76 80 78 74 78 76 87 91 89 77 81 79 90 94 92 94 98 96 79 83 81 81 85 83 86 90 88 80 84 82 79 83 81 78 82 80 97 101 99 22 26 27
22 26 27 22 26 27 22 26 27 22 26 27 22 26 27 22 26 27 22 26 27 22 26 27 22 26 27 22 26 27 22 26 27 22 26 27 22 26 27 22 26 27 22 26 27 22 26 27
22 26 27 22 26 27 22 26 27 22 26 27 22 26 27 22 26 27 22 26 27 22 26 27 22 26 27 22 26 27 22 26 27 22 26 27 22 26 27 22 26 27 22 26 27 22 26 27
22 26 27 22 26 27 22 26 27 22 26 27 22 26 27 22 26 27 22 26 27 22 26 27 22 26 27 22 26 27 22 26 27 22 26 27 22 26 27 22 26 27 22 26 27 22 26 27
22 26 27 22 26 27 22 26 27 79 83 83 84 88 88 71 75 75 22 26 27 72 76 76 84 88 88 76 80 80 85 89 89 22 26 27 81 85 85 86 90 90 74 78 78 79 83 83
42 88 134 41 87 132 39 84 128 124 82 118 71 89 132 32 74 116 40 85 130 36 79 123 36 80 123 30 70 111 80 88 130 42 88 134 33 75 117 70 89 132 35 78 121 30 71 112
102 85 124 95 86 126 33 75 118 29 69 110 100 85 124 45 92 139 36 79 123 44 90 136 36 80 123 40 85 130 38 81 125 38 82 127 60 90 135 32 73 115 31 72 113 88 87 128
30 71 112 43 89 135 43 90 136 29 70 110 32 73 115 38 82 126 31 73 114 98 85 125 32 74 115 30 71 112 36 80 123 45 92 139 40 84 129 59 90 135 38 82 126 41 87 132
42 88 134 43 89 135 41 86 131 45 91 138 43 90 136 41 86 132 35 77 120 68 89 133 34 77 120 37 81 124 37 81 125 45 91 138 62 90 134 57 91 136 34 76 118 32 73 115
39 84 128 29 69 110 32 74 116 98 85 125 30 70 111 44 90 137 31 72 113 32 74 116 37 80 124 31 71 113 32 74 116 35 78 121 33 75 117 40 85 130 37 80 124 39 83 128
38 82 126 42 88 133 36 79 122 42 87 132 32 73 115 32 74 116 32 73 115 103 85 123 44 91 137 43 89 136 32 74 116 40 85 130 35 77 120 42 88 134 39 84 129 38 82 126
47 92 139 43 89 135 41 87 132 36 79 123 37 81 125 111 84 121 30 71 112 43 89 135 85 87 128 67 89 133 35 78 122 35 78 121 34 77 120 80 84 82 92 96 94 83 87 85
82 86 84 76 80 78 75 79 77 80 84 82 97 101 99 90 94 92 79 83 81 83 87 85 82 86 84 82 86 84 81 85 83 82 86 84 91 95 93 95 99 97 88 92 90 75 79 77
93 97 95 93 97 95 83 87 85 77 81 79 80 84 82 82 86 84 93 97 95 76 80 78 80 84 82 95 99 97 92 96 94 80 84 82 97 101 99 91 95 93 75 79 77 80 84 82
88 92 90 93 97 95 74 78 76 82 86 84 93 97 95 88 92 90 92 96 94 91 95 93 86 90 88 89 93 91 76 80 78 84 88 86 76 80 78 95 99 97 95 99 97 81 85 83
77 81 79 83 87 85 84 88 86 80 84 82 96 100 98 79 83 81 83 87 85 91 95 93 91 95 93 81 85 83 84 88 86 79 83 81 91 95 93 77 81 79 87 91 89 84 88 86
97 101 99 88 92 90 83 87 85 87 91 89 92 96 94 82 86 84 85 89 87 80 84 82 88 92 90 93 97 95 78 82 80 94 98 96 75 79 77 79 83 81 83 87 85 22 26 27
22 26 27 22 26 27 22 26 27 22 26 27 22 26 27 22 26 27 22 26 27 22 26 27 22 26 27 22 26 27 22 26 27 22 26 27 22 26 27 22 26 27 22 26 27 22 26 27
22 26 27 22 26 27 22 26 27 22 26 27 22 26 27 22 26 27 22 26 27 22 26 27 22 26 27 22 26 27 22 26 27 22 26 27 22 26 27 22 26 27 22 26 27 22 26 27
22 26 27 22 26 27 22 26 27 22 26 27 22 26 27 22 26 27 22 26 27 22 26 27 22 26 27 22 26 27 22 26 27 22 26 27 22 26 27 22 26 27 22 26 27 22 26 27
22 26 27 22 26 27 22 26 27 75 79 79 86 90 90 81 85 85 22 26 27 73 77 77 71 75 75 82 86 86 74 78 78 22 26 27 75 79 79 86 90 90 91 95 95 71 75 75
33 75 118 42 88 134 42 88 134 29 70 111 31 73 115 37 81 125 37 82 126 29 70 112 29 70 111 27 67 107 75 85 127 35 78 122 37 81 125 35 79 123 35 79 123 40 85 131
34 78 121 34 78 121 37 82 126 37 81 125 37 82 126 33 75 118 35 78 122 65 87 130 29 70 112 38 83 127 28 68 109 27 67 108 26 67 107 37 81 125 33 76 119 38 83 128
43 89 136 92 83 123 40 86 132 30 72 114 27 67 108 29 70 112 28 69 110 36 80 124 29 70 111 28 69 110 37 81 126 87 84 124 40 86 132 37 82 126 27 68 108 27 67 108
50 89 134 31 72 114 36 80 124 42 89 135 32 74 116 28 68 109 39 85 130 33 75 118 40 86 131 30 71 112 31 74 116 36 80 125 39 84 130 29 70 111 32 74 116 33 75 118
31 73 115 42 89 136 32 75 118 38 83 128 33 76 119 32 74 116 79 85 126 28 69 110 85 84 125 33 76 119 37 81 125 38 83 128 27 67 108 29 70 112 38 83 128 42 89 135
41 87 133 32 74 116 35 78 122 36 79 123 32 75 118 36 80 124 92 83 123 32 75 117 29 70 112 40 85 131 39 85 130 39 85 130 40 85 131 120 80 115 41 87 133 37 81 125
93 83 122 33 76 119 39 85 130 34 78 121 30 72 113 27 68 109 28 69 110 35 78 121 37 81 125 33 76 118 32 74 117 27 67 107 33 76 119 91 95 93 85 89 87 91 95 93
80 84 82 89 93 91 77 81 79 81 85 83 84 88 86 92 96 94 96 100 98 83 87 85 93 97 95 82 86 84 81 85 83 84 88 86 91 95 93 96 100 98 95 99 97 78 82 80
79 83 81 86 90 88 77 81 79 92 96 94 95 99 97 86 90 88 83 87 85 92 96 94 76 80 78 75 79 77 80 84 82 84 88 86 83 87 85 89 93 91 81 85 83 76 80 78
79 83 81 95 99 97 75 79 77 82 86 84 81 85 83 80 84 82 89 93 91 98 102 100 92 96 94 90 94 92 83 87 85 86 90 88 92 96 94 95 99 97 91 95 93 89 93 91
95 99 97 79 83 81 77 81 79 90 94 92 97 101 99 81 85 83 91 95 93 87 91 89 75 79 77 85 89 87 88 92 90 84 88 86 74 78 76 94 98 96 77 81 79 84 88 86
74 78 76 83 87 85 83 87 85 90 94 92 96 100 98 91 95 93 82 86 84 89 93 91 91 95 93 82 86 84 76 80 78 91 95 93 83 87 85 94 98 96 78 82 80 22 26 27
22 26 27 22 26 27 22 26 27 22 26 27 22 26 27 22 26 27 22 26 27 22 26 27 22 26 27 22 26 27 22 26 27 22 26 27 22 26 27 22 26 27 22 26 27 22 26 27
22 26 27 22 26 27 22 26 27 22 26 27 22 26 27 22 26 27 22 26 27 22 26 27 22 26 27 22 26 27 22 26 27 22 26 27 22 26 27 22 26 27 22 26 27 22 26 27
22 26 27 22 26 27 22 26 27 22 26 27 22 26 27 22 26 27 22 26 27 22 26 27 22 26 27 22 26 27 22 26 27 22 26 27 22 26 27 22 26 27 22 26 27 22 26 27
22 26 27 22 26 27 22 26 27 80 84 84 87 91 91 71 75 75 22 26 27 78 82 82 75 79 79 75 79 79 86 90 90 22 26 27 74 78 78 84 88 88 79 83 83 83 87 87
40 86 132 35 79 123 36 81 126 35 79 123 33 76 120 40 86 132 34 78 121 32 74 117 35 79 123 26 67 107 36 80 125 33 77 120 25 66 106 39 85 131 34 77 121 37 81 126
35 79 123 33 76 119 31 73 115 38 83 128 41 87 134 39 84 130 38 83 128 30 72 114 40 86 132 27 67 108 29 70 112 28 70 111 39 85 130 106 79 116 33 76 119 91 81 120
27 68 108 119 78 113 28 69 110 116 78 114 35 79 123 40 86 132 29 71 112 34 78 121 39 85 131 73 84 125 26 66 107 30 71 113 39 84 130 35 79 123 31 74 117 35 79 123
32 75 119 36 80 124 37 82 127 78 83 124 35 80 124 37 82 127 86 82 122 35 79 123 37 82 128 37 82 127 35 79 123 39 85 131 25 65 106 28 69 111 27 68 109 80 83 123
31 74 116 98 80 118 33 76 119 25 65 105 35 79 124 28 69 110 31 74 116 39 85 131 40 85 131 33 76 120 38 84 129 65 85 128 34 78 122 34 78 122 37 82 127 57 86 130
53 86 131 26 66 107 27 68 109 38 84 129 26 66 106 89 82 121 37 82 127 26 66 107 30 72 114 38 83 128 38 83 129 40 86 132 28 69 110 26 66 106 40 86 132 34 78 122
26 67 107 28 69 110 31 73 115 35 79 123 29 70 112 40 86 132 38 84 129 36 80 125 26 66 107 39 85 131 37 82 127 35 79 123 66 85 127 81 85 83 89 93 91 81 85 83
79 83 81 96 100 98 90 94 92 79 83 81 97 101 99 89 93 91 88 92 90 97 101 99 86 90 88 88 92 90 87 91 89 80 84 82 88 92 90 84 88 86 80 84 82 94 98 96
79 83 81 77 81 79 75 79 77 84 88 86 75 79 77 92 96 94 95 99 97 78 82 80 88 92 90 84 88 86 82 86 84 85 89 87 81 85 83 85 89 87 77 81 79 85 89 87
84 88 86 85 89 87 85 89 87 90 94 92 97 101 99 87 91 89 76 80 78 80 84 82 86 90 88 89 93 91 85 89 87 88 92 90 77 81 79 76 80 78 77 81 79 88 92 90
95 99 97 75 79 77 75 79 77 84 88 86 87 91 89 97 101 99 83 87 85 94 98 96 79 83 81 95 99 97 91 95 93 79 83 81 96 100 98 79 83 81 86 90 88 76 80 78
75 79 77 96 100 98 81 85 83 86 90 88 84 88 86 78 82 80 84 88 86 83 87 85 96 100 98 75 79 77 92 96 94 88 92 90 83 87 85 76 80 78 83 87 85 22 26 27
22 26 27 22 26 27 22 26 27 22 26 27 22 26 27 22 26 27 22 26 27 22 26 27 22 26 27 22 26 27 22 26 27 22 26 27 22 26 27 22 26 27 22 26 27 22 26 27
22 26 27 22 26 27 22 26 27 22 26 27 22 26 27 22 26 27 22 26 27 22 26 27 22 26 27 22 26 27 22 26 27 22 26 27 22 26 27 22 26 27 22 26 27 22 26 27
22 26 27 22 26 27 22 26 27 22 26 27 22 26 27 22 26 27 22 26 27 22 26 27 22 26 27 22 26 27 22 26 27 22 26 27 22 26 27 22 26 27 22 26 27 22 26 27
22 26 27 22 26 27 22 26 27 71 75 75 90 94 94 75 79 79 22 26 27 70 74 74 71 75 75 69 73 73 73 77 77 22 26 27 84 88 88 84 88 88 91 95 95 84 88 88
34 78 122 36 81 127 35 80 125 95 78 116 31 75 118 33 77 121 41 85 131 37 82 128 37 82 128 75 81 122 30 73 115 34 78 122 57 83 127 94 78 117 24 64 105 24 64 104
73 81 122 82 80 120 31 74 118 25 65 106 29 72 114 102 77 114 70 81 123 36 81 126 31 74 117 25 65 106 36 81 126 37 82 127 34 79 123 34 78 123 34 78 122 23 63 103
23 64 104 32 75 119 90 79 118 35 80 124 38 84 130 29 72 114 34 78 123 35 79 124 25 65 106 38 84 130 35 80 125 32 76 120 33 76 120 31 75 118 114 76 111 24 65 105
36 81 126 38 84 129 32 76 120 34 78 123 38 85 131 34 78 123 35 80 125 44 85 130 38 84 130 77 80 121 33 77 121 24 65 105 29 72 114 35 80 124 37 82 128 31 75 118
34 78 122 31 73 116 29 72 114 32 75 118 23 63 103 34 79 123 34 79 123 38 85 131 73 81 122 38 83 129 31 75 118 24 64 104 24 64 104 28 70 112 27 69 110 40 85 131
43 85 130 36 81 126 28 70 112 36 81 126 26 67 108 29 71 113 35 79 124 32 76 120 27 68 109 28 70 112 26 67 108 29 72 114 29 72 114 32 76 120 30 72 115 31 74 117
50 84 129 35 80 125 78 80 121 37 82 128 24 64 104 29 71 114 23 62 102 27 68 110 38 83 129 25 66 106 31 74 117 35 79 124 37 83 128 92 96 94 94 98 96 77 81 79
81 85 83 81 85 83 98 102 100 92 96 94 83 87 85 84 88 86 88 92 90 81 85 83 80 84 82 96 100 98 92 96 94 85 89 87 81 85 83 79 83 81 83 87 85 75 79 77
94 98 96 81 85 83 85 89 87 85 89 87 83 87 85 78 82 80 85 89 87 84 88 86 96 100 98 78 82 80 77 81 79 78 82 80 92 96 94 78 82 80 82 86 84 75 79 77
93 97 95 93 97 95 75 79 77 84 88 86 76 80 78 88 92 90 93 97 95 77 81 79 74 78 76 93 97 95 88 92 90 98 102 100 85 89 87 93 97 95 81 85 83 78 82 80
83 87 85 84 88 86 85 89 87 91 95 93 76 80 78 80 84 82 79 83 81 92 96 94 88 92 90 83 87 85 98 102 100 93 97 95 81 85 83 94 98 96 87 91 89 97 101 99
95 99 97 96 100 98 77 81 79 96 100 98 76 80 78 84 88 86 88 92 90 74 78 76 95 99 97 76 80 78 97 101 99 91 95 93 97 101 99 89 93 91 84 88 86 22 26 27
22 26 27 22 26 27 22 26 27 22 26 27 22 26 27 22 26 27 22 26 27 22 26 27 22 26 27 22 26 27 22 26 27 22 26 27 22 26 27 22 26 27 22 26 27 22 26 27
22 26 27 22 26 27 22 26 27 22 26 27 22 26 27 22 26 27 22 26 27 22 26 27 22 26 27 22 26 27 22 26 27 22 26 27 22 26 27 22 26 27 22 26 27 22 26 27
22 26 27 22 26 27 22 26 27 22 26 27 22 26 27 22 26 27 22 26 27 22 26 27 22 26 27 22 26 27 22 26 27 22 26 27 22 26 27 22 26 27 22 26 27 22 26 27
22 26 27 22 26 27 22 26 27 90 94 94 85 89 89 76 80 80 22 26 27 71 75 75 87 91 91 71 75 75 70 74 74 22 26 27 73 77 77 80 84 84 83 87 87 88 92 92
24 66 107 64 78 119 32 76 121 26 68 110 81 75 115 31 76 120 82 75 114 21 62 102 29 72 116 35 81 126 34 79 125 24 65 106 106 72 108 35 80 126 68 77 118 32 76 121
35 81 126 27 69 112 28 71 114 22 63 104 24 65 106 22 63 104 32 77 121 24 66 107 27 70 113 33 77 122 49 79 123 49 79 123 97 73 110 73 76 117 107 72 108 27 69 112
22 63 104 31 75 120 26 69 111 67 77 118 22 62 102 25 67 109 22 63 103 27 69 112 28 71 114 96 74 111 24 66 108 22 63 103 34 80 125 33 78 123 20 59 99 22 63 104
37 81 127 30 74 118 68 77 118 33 78 123 25 67 109 34 80 125 28 71 113 23 64 104 96 74 111 34 79 124 87 75 113 27 69 112 58 78 121 43 80 125 30 74 118 28 71 115
24 65 107 22 62 103 29 72 115 35 81 127 24 66 108 104 72 108 110 72 107 24 66 108 33 78 123 24 65 107 31 75 119 26 69 111 78 76 115 20 60 100 29 72 115 20 60 100
34 80 125 19 59 99 75 76 116 30 74 118 26 69 111 32 76 121 27 69 112 26 69 111 27 70 113 23 65 106 22 63 104 20 60 100 22 63 104 28 71 114 22 63 104 50 79 123
78 76 115 31 75 120 21 61 101 26 69 111 101 73 109 39 81 126 23 64 105 21 61 102 70 77 118 32 76 121 34 80 126 31 75 119 34 80 125 94 98 96 80 84 82 87 91 89
90 94 92 75 79 77 77 81 79 89 93 91 84 88 86 74 78 76 81 85 83 79 83 81 85 89 87 93 97 95 76 80 78 74 78 76 83 87 85 82 86 84 88 92 90 84 88 86
98 102 100 84 88 86 76 80 78 87 91 89 76 80 78 77 81 79 77 81 79 82 86 84 93 97 95 95 99 97 79 83 81 91 95 93 79 83 81 86 90 88 90 94 92 87 91 89
79 83 81 95 99 97 89 93 91 96 100 98 85 89 87 87 91 89 93 97 95 81 85 83 79 83 81 78 82 80 81 85 83 75 79 77 82 86 84 75 79 77 83 87 85 88 92 90
90 94 92 75 79 77 97 101 99 77 81 79 85 89 87 85 89 87 80 84 82 93 97 95 88 92 90 77 81 79 97 101 99 86 90 88 89 93 91 88 92 90 76 80 78 77 81 79
97 101 99 95 99 97 93 97 95 84 88 86 91 95 93 97 101 99 83 87 85 85 89 87 95 99 97 76 80 78 75 79 77 84 88 86 94 98 96 75 79 77 89 93 91 22 26 27
22 26 27 22 26 27 22 26 27 22 26 27 22 26 27 22 26 27 22 26 27 22 26 27 22 26 27 22 26 27 22 26 27 22 26 27 22 26 27 22 26 27 22 26 27 22 26 27
22 26 27 22 26 27 22 26 27 22 26 27 22 26 27 22 26 27 22 26 27 22 26 27 22 26 27 22 26 27 22 26 27 22 26 27 22 26 27 22 26 27 22 26 27 22 26 27
22 26 27 22 26 27 22 26 27 22 26 27 22 26 27 22 26 27 22 26 27 22 26 27 22 26 27 22 26 27 22 26 27 22 26 27 22 26 27 22 26 27 22 26 27 22 26 27
22 26 27 22 26 27 22 26 27 74 78 78 80 84 84 93 97 97 22 26 27 89 93 93 73 77 77 91 95 95 89 93 93 22 26 27 90 94 94 73 77 77 86 90 90 88 92 92
24 67 110 23 66 109 24 67 110 72 70 109 29 74 119 20 62 104 24 67 110 41 74 118 29 74 119 18 59 99 19 60 101 76 70 108 29 74 120 24 67 110 89 68 105 24 66 109
28 73 118 27 71 115 30 75 120 15 55 94 19 59 100 17 57 97 30 75 121 30 75 121 28 72 116 22 65 107 30 75 120 19 60 101 16 56 96 15 54 93 22 64 106 52 73 115
14 53 92 17 57 97 23 65 108 15 55 94 22 64 106 16 56 96 21 62 104 77 70 108 26 70 114 18 58 99 14 54 93 23 65 108 27 71 115 30 75 120 17 57 97 20 62 103
25 69 113 14 54 93 76 70 108 18 58 99 19 60 101 20 61 103 46 73 116 15 54 93 15 54 93 51 73 115 29 74 119 96 67 103 98 67 102 25 68 112 19 60 101 27 72 116
76 70 108 23 65 108 16 56 96 18 59 100 96 67 103 28 73 117 28 73 118 17 57 97 24 67 110 20 62 103 27 71 115 21 63 105 23 65 108 23 65 108 15 54 93 14 53 91
30 75 120 25 69 113 20 62 103 30 75 120 42 74 118 100 67 102 26 70 114 24 67 110 18 59 100 14 53 91 18 58 99 23 65 107 15 54 93 29 74 119 29 75 120 83 69 106
22 64 106 26 70 114 15 55 94 25 68 112 56 72 114 25 68 111 19 59 100 16 55 95 30 75 120 91 68 104 23 65 108 19 61 102 20 62 103 76 80 78 94 98 96 77 81 79
77 81 79 92 96 94 78 82 80 97 101 99 84 88 86 92 96 94 95 99 97 92 96 94 84 88 86 97 101 99 90 94 92 78 82 80 86 90 88 81 85 83 76 80 78 91 95 93
85 89 87 96 100 98 80 84 82 88 92 90 76 80 78 81 85 83 88 92 90 76 80 78 97 101 99 85 89 87 95 99 97 92 96 94 82 86 84 81 85 83 81 85 83 94 98 96
94 98 96 94 98 96 80 84 82 91 95 93 84 88 86 86 90 88 78 82 80 82 86 84 89 93 91 89 93 91 94 98 96 75 79 77 75 79 77 81 85 83 87 91 89 93 97 95
75 79 77 82 86 84 84 88 86 86 90 88 97 101 99 87 91 89 81 85 83 83 87 85 97 101 99 85 89 87 75 79 77 81 85 83 95 99 97 95 99 97 96 100 98 97 101 99
90 94 92 89 93 91 98 102 100 96 100 98 86 90 88 75 79 77 96 100 98 77 81 79 90 94 92 87 91 89 98 102 100 82 86 84 94 98 96 78 82 80 79 83 81 22 26 27
22 26 27 22 26 27 22 26 27 22 26 27 22 26 27 22 26 27 22 26 27 22 26 27 22 26 27 22 26 27 22 26 27 22 26 27 22 26 27 22 26 27 22 26 27 22 26 27
22 26 27 22 26 27 22 26 27 22 26 27 22 26 27 22 26 27 22 26 27 22 26 27 22 26 27 22 26 27 22 26 27 22 26 27 22 26 27 22 26 27 22 26 27 22 26 27
22 26 27 22 26 27 22 26 27 22 26 27 22 26 27 22 26 27 22 26 27 22 26 27 22 26 27 22 26 27 22 26 27 22 26 27 22 26 27 22 26 27 22 26 27 22 26 27
22 26 27 22 26 27 22 26 27 82 86 86 92 96 96 82 86 86 22 26 27 71 75 75 93 97 97 78 82 82 73 77 77 22 26 27 80 84 84 86 90 90 77 81 81 83 87 87
72 64 102 13 54 94 9 47 86 23 67 112 13 53 93 23 67 111 10 49 88 10 49 88 12 52 92 12 51 91 21 64 108 66 64 103 19 62 105 11 50 90 75 63 101 9 48 87
22 65 109 79 63 100 19 62 104 20 62 105 51 66 107 9 47 85 12 52 91 40 68 110 9 48 87 11 51 90 13 53 93 18 60 102 9 48 87 11 50 90 54 66 107 13 53 93
18 60 102 22 66 110 68 64 103 33 68 112 21 64 107 12 52 92 24 68 113 19 61 103 21 65 108 61 65 105 11 51 90 11 51 90 15 56 98 20 64 107 12 52 92 20 63 107
20 63 106 13 53 93 12 52 92 14 55 96 50 66 108 11 51 90 16 57 98 14 55 96 15 56 97 92 61 96 17 59 101 19 62 104 19 61 104 61 65 104 13 53 93 18 60 102
18 61 103 22 66 109 20 63 106 15 56 97 8 47 85 13 53 94 14 55 96 16 58 100 13 54 94 9 48 87 33 68 112 11 50 89 15 56 97 13 53 93 9 47 86 11 51 91
17 59 101 20 63 105 21 65 109 20 63 106 15 56 97 11 51 91 12 52 92 20 62 105 17 59 101 17 59 101 11 51 90 22 66 110 14 54 95 21 65 109 23 67 111 47 67 108
22 66 110 101 60 93 23 68 112 16 58 99 18 60 102 70 64 102 24 69 113 23 67 112 53 66 107 97 60 95 15 56 98 24 69 113 24 69 113 97 101 99 81 85 83 98 102 100
96 100 98 80 84 82 90 94 92 90 94 92 80 84 82 78 82 80 88 92 90 96 100 98 88 92 90 84 88 86 89 93 91 96 100 98 76 80 78 86 90 88 89 93 91 89 93 91
83 87 85 77 81 79 96 100 98 77 81 79 86 90 88 86 90 88 74 78 76 95 99 97 89 93 91 91 95 93 77 81 79 87 91 89 77 81 79 81 85 83 81 85 83 97 101 99
75 79 77 77 81 79 96 100 98 77 81 79 77 81 79 81 85 83 75 79 77 81 85 83 74 78 76 90 94 92 88 92 90 74 78 76 83 87 85 80 84 82 78 82 80 85 89 87
95 99 97 85 89 87 91 95 93 82 86 84 86 90 88 89 93 91 78 82 80 93 97 95 78 82 80 81 85 83 92 96 94 90 94 92 91 95 93 90 94 92 86 90 88 85 89 87
88 92 90 75 79 77 89 93 91 83 87 85 97 101 99 88 92 90 80 84 82 89 93 91 89 93 91 88 92 90 92 96 94 88 92 90 87 91 89 97 101 99 85 89 87 22 26 27
22 26 27 22 26 27 22 26 27 22 26 27 22 26 27 22 26 27 22 26 27 22 26 27 22 26 27 22 26 27 22 26 27 22 26 27 22 26 27 22 26 27 22 26 27 22 26 27
22 26 27 22 26 27 22 26 27 22 26 27 22 26 27 22 26 27 22 26 27 22 26 27 22 26 27 22 26 27 22 26 27 22 26 27 22 26 27 22 26 27 22 26 27 22 26 27
22 26 27 22 26 27 22 26 27 22 26 27 22 26 27 22 26 27 22 26 27 22 26 27 22 26 27 22 26 27 22 26 27 22 26 27 22 26 27 22 26 27 22 26 27 22 26 27
22 26 27 22 26 27 22 26 27 92 96 96 71 75 75 89 93 93 22 26 27 81 85 85 80 84 84 90 94 94 76 80 80 22 26 27 69 73 73 81 85 85 79 83 83 91 95 95
16 58 100 8 47 87 67 60 98 53 62 102 17 60 102 14 56 98 15 58 100 11 51 92 9 49 89 6 45 83 11 51 91 13 53 94 20 63 107 13 54 94 12 53 94 11 51 91
84 58 94 6 44 82 6 44 83 17 60 103 13 53 94 28 65 109 13 54 96 11 51 92 11 51 91 16 58 100 9 49 88 11 52 92 100 56 89 81 59 94 17 59 102 6 45 83
11 51 91 9 49 88 39 64 106 54 62 102 10 50 91 19 63 106 14 55 97 61 61 100 21 66 110 75 59 96 17 60 103 20 64 108 20 64 108 18 61 104 20 64 107 16 58 100
20 64 108 13 54 96 41 64 106 14 55 97 7 46 85 15 57 99 9 48 88 18 61 104 10 49 89 14 56 98 12 53 94 11 51 91 20 64 109 10 49 89 43 63 105 35 64 107
20 64 108 20 64 108 71 60 97 18 61 104 87 58 93 9 48 88 16 59 101 9 48 87 13 54 95 21 65 109 55 62 102 15 57 99 48 63 104 12 53 94 19 62 106 35 64 107
17 60 102 87 58 93 38 64 106 62 61 100 6 44 83 15 56 98 6 45 83 46 63 104 65 61 99 13 54 96 19 63 107 73 60 97 46 63 104 32 65 108 11 51 92 13 54 95
16 59 102 6 44 82 21 66 110 14 55 97 10 50 90 14 56 98 12 53 94 19 63 106 15 57 99 9 48 88 14 56 98 14 56 97 21 65 109 89 93 91 75 79 77 97 101 99
82 86 84 96 100 98 89 93 91 89 93 91 86 90 88 86 90 88 86 90 88 83 87 85 91 95 93 77 81 79 95 99 97 91 95 93 89 93 91 91 95 93 97 101 99 85 89 87
87 91 89 83 87 85 96 100 98 84 88 86 84 88 86 82 86 84 81 85 83 82 86 84 94 98 96 75 79 77 76 80 78 75 79 77 84 88 86 88 92 90 74 78 76 79 83 81
76 80 78 74 78 76 90 94 92 78 82 80 75 79 77 85 89 87 92 96 94 94 98 96 84 88 86 77 81 79 96 100 98 78 82 80 75 79 77 77 81 79 79 83 81 88 92 90
87 91 89 94 98 96 86 90 88 84 88 86 86 90 88 93 97 95 82 86 84 74 78 76 79 83 81 89 93 91 80 84 82 78 82 80 74 78 76 88 92 90 80 84 82 89 93 91
76 80 78 98 102 100 76 80 78 77 81 79 94 98 96 96 100 98 96 100 98 94 98 96 97 101 99 80 84 82 88 92 90 89 93 91 86 90 88 84 88 86 92 96 94 22 26 27
22 26 27 22 26 27 22 26 27 22 26 27 22 26 27 22 26 27 22 26 27 22 26 27 22 26 27 22 26 27 22 26 27 22 26 27 22 26 27 22 26 27 22 26 27 22 26 27
22 26 27 22 26 27 22 26 27 22 26 27 22 26 27 22 26 27 22 26 27 22 26 27 22 26 27 22 26 27 22 26 27 22 26 27 22 26 27 22 26 27 22 26 27 22 26 27
22 26 27 22 26 27 22 26 27 22 26 27 22 26 27 22 26 27 22 26 27 22 26 27 22 26 27 22 26 27 22 26 27 22 26 27 22 26 27 22 26 27 22 26 27 22 26 27
22 26 27 22 26 27 22 26 27 90 94 94 81 85 85 77 81 81 22 26 27 90 94 94 92 96 96 72 76 76 73 77 77 22 26 27 75 79 79 86 90 90 73 77 77 89 93 93
12 52 93 16 57 99 21 66 110 16 58 101 76 60 97 13 53 94 16 58 101 7 45 84 41 65 107 17 60 103 16 58 101 71 61 98 15 56 98 42 65 106 21 66 110 7 46 85
18 61 104 20 64 107 20 63 107 84 59 95 20 64 108 8 46 85 7 46 84 20 63 107 20 64 107 13 54 95 18 61 104 75 60 97 39 65 107 14 55 96 12 53 94 53 63 103
19 62 105 7 45 84 79 60 96 7 46 84 44 64 106 7 46 85 12 53 93 22 66 111 15 57 98 16 58 100 8 47 86 16 58 100 89 59 93 56 63 102 56 63 103 6 44 83
30 66 110 15 57 98 97 58 91 16 57 99 19 63 106 15 57 98 9 48 87 18 60 103 15 57 99 8 47 86 13 53 94 8 47 86 73 61 98 8 47 86 19 62 105 6 44 82
14 56 97 22 66 111 16 57 99 10 50 90 19 63 106 12 52 92 21 66 110 19 62 105 69 61 99 12 52 92 19 63 106 6 44 82 20 64 108 20 63 107 19 63 106 11 51 92
6 45 83 14 56 97 21 65 109 19 62 106 21 65 109 65 62 100 17 60 103 21 65 109 46 64 105 21 66 110 14 56 97 22 67 112 20 64 108 26 67 111 9 48 87 48 64 105
19 62 105 15 57 99 14 56 97 13 54 95 21 64 108 19 63 106 19 63 106 8 46 85 6 44 82 83 59 95 100 57 90 44 64 106 9 48 88 92 96 94 83 87 85 86 90 88
79 83 81 91 95 93 83 87 85 74 78 76 94 98 96 76 80 78 81 85 83 75 79 77 87 91 89 97 101 99 98 102 100 92 96 94 82 86 84 92 96 94 82 86 84 83 87 85
89 93 91 76 80 78 75 79 77 84 88 86 76 80 78 95 99 97 94 98 96 83 87 85 81 85 83 74 78 76 90 94 92 74 78 76 85 89 87 87 91 89 87 91 89 86 90 88
79 83 81 80 84 82 90 94 92 89 93 91 80 84 82 96 100 98 79 83 81 98 102 100 92 96 94 87 91 89 90 94 92 86 90 88 77 81 79 83 87 85 84 88 86 91 95 93
87 91 89 95 99 97 80 84 82 86 90 88 97 101 99 97 101 99 90 94 92 80 84 82 84 88 86 95 99 97 79 83 81 86 90 88 87 91 89 86 90 88 89 93 91 97 101 99
84 88 86 91 95 93 93 97 95 85 89 87 98 102 100 96 100 98 92 96 94 96 100 98 83 87 85 78 82 80 81 85 83 86 90 88 90 94 92 89 93 91 76 80 78 22 26 27
22 26 27 22 26 27 22 26 27 22 26 27 22 26 27 22 26 27 22 26 27 22 26 27 22 26 27 22 26 27 22 26 27 22 26 27 22 26 27 22 26 27 22 26 27 22 26 27
22 26 27 22 26 27 22 26 27 22 26 27 22 26 27 22 26 27 22 26 27 22 26 27 22 26 27 22 26 27 22 26 27 22 26 27 22 26 27 22 26 27 22 26 27 22 26 27
22 26 27 22 26 27 22 26 27 22 26 27 22 26 27 22 26 27 22 26 27 22 26 27 22 26 27 22 26 27 22 26 27 22 26 27 22 26 27 22 26 27 22 26 27 22 26 27
22 26 27 22 26 27 22 26 27 80 84 84 89 93 93 69 73 73 22 26 27 81 85 85 88 92 92 79 83 83 92 96 96 22 26 27 82 86 86 81 85 85 81 85 85 72 76 76
102 62 96 14 53 93 21 64 107 13 52 92 19 61 102 13 53 93 13 53 93 23 67 111 84 64 101 14 53 93 12 52 91 38 70 114 50 69 111 16 57 98 13 53 92 20 63 105
19 62 104 11 50 90 25 69 113 15 55 96 18 60 101 11 49 88 18 60 101 14 54 94 15 56 97 23 67 110 20 62 104 12 51 90 18 59 101 16 57 98 26 71 116 12 51 90
24 68 112 69 66 105 10 49 87 21 64 107 12 52 91 12 51 90 77 65 103 22 66 109 12 52 91 23 66 110 21 64 107 22 65 108 19 61 103 24 68 112 56 68 109 24 68 112
12 52 91 11 49 88 21 64 107 16 57 97 21 63 106 22 65 109 13 53 93 35 71 115 20 63 106 11 49 88 18 60 101 23 67 110 26 71 116 16 57 98 17 58 99 21 64 107
22 66 109 24 68 112 21 64 107 18 59 101 22 65 108 19 61 103 16 57 98 12 52 91 66 67 106 22 65 108 12 51 90 17 59 100 21 63 106 14 55 95 22 65 108 24 68 112
22 66 109 26 71 116 12 52 91 17 58 100 79 65 102 13 52 92 11 50 89 59 68 108 19 61 103 27 72 117 13 52 92 74 66 104 22 65 108 25 70 115 23 67 111 19 61 103
18 59 101 17 59 100 12 51 90 14 53 93 11 50 89 24 68 112 81 65 102 22 65 108 15 56 96 14 54 94 59 68 108 12 51 90 18 60 102 87 91 89 92 96 94 83 87 85
81 85 83 77 81 79 91 95 93 80 84 82 85 89 87 87 91 89 95 99 97 87 91 89 80 84 82 81 85 83 93 97 95 85 89 87 89 93 91 87 91 89 93 97 95 91 95 93
85 89 87 90 94 92 94 98 96 87 91 89 75 79 77 89 93 91 87 91 89 82 86 84 80 84 82 94 98 96 80 84 82 90 94 92 74 78 76 74 78 76 83 87 85 97 101 99
94 98 96 97 101 99 88 92 90 87 91 89 80 84 82 85 89 87 82 86 84 79 83 81 96 100 98 94 98 96 88 92 90 83 87 85 75 79 77 90 94 92 92 96 94 89 93 91
76 80 78 88 92 90 86 90 88 86 90 88 92 96 94 92 96 94 87 91 89 88 92 90 74 78 76 76 80 78 89 93 91 78 82 80 76 80 78 78 82 80 92 96 94 89 93 91
75 79 77 80 84 82 96 100 98 78 82 80 76 80 78 89 93 91 96 100 98 91 95 93 93 97 95 88 92 90 92 96 94 97 101 99 85 89 87 80 84 82 98 102 100 22 26 27
22 26 27 22 26 27 22 26 27 22 26 27 22 26 27 22 26 27 22 26 27 22 26 27 22 26 27 22 26 27 22 26 27 22 26 27 22 26 27 22 26 27 22 26 27 22 26 27
22 26 27 22 26 27 22 26 27 22 26 27 22 26 27 22 26 27 22 26 27 22 26 27 22 26 27 22 26 27 22 26 27 22 26 27 22 26 27 22 26 27 22 26 27 22 26 27
22 26 27 22 26 27 22 26 27 22 26 27 22 26 27 22 26 27 22 26 27 22 26 27 22 26 27 22 26 27 22 26 27 22 26 27 22 26 27 22 26 27 22 26 27 22 26 27
22 26 27 22 26 27 22 26 27 72 76 76 92 96 96 78 82 82 22 26 27 92 96 96 88 92 92 79 83 83 79 83 83 22 26 27 80 84 84 82 86 86 73 77 77 92 96 96
25 68 110 31 76 121 98 70 106 18 58 98 26 70 113 17 56 95 27 71 115 26 70 113 26 69 112 30 75 120 17 56 95 45 76 120 106 69 103 31 76 121 23 65 107 98 70 106
69 73 114 48 76 119 31 76 121 27 70 113 26 69 112 32 78 123 27 71 115 27 71 114 26 69 112 22 63 105 24 66 108 27 71 115 27 70 113 32 77 123 28 72 115 18 59 99
26 68 111 18 58 98 29 74 118 25 68 111 26 70 113 24 67 109 88 71 108 17 57 96 28 72 116 23 65 107 27 70 113 25 68 111 24 66 108 19 60 100 31 76 121 18 58 98
19 59 99 17 56 96 23 64 106 28 72 115 25 67 110 23 65 108 22 64 105 19 60 100 21 62 103 17 56 96 19 60 100 28 72 116 67 74 114 24 67 109 49 76 119 23 65 108
20 61 102 63 74 115 24 67 109 111 68 102 21 62 104 26 69 112 17 56 95 18 58 98 28 72 116 26 69 112 34 78 123 21 62 103 29 74 118 17 56 96 31 76 121 21 63 104
25 67 110 97 70 106 32 78 123 21 62 103 51 76 118 25 68 111 27 70 113 25 67 110 83 71 110 30 74 119 44 76 120 22 64 106 24 66 109 27 71 114 40 77 122 27 71 115
25 67 110 32 77 123 21 63 104 18 58 98 18 58 98 25 68 110 18 58 98 18 58 98 28 72 116 25 68 111 30 75 119 56 75 117 19 59 100 78 82 80 81 85 83 90 94 92
90 94 92 90 94 92 90 94 92 84 88 86 90 94 92 95 99 97 93 97 95 78 82 80 76 80 78 81 85 83 83 87 85 90 94 92 97 101 99 88 92 90 93 97 95 86 90 88
84 88 86 88 92 90 75 79 77 83 87 85 81 85 83 82 86 84 79 83 81 78 82 80 88 92 90 81 85 83 82 86 84 97 101 99 83 87 85 78 82 80 81 85 83 83 87 85
88 92 90 93 97 95 92 96 94 84 88 86 77 81 79 90 94 92 95 99 97 79 83 81 94 98 96 94 98 96 91 95 93 79 83 81 79 83 81 84 88 86 86 90 88 85 89 87
75 79 77 76 80 78 75 79 77 98 102 100 82 86 84 76 80 78 89 93 91 88 92 90 95 99 97 86 90 88 94 98 96 85 89 87 98 102 100 75 79 77 86 90 88 84 88 86
76 80 78 76 80 78 93 97 95 95 99 97 78 82 80 77 81 79 77 81 79 76 80 78 79 83 81 97 101 99 78 82 80 84 88 86 88 92 90 80 84 82 86 90 88 22 26 27
22 26 27 22 26 27 22 26 27 22 26 27 22 26 27 22 26 27 22 26 27 22 26 27 22 26 27 22 26 27 22 26 27 22 26 27 22 26 27 22 26 27 22 26 27 22 26 27
22 26 27 22 26 27 22 26 27 22 26 27 22 26 27 22 26 27 22 26 27 22 26 27 22 26 27 22 26 27 22 26 27 22 26 27 22 26 27 22 26 27 22 26 27 22 26 27
22 26 27 22 26 27 22 26 27 22 26 27 22 26 27 22 26 27 22 26 27 22 26 27 22 26 27 22 26 27 22 26 27 22 26 27 22 26 27 22 26 27 22 26 27 22 26 27
22 26 27 22 26 27 22 26 27 78 82 82 83 87 87 78 82 82 22 26 27 93 97 97 87 91 91 81 85 85 79 83 83 22 26 27 93 97 97 69 73 73 87 91 91 83 87 87
67 79 121 27 69 111 22 61 101 31 75 119 110 74 109 35 81 126 30 74 117 77 78 118 37 83 129 28 70 113 27 69 111 23 64 105 25 67 108 33 78 122 31 74 118 22 62 103
26 68 110 35 80 125 61 80 123 32 77 121 71 79 120 33 77 122 29 72 115 36 82 127 22 63 103 21 60 100 21 61 101 36 82 128 30 73 116 26 67 109 28 70 113 55 81 124
96 76 113 24 65 106 22 62 102 94 76 114 24 64 105 22 62 101 22 62 102 23 64 105 25 66 108 35 81 126 32 75 119 37 83 129 26 68 110 34 79 124 21 61 100 30 74 117
27 70 112 93 76 114 26 68 109 34 79 124 24 66 107 88 77 115 30 73 116 29 72 115 31 74 118 26 67 109 35 81 126 23 63 104 32 77 121 24 65 106 33 78 122 26 68 110
24 66 107 31 75 119 33 77 122 29 72 114 31 74 118 36 82 127 104 75 111 22 62 102 27 69 112 36 81 127 24 64 105 32 76 120 23 64 104 36 82 127 78 78 118 24 65 106
76 78 118 24 64 105 23 64 105 26 68 110 29 72 116 25 66 107 36 82 128 27 69 111 33 78 122 48 82 126 22 62 102 87 77 116 25 66 107 31 75 119 34 78 123 24 65 106
24 65 106 28 71 113 25 66 107 34 78 123 29 72 116 25 67 108 25 67 108 29 71 114 84 77 116 81 78 117 24 65 105 33 77 122 26 68 110 91 95 93 91 95 93 92 96 94
85 89 87 83 87 85 91 95 93 96 100 98 82 86 84 77 81 79 87 91 89 75 79 77 90 94 92 79 83 81 78 82 80 84 88 86 79 83 81 92 96 94 89 93 91 78 82 80
80 84 82 80 84 82 96 100 98 88 92 90 78 82 80 88 92 90 94 98 96 98 102 100 79 83 81 84 88 86 83 87 85 97 101 99 92 96 94 93 97 95 74 78 76 81 85 83
80 84 82 85 89 87 91 95 93 89 93 91 87 91 89 86 90 88 79 83 81 74 78 76 80 84 82 89 93 91 85 89 87 86 90 88 92 96 94 76 80 78 77 81 79 86 90 88
88 92 90 80 84 82 90 94 92 76 80 78 79 83 81 97 101 99 96 100 98 77 81 79 77 81 79 81 85 83 77 81 79 93 97 95 90 94 92 98 102 100 77 81 79 90 94 92
81 85 83 84 88 86 94 98 96 97 101 99 87 91 89 86 90 88 76 80 78 87 91 89 90 94 92 89 93 91 89 93 91 77 81 79 79 83 81 84 88 86 93 97 95 22 26 27
22 26 27 22 26 27 22 26 27 22 26 27 22 26 27 22 26 27 22 26 27 22 26 27 22 26 27 22 26 27 22 26 27 22 26 27 22 26 27 22 26 27 22 26 27 22 26 27
22 26 27 22 26 27 22 26 27 22 26 27 22 26 27 22 26 27 22 26 27 22 26 27 22 26 27 22 26 27 22 26 27 22 26 27 22 26 27 22 26 27 22 26 27 22 26 27
22 26 27 22 26 27 22 26 27 22 26 27 22 26 27 22 26 27 22 26 27 22 26 27 22 26 27 22 26 27 22 26 27 22 26 27 22 26 27 22 26 27 22 26 27 22 26 27
22 26 27 22 26 27 22 26 27 78 82 82 92 96 96 81 85 85 22 26 27 76 80 80 74 78 78 92 96 96 72 76 76 22 26 27 75 79 79 91 95 95 92 96 96 75 79 79
31 74 117 31 74 117 25 66 106 39 86 132 32 76 119 37 82 127 30 73 115 37 82 127 27 68 110 24 65 105 36 81 126 37 83 128 33 77 121 24 64 105 31 74 117 39 85 131
86 81 120 39 86 132 33 77 121 36 81 126 37 82 127 32 76 119 115 77 112 34 78 122 34 78 122 27 68 109 27 68 110 33 77 121 38 84 129 39 85 131 30 73 115 31 73 116
32 75 119 36 80 125 37 82 128 35 80 124 35 79 124 27 68 109 30 73 116 25 65 106 36 81 127 30 73 115 31 74 118 33 76 120 32 76 119 24 64 104 39 85 131 26 67 108
41 86 133 24 64 104 26 66 107 29 71 113 28 70 112 38 83 129 35 80 124 32 76 119 27 68 109 25 66 106 26 67 108 29 71 113 39 86 132 36 81 125 26 67 108 33 77 121
37 82 127 104 78 115 34 78 123 25 66 106 36 81 126 71 82 124 24 64 104 26 67 108 35 80 124 25 66 106 77 82 123 39 86 132 26 67 108 33 76 120 35 80 124 85 81 120
85 81 120 28 69 111 26 67 107 30 72 115 34 78 123 25 66 106 80 81 122 36 81 126 25 66 107 34 78 122 40 86 133 30 72 115 28 70 111 36 81 126 34 78 122 34 78 122
65 83 126 39 85 131 36 81 126 37 82 127 33 77 120 32 75 118 115 77 112 34 78 121 35 80 125 26 67 107 40 86 133 36 80 125 38 84 130 84 88 86 80 84 82 88 92 90
97 101 99 91 95 93 78 82 80 82 86 84 84 88 86 92 96 94 80 84 82 85 89 87 98 102 100 92 96 94 94 98 96 75 79 77 78 82 80 96 100 98 95 99 97 81 85 83
81 85 83 97 101 99 79 83 81 89 93 91 97 101 99 77 81 79 88 92 90 82 86 84 82 86 84 75 79 77 88 92 90 85 89 87 91 95 93 90 94 92 85 89 87 83 87 85
93 97 95 93 97 95 81 85 83 78 82 80 90 94 92 89 93 91 77 81 79 97 101 99 91 95 93 77 81 79 77 81 79 90 94 92 92 96 94 88 92 90 96 100 98 98 102 100
75 79 77 95 99 97 95 99 97 84 88 86 89 93 91 84 88 86 95 99 97 83 87 85 85 89 87 78 82 80 85 89 87 80 84 82 92 96 94 89 93 91 86 90 88 74 78 76
92 96 94 94 98 96 96 100 98 77 81 79 80 84 82 84 88 86 85 89 87 82 86 84 79 83 81 93 97 95 81 85 83 79 83 81 87 91 89 86 90 88 91 95 93 22 26 27
22 26 27 22 26 27 22 26 27 22 26 27 22 26 27 22 26 27 22 26 27 22 26 27 22 26 27 22 26 27 22 26 27 22 26 27 22 26 27 22 26 27 22 26 27 22 26 27
22 26 27 22 26 27 22 26 27 22 26 27 22 26 27 22 26 27 22 26 27 22 26 27 22 26 27 22 26 27 22 26 27 22 26 27 22 26 27 22 26 27 22 26 27 22 26 27
22 26 27 22 26 27 22 26 27 22 26 27 22 26 27 22 26 27 22 26 27 22 26 27 22 26 27 22 26 27 22 26 27 22 26 27 22 26 27 22 26 27 22 26 27 22 26 27
22 26 27 22 26 27 22 26 27 87 91 91 89 93 93 83 87 87 22 26 27 72 76 76 76 80 80 81 85 85 80 84 84 22 26 27 71 75 75 88 92 92 81 85 85 85 89 89
31 74 116 38 83 128 33 77 120 27 68 109 114 79 115 55 87 131 37 82 127 34 78 122 41 87 134 47 88 134 29 70 112 28 68 109 35 78 122 40 85 131 99 81 119 27 68 109
26 66 106 37 82 127 38 84 129 39 84 130 27 67 108 38 84 129 39 85 130 119 79 114 108 80 117 33 76 119 27 68 108 31 73 116 63 86 129 30 71 113 71 85 127 30 72 114
41 87 133 36 80 124 27 67 108 28 69 111 36 80 124 32 74 117 27 68 108 39 85 130 40 86 132 28 68 109 32 75 117 69 85 128 94 82 121 41 87 133 98 81 120 38 83 128
103 81 118 28 69 111 29 70 111 30 71 113 36 81 125 37 82 126 32 75 117 26 67 107 27 68 109 34 78 122 38 83 128 41 87 133 38 83 128 40 86 132 26 66 107 40 86 132
39 84 129 27 68 109 26 67 107 107 80 117 38 84 129 38 83 128 79 84 125 42 88 135 82 83 124 38 83 128 34 78 121 26 66 106 30 72 113 35 79 123 42 88 135 41 87 133
35 79 123 29 70 112 39 84 129 30 72 115 34 78 122 27 68 108 78 84 125 30 72 114 39 84 129 26 66 106 39 84 130 108 80 117 26 66 106 32 75 117 40 87 133 91 82 122
99 81 119 26 67 107 27 68 109 39 85 130 40 86 131 73 84 126 38 82 127 27 67 108 33 77 120 33 76 120 31 73 115 34 77 121 37 82 127 87 91 89 96 100 98 78 82 80
74 78 76 90 94 92 77 81 79 85 89 87 75 79 77 96 100 98 89 93 91 95 99 97 86 90 88 84 88 86 79 83 81 78 82 80 86 90 88 86 90 88 75 79 77 75 79 77
95 99 97 81 85 83 75 79 77 83 87 85 86 90 88 90 94 92 83 87 85 75 79 77 84 88 86 89 93 91 97 101 99 94 98 96 81 85 83 78 82 80 77 81 79 83 87 85
83 87 85 89 93 91 74 78 76 86 90 88 91 95 93 80 84 82 86 90 88 80 84 82 78 82 80 88 92 90 93 97 95 82 86 84 75 79 77 88 92 90 75 79 77 88 92 90
88 92 90 84 88 86 76 80 78 77 81 79 86 90 88 85 89 87 97 101 99 84 88 86 79 83 81 79 83 81 82 86 84 87 91 89 78 82 80 95 99 97 90 94 92 78 82 80
86 90 88 79 83 81 92 96 94 74 78 76 90 94 92 97 101 99 93 97 95 83 87 85 86 90 88 77 81 79 81 85 83 77 81 79 80 84 82 89 93 91 97 101 99 22 26 27
22 26 27 22 26 27 22 26 27 22 26 27 22 26 27 22 26 27 22 26 27 22 26 27 22 26 27 22 26 27 22 26 27 22 26 27 22 26 27 22 26 27 22 26 27 22 26 27
22 26 27 22 26 27 22 26 27 22 26 27 22 26 27 22 26 27 22 26 27 22 26 27 22 26 27 22 26 27 22 26 27 22 26 27 22 26 27 22 26 27 22 26 27 22 26 27
22 26 27 22 26 27 22 26 27 22 26 27 22 26 27 22 26 27 22 26 27 22 26 27 22 26 27 22 26 27 22 26 27 22 26 27 22 26 27 22 26 27 22 26 27 22 26 27
22 26 27 22 26 27 22 26 27 90 94 94 86 90 90 89 93 93 22 26 27 88 92 92 69 73 73 80 84 84 92 96 96 22 26 27 83 87 87 90 94 94 90 94 94 82 86 86
34 77 120 38 82 127 28 68 109 67 87 131 40 86 131 43 90 137 40 85 130 40 85 130 31 72 114 30 71 112 92 84 124 40 86 131 28 69 109 34 77 119 39 85 130 31 73 115
34 77 120 43 90 137 32 74 116 114 81 118 28 68 109 30 71 112 37 81 126 99 83 122 53 89 135 32 74 116 39 84 128 74 87 129 29 70 111 40 85 130 28 69 109 79 86 127
34 77 120 36 80 124 28 69 109 41 86 132 43 90 137 108 82 120 31 73 115 38 82 127 34 76 119 31 73 115 32 73 115 34 77 120 27 68 108 44 90 137 28 68 109 32 74 116
50 90 136 86 85 126 39 84 129 42 89 135 30 71 112 33 76 118 35 79 122 33 76 118 32 74 116 36 80 124 29 70 110 29 71 112 120 81 116 39 85 130 37 81 126 119 81 117
78 86 128 33 75 118 40 86 131 41 87 132 32 75 117 72 87 130 119 81 117 40 86 131 40 86 131 36 80 123 33 76 119 33 75 118 34 77 121 37 81 125 30 71 112 30 71 112
28 69 110 31 72 114 29 69 110 39 84 129 35 79 122 86 85 126 43 90 136 35 78 121 29 70 111 43 90 137 37 81 125 36 80 124 32 74 117 36 80 123 38 82 126 88 85 125
43 90 137 90 84 125 29 70 111 41 86 132 40 85 130 41 87 133 41 87 132 29 70 110 37 81 126 30 71 112 37 81 126 28 69 110 31 73 115 96 100 98 94 98 96 82 86 84
78 82 80 87 91 89 91 95 93 85 89 87 89 93 91 96 100 98 94 98 96 74 78 76 94 98 96 85 89 87 86 90 88 85 89 87 95 99 97 91 95 93 95 99 97 86 90 88
97 101 99 91 95 93 82 86 84 93 97 95 93 97 95 88 92 90 94 98 96 91 95 93 81 85 83 96 100 98 82 86 84 88 92 90 75 79 77 77 81 79 98 102 100 96 100 98
76 80 78 94 98 96 92 96 94 86 90 88 80 84 82 75 79 77 88 92 90 98 102 100 75 79 77 79 83 81 87 91 89 82 86 84 90 94 92 92 96 94 90 94 92 81 85 83
88 92 90 75 79 77 94 98 96 76 80 78 89 93 91 89 93 91 92 96 94 76 80 78 94 98 96 90 94 92 89 93 91 89 93 91 89 93 91 96 100 98 75 79 77 96 100 98
89 93 91 89 93 91 82 86 84 97 101 99 84 88 86 90 94 92 75 79 77 77 81 79 84 88 86 87 91 89 86 90 88 96 100 98 86 90 88 81 85 83 82 86 84 22 26 27
22 26 27 22 26 27 22 26 27 22 26 27 22 26 27 22 26 27 22 26 27 22 26 27 22 26 27 22 26 27 22 26 27 22 26 27 22 26 27 22 26 27 22 26 27 22 26 27
22 26 27 22 26 27 22 26 27 22 26 27 22 26 27 22 26 27 22 26 27 22 26 27 22 26 27 22 26 27 22 26 27 22 26 27 22 26 27 22 26 27 22 26 27 22 26 27
22 26 27 22 26 27 22 26 27 22 26 27 22 26 27 22 26 27 22 26 27 22 26 27 22 26 27 22 26 27 22 26 27 22 26 27 22 26 27 22 26 27 22 26 27 22 26 27
22 26 27 22 26 27 22 26 27 90 94 94 72 76 76 90 94 94 22 26 27 82 86 86 87 91 91 93 97 97 87 91 91 22 26 27 84 88 88 86 90 90 85 89 89 76 80 80
40 84 128 44 90 136 46 92 139 41 85 130 37 79 123 121 84 121 37 80 123 34 76 118 45 91 137 39 83 127 46 93 140 39 82 126 70 91 134 43 88 134 36 79 122 125 84 119
89 88 129 31 71 112 38 81 125 37 80 124 43 89 135 60 92 137 45 91 137 100 87 126 36 79 122 41 86 131 36 79 122 38 82 125 31 71 112 38 81 125 72 90 134 121 84 121
111 85 123 34 76 118 43 88 134 42 87 133 102 86 126 33 75 117 39 83 128 74 90 133 60 92 137 41 86 132 37 80 123 40 85 130 40 84 128 33 75 117 67 91 135 43 89 135
42 87 133 33 75 117 44 90 136 64 91 136 33 74 116 37 80 124 33 74 116 40 84 128 34 76 118 36 79 122 45 91 138 38 81 125 42 87 133 86 89 130 44 90 137 41 86 131
43 88 134 116 85 122 45 92 138 45 91 138 38 81 125 42 86 132 43 89 135 37 80 124 38 82 126 116 85 122 34 75 117 43 89 135 34 76 118 38 81 125 96 87 127 43 89 135
43 89 135 43 89 135 38 81 125 42 87 132 103 86 125 31 71 112 34 77 119 116 85 122 44 90 137 68 91 135 46 93 140 40 84 129 38 82 126 43 88 134 34 76 119 89 88 129
38 81 125 115 85 122 43 88 134 31 72 113 31 72 113 45 91 138 42 87 132 110 86 124 42 87 133 32 73 114 32 73 115 42 87 133 33 75 117 83 87 85 87 91 89 77 81 79
91 95 93 74 78 76 74 78 76 90 94 92 76 80 78 91 95 93 75 79 77 86 90 88 90 94 92 86 90 88 78 82 80 80 84 82 95 99 97 95 99 97 95 99 97 94 98 96
75 79 77 90 94 92 79 83 81 93 97 95 83 87 85 89 93 91 82 86 84 97 101 99 87 91 89 76 80 78 79 83 81 80 84 82 82 86 84 95 99 97 90 94 92 77 81 79
93 97 95 80 84 82 85 89 87 93 97 95 95 99 97 84 88 86 77 81 79 93 97 95 87 91 89 92 96 94 79 83 81 81 85 83 75 79 77 92 96 94 83 87 85 96 100 98
96 100 98 91 95 93 83 87 85 93 97 95 80 84 82 82 86 84 92 96 94 89 93 91 77 81 79 80 84 82 87 91 89 95 99 97 75 79 77 81 85 83 90 94 92 85 89 87
76 80 78 96 100 98 91 95 93 86 90 88 86 90 88 78 82 80 93 97 95 80 84 82 92 96 94 81 85 83 82 86 84 94 98 96 76 80 78 94 98 96 86 90 88 22 26 27
22 26 27 22 26 27 22 26 27 22 26 27 22 26 27 22 26 27 22 26 27 22 26 27 22 26 27 22 26 27 22 26 27 22 26 27 22 26 27 22 26 27 22 26 27 22 26 27
22 26 27 22 26 27 22 26 27 22 26 27 22 26 27 22 26 27 22 26 27 22 26 27 22 26 27 22 26 27 22 26 27 22 26 27 22 26 27 22 26 27 22 26 27 22 26 27
22 26 27 22 26 27 22 26 27 22 26 27 22 26 27 22 26 27 22 26 27 22 26 27 22 26 27 22 26 27 22 26 27 22 26 27 22 26 27 22 26 27 22 26 27 22 26 27
22 26 27 22 26 27 22 26 27 83 87 87 84 88 88 70 74 74 22 26 27 73 77 77 91 95 95 79 83 83 86 90 90 22 26 27 73 77 77 90 94 94 86 90 90 83 87 87
47 92 139 75 95 140 109 91 131 37 79 121 51 98 146 57 98 145 39 82 125 37 79 121 36 77 118 94 93 135 48 94 141 39 81 124 50 97 145 47 93 139 48 94 140 42 86 130
51 98 146 51 98 146 49 96 143 42 86 130 40 83 126 43 86 131 36 77 119 46 91 137 68 96 142 40 82 126 39 82 125 48 94 141 43 86 131 41 84 128 38 80 123 37 78 120
37 79 122 38 80 123 46 91 137 93 93 135 102 92 132 44 89 134 41 85 129 37 78 121 51 98 146 36 77 119 38 80 122 45 90 135 36 77 118 98 92 134 37 79 121 78 95 139
35 76 117 62 97 143 44 88 133 46 92 138 119 90 128 44 88 133 41 85 129 49 96 143 38 79 122 100 92 133 45 90 135 39 82 125 43 87 132 35 76 117 42 86 131 41 85 129
51 98 145 48 93 140 47 92 138 50 97 145 46 91 137 37 78 120 41 85 129 41 84 128 49 95 143 41 84 128 38 79 122 41 84 128 50 97 145 38 81 123 43 87 132 49 95 142
35 76 118 38 81 124 40 84 127 37 79 122 42 86 130 118 90 128 80 95 138 125 89 126 35 76 117 39 82 125 49 95 142 38 80 123 42 85 130 51 98 146 63 97 143 49 96 143
42 86 130 42 86 131 44 88 133 45 90 136 36 77 118 48 95 141 42 85 130 48 94 141 36 78 119 127 89 126 45 89 135 44 88 133 44 89 134 91 95 93 82 86 84 87 91 89
97 101 99 87 91 89 91 95 93 81 85 83 93 97 95 96 100 98 92 96 94 83 87 85 79 83 81 92 96 94 75 79 77 95 99 97 96 100 98 82 86 84 76 80 78 80 84 82
91 95 93 91 95 93 74 78 76 89 93 91 82 86 84 97 101 99 81 85 83 77 81 79 94 98 96 90 94 92 93 97 95 96 100 98 88 92 90 85 89 87 95 99 97 82 86 84
98 102 100 76 80 78 93 97 95 96 100 98 92 96 94 80 84 82 97 101 99 96 100 98 83 87 85 76 80 78 86 90 88 78 82 80 78 82 80 83 87 85 75 79 77 83 87 85
82 86 84 98 102 100 91 95 93 89 93 91 96 100 98 98 102 100 89 93 91 77 81 79 87 91 89 75 79 77 81 85 83 83 87 85 98 102 100 85 89 87 79 83 81 78 82 80
87 91 89 89 93 91 88 92 90 93 97 95 81 85 83 93 97 95 80 84 82 84 88 86 92 96 94 89 93 91 82 86 84 84 88 86 89 93 91 88 92 90 94 98 96 22 26 27
22 26 27 22 26 27 22 26 27 22 26 27 22 26 27 22 26 27 22 26 27 22 26 27 22 26 27 22 26 27 22 26 27 22 26 27 22 26 27 22 26 27 22 26 27 22 26 27
22 26 27 22 26 27 22 26 27 22 26 27 22 26 27 22 26 27 22 26 27 22 26 27 22 26 27 22 26 27 22 26 27 22 26 27 22 26 27 22 26 27 22 26 27 22 26 27
22 26 27 22 26 27 22 26 27 22 26 27 22 26 27 22 26 27 22 26 27 22 26 27 22 26 27 22 26 27 22 26 27 22 26 27 22 26 27 22 26 27 22 26 27 22 26 27
22 26 27 22 26 27 22 26 27 84 88 88 89 93 93 78 82 82 22 26 27 93 97 97 78 82 82 76 80 80 78 82 82 22 26 27 76 80 80 85 89 89 90 94 94 76 80 80
46 89 133 46 90 134 43 85 128 47 91 135 47 91 136 43 85 128 44 87 131 112 98 138 111 98 139 56 103 152 54 100 148 55 102 150 45 88 132 49 94 139 45 87 131 114 97 138
53 98 145 50 94 140 45 88 132 67 103 151 48 92 137 56 104 152 46 89 133 47 91 136 46 89 133 83 101 146 42 84 127 45 88 132 42 83 126 47 91 136 68 103 150 45 89 133
43 85 128 50 95 141 53 99 146 49 93 138 51 96 143 48 93 138 55 101 149 46 89 133 48 93 138 47 90 135 61 104 152 53 99 146 50 96 142 47 91 136 54 101 148 51 96 143
53 99 147 46 89 134 132 95 133 49 93 138 43 84 128 41 82 124 50 95 141 45 87 131 47 91 136 50 95 141 55 102 150 52 98 145 51 96 142 108 98 139 52 97 144 50 94 140
72 103 149 45 88 133 47 90 135 55 101 149 42 84 127 56 104 152 49 93 139 55 102 150 130 95 133 44 87 130 95 100 143 41 83 125 47 90 135 44 87 130 69 103 150 41 83 125
43 85 129 52 98 145 106 98 140 57 104 153 43 86 129 55 102 150 119 97 136 41 82 125 124 96 135 41 82 124 45 88 132 44 86 130 56 103 151 49 94 140 48 92 138 132 95 133
53 99 146 44 86 130 54 100 148 62 104 152 42 84 127 44 87 131 45 88 132 55 102 150 93 100 143 48 92 137 53 99 147 47 91 136 51 97 143 89 93 91 77 81 79 82 86 84
79 83 81 94 98 96 82 86 84 92 96 94 98 102 100 78 82 80 87 91 89 96 100 98 81 85 83 78 82 80 93 97 95 93 97 95 76 80 78 91 95 93 92 96 94 90 94 92
95 99 97 89 93 91 88 92 90 87 91 89 96 100 98 90 94 92 79 83 81 87 91 89 77 81 79 86 90 88 77 81 79 89 93 91 95 99 97 80 84 82 93 97 95 85 89 87
89 93 91 80 84 82 75 79 77 86 90 88 86 90 88 82 86 84 97 101 99 90 94 92 85 89 87 96 100 98 92 96 94 80 84 82 77 81 79 90 94 92 82 86 84 76 80 78
75 79 77 92 96 94 88 92 90 79 83 81 82 86 84 86 90 88 89 93 91 78 82 80 96 100 98 76 80 78 83 87 85 96 100 98 79 83 81 96 100 98 77 81 79 82 86 84
94 98 96 90 94 92 93 97 95 93 97 95 92 96 94 78 82 80 94 98 96 88 92 90 77 81 79 98 102 100 78 82 80 83 87 85 90 94 92 82 86 84 83 87 85 22 26 27
22 26 27 22 26 27 22 26 27 22 26 27 22 26 27 22 26 27 22 26 27 22 26 27 22 26 27 22 26 27 22 26 27 22 26 27 22 26 27 22 26 27 22 26 27 22 26 27
22 26 27 22 26 27 22 26 27 22 26 27 22 26 27 22 26 27 22 26 27 22 26 27 22 26 27 22 26 27 22 26 27 22 26 27 22 26 27 22 26 27 22 26 27 22 26 27
22 26 27 22 26 27 22 26 27 22 26 27 22 26 27 22 26 27 22 26 27 22 26 27 22 26 27 22 26 27 22 26 27 22 26 27 22 26 27 22 26 27 22 26 27 22 26 27
22 26 27 22 26 27 22 26 27 86 90 90 90 94 94 70 74 74 22 26 27 86 90 90 71 75 75 71 75 75 82 86 86 22 26 27 89 93 93 81 85 85 86 90 90 69 73 73
52 96 141 59 105 153 114 104 146 63 111 160 59 105 153 60 107 156 48 90 134 60 107 156 60 107 156 61 109 158 57 103 150 57 103 151 49 92 136 68 110 159 88 108 154 77 109 156
106 105 149 52 95 141 53 98 143 57 103 151 58 104 152 110 105 148 61 109 158 123 103 144 86 108 154 124 103 144 48 90 134 55 100 146 59 105 153 60 107 156 53 97 143 62 110 159
60 108 156 56 102 149 57 103 150 50 93 138 61 109 158 56 101 148 48 90 134 61 108 157 56 102 149 54 99 145 73 110 158 55 100 147 55 99 146 54 98 144 136 102 141 49 91 135
60 107 155 56 101 148 55 100 147 52 96 141 52 96 141 128 103 143 57 103 150 58 104 151 54 99 145 52 95 140 109 105 148 53 98 144 59 106 155 53 97 143 47 89 132 48 89 133
55 101 147 51 95 140 61 108 157 51 94 138 57 103 151 59 105 153 48 90 134 50 94 138 129 103 142 114 104 146 130 102 142 59 105 153 55 100 147 62 109 159 71 110 158 49 92 136
116 104 146 62 110 159 52 96 141 62 110 159 48 90 133 58 104 152 72 110 158 47 89 133 48 91 135 60 107 156 63 111 160 88 108 154 58 104 151 50 94 138 53 98 143 65 111 160
82 108 155 61 108 157 54 98 144 56 101 148 56 101 147 49 92 136 73 110 158 62 110 159 62 110 159 61 109 158 71 110 158 61 109 158 53 97 143 81 85 83 79 83 81 97 101 99
79 83 81 79 83 81 87 91 89 97 101 99 89 93 91 75 79 77 87 91 89 94 98 96 96 100 98 87 91 89 90 94 92 87 91 89 92 96 94 88 92 90 83 87 85 88 92 90
80 84 82 95 99 97 87 91 89 90 94 92 88 92 90 91 95 93 81 85 83 94 98 96 90 94 92 77 81 79 78 82 80 92 96 94 92 96 94 83 87 85 90 94 92 96 100 98
75 79 77 91 95 93 83 87 85 76 80 78 93 97 95 74 78 76 89 93 91 97 101 99 96 100 98 76 80 78 82 86 84 76 80 78 96 100 98 96 100 98 85 89 87 84 88 86
93 97 95 96 100 98 93 97 95 87 91 89 97 101 99 89 93 91 87 91 89 83 87 85 89 93 91 96 100 98 95 99 97 98 102 100 97 101 99 93 97 95 78 82 80 92 96 94
88 92 90 92 96 94 90 94 92 92 96 94 88 92 90 95 99 97 81 85 83 77 81 79 94 98 96 87 91 89 81 85 83 83 87 85 84 88 86 95 99 97 93 97 95 22 26 27
22 26 27 22 26 27 22 26 27 22 26 27 22 26 27 22 26 27 22 26 27 22 26 27 22 26 27 22 26 27 22 26 27 22 26 27 22 26 27 22 26 27 22 26 27 22 26 27
22 26 27 22 26 27 22 26 27 22 26 27 22 26 27 22 26 27 22 26 27 22 26 27 22 26 27 22 26 27 22 26 27 22 26 27 22 26 27 22 26 27 22 26 27 22 26 27
22 26 27 22 26 27 22 26 27 22 26 27 22 26 27 22 26 27 22 26 27 22 26 27 22 26 27 22 26 27 22 26 27 22 26 27 22 26 27 22 26 27 22 26 27 22 26 27
22 26 27 22 26 27 22 26 27 89 93 93 89 93 93 87 91 91 22 26 27 74 78 78 92 96 96 82 86 86 71 75 75 22 26 27 82 86 86 92 96 96 74 78 78 82 86 86
52 95 139 60 105 153 57 101 147 54 96 141 61 107 155 60 106 153 66 115 164 55 98 144 54 97 142 63 110 158 74 115 164 54 96 141 52 94 138 64 111 161 86 113 161 58 103 149
53 95 139 64 111 160 61 107 155 63 110 158 56 99 145 57 101 147 100 112 157 61 107 155 59 104 150 59 105 152 52 94 138 64 111 160 67 116 166 57 101 147 62 108 156 52 95 139
56 99 145 53 96 141 83 114 162 64 111 160 59 104 151 60 106 153 103 111 156 61 106 154 59 104 150 61 107 154 62 108 156 57 101 147 51 93 137 65 112 161 64 111 160 93 113 159
61 106 154 52 95 139 61 106 154 65 112 162 59 104 150 59 104 150 88 113 160 63 109 158 56 99 145 53 96 140 66 114 164 110 110 154 52 94 138 61 106 154 58 103 149 57 101 147
71 115 165 53 96 140 63 110 159 118 109 152 116 110 153 63 110 159 54 97 142 140 107 146 59 104 151 54 97 141 56 99 145 57 101 147 64 111 159 63 109 158 56 100 146 63 110 159
62 108 156 65 113 163 53 95 139 62 108 156 54 98 143 67 115 165 61 106 154 126 108 150 62 109 157 53 96 140 55 99 145 59 104 151 53 96 141 64 111 159 58 102 149 52 94 138
57 101 146 54 97 142 66 114 163 52 94 138 68 116 166 62 108 156 60 105 152 58 103 149 65 112 162 62 108 156 133 108 148 62 109 157 54 97 142 83 87 85 77 81 79 84 88 86
98 102 100 88 92 90 97 101 99 81 85 83 90 94 92 91 95 93 88 92 90 94 98 96 80 84 82 98 102 100 92 96 94 96 100 98 79 83 81 96 100 98 97 101 99 87 91 89
93 97 95 97 101 99 85 89 87 96 100 98 93 97 95 80 84 82 97 101 99 90 94 92 76 80 78 90 94 92 88 92 90 88 92 90 97 101 99 93 97 95 93 97 95 80 84 82
95 99 97 97 101 99 83 87 85 74 78 76 92 96 94 96 100 98 84 88 86 93 97 95 83 87 85 77 81 79 94 98 96 97 101 99 82 86 84 78 82 80 77 81 79 82 86 84
87 91 89 97 101 99 83 87 85 86 90 88 85 89 87 88 92 90 93 97 95 94 98 96 86 90 88 83 87 85 92 96 94 80 84 82 89 93 91 95 99 97 93 97 95 93 97 95
97 101 99 79 83 81 95 99 97 85 89 87 90 94 92 85 89 87 89 93 91 86 90 88 86 90 88 86 90 88 81 85 83 87 91 89 95 99 97 87 91 89 79 83 81 22 26 27
22 26 27 22 26 27 22 26 27 22 26 27 22 26 27 22 26 27 22 26 27 22 26 27 22 26 27 22 26 27 22 26 27 22 26 27 22 26 27 22 26 27 22 26 27 22 26 27
22 26 27 22 26 27 22 26 27 22 26 27 22 26 27 22 26 27 22 26 27 22 26 27 22 26 27 22 26 27 22 26 27 22 26 27 22 26 27 22 26 27 22 26 27 22 26 27
22 26 27 22 26 27 22 26 27 22 26 27 22 26 27 22 26 27 22 26 27 22 26 27 22 26 27 22 26 27 22 26 27 22 26 27 22 26 27 22 26 27 22 26 27 22 26 27
22 26 27 22 26 27 22 26 27 78 82 82 87 91 91 76 80 80 22 26 27 88 92 92 82 86 86 77 81 81 80 84 84 22 26 27 86 90 90 92 96 96 78 82 82 72 76 76
67 114 164 61 106 153 68 116 166 55 98 143 78 117 166 60 105 152 57 100 145 59 103 149 59 104 150 66 113 162 67 114 164 57 101 146 55 98 143 56 100 145 65 112 160 58 102 148
55 98 143 58 103 149 69 117 167 60 104 151 59 103 149 57 100 146 55 97 142 63 108 156 57 101 147 61 107 154 94 115 162 68 116 165 54 96 141 63 109 157 54 97 141 60 105 151
65 111 160 127 111 153 69 117 168 59 104 150 56 99 144 56 99 144 66 113 162 59 103 150 58 102 148 63 109 158 64 110 158 53 95 139 62 108 156 58 102 148 57 101 146 135 110 151
77 117 167 55 98 142 114 112 156 68 116 165 67 114 164 57 101 146 65 112 161 66 113 162 121 111 154 58 102 149 57 101 147 55 98 142 61 107 154 66 114 163 104 114 159 95 115 161
61 106 153 54 97 142 60 105 152 143 109 148 93 115 162 100 114 160 62 107 155 60 105 152 54 97 141 53 96 140 59 103 150 60 105 152 76 117 167 71 118 168 56 99 145 61 107 154
63 108 156 98 114 161 81 116 165 59 103 149 146 108 147 67 115 164 80 117 166 60 105 152 56 99 144 60 105 152 60 105 152 64 110 158 108 113 158 63 108 156 53 95 140 61 106 153
60 104 151 68 115 165 62 107 155 55 98 143 57 100 146 140 109 149 69 118 168 55 98 143 59 104 150 67 114 164 62 108 156 60 104 151 58 103 149 81 85 83 92 96 94 79 83 81
84 88 86 95 99 97 75 79 77 91 95 93 94 98 96 93 97 95 79 83 81 89 93 91 82 86 84 84 88 86 83 87 85 95 99 97 94 98 96 85 89 87 90 94 92 97 101 99
89 93 91 97 101 99 92 96 94 93 97 95 79 83 81 95 99 97 86 90 88 85 89 87 88 92 90 86 90 88 88 92 90 76 80 78 88 92 90 83 87 85 82 86 84 95 99 97
84 88 86 82 86 84 78 82 80 77 81 79 75 79 77 75 79 77 74 78 76 81 85 83 78 82 80 93 97 95 74 78 76 81 85 83 81 85 83 98 102 100 91 95 93 77 81 79
88 92 90 79 83 81 97 101 99 84 88 86 77 81 79 91 95 93 89 93 91 77 81 79 91 95 93 92 96 94 87 91 89 90 94 92 94 98 96 76 80 78 91 95 93 88 92 90
88 92 90 93 97 95 97 101 99 87 91 89 88 92 90 81 85 83 92 96 94 95 99 97 82 86 84 75 79 77 81 85 83 97 101 99 91 95 93 82 86 84 84 88 86 22 26 27
22 26 27 22 26 27 22 26 27 22 26 27 22 26 27 22 26 27 22 26 27 22 26 27 22 26 27 22 26 27 22 26 27 22 26 27 22 26 27 22 26 27 22 26 27 22 26 27
22 26 27 22 26 27 22 26 27 22 26 27 22 26 27 22 26 27 22 26 27 22 26 27 22 26 27 22 26 27 22 26 27 22 26 27 22 26 27 22 26 27 22 26 27 22 26 27
22 26 27 22 26 27 22 26 27 22 26 27 22 26 27 22 26 27 22 26 27 22 26 27 22 26 27 22 26 27 22 26 27 22 26 27 22 26 27 22 26 27 22 26 27 22 26 27
22 26 27 22 26 27 22 26 27 69 73 73 92 96 96 93 97 97 22 26 27 88 92 92 80 84 84 92 96 96 76 80 80 22 26 27 74 78 78 72 76 76 86 90 90 79 83 83
131 109 150 59 103 150 54 97 142 72 116 166 130 109 150 56 100 145 108 111 156 67 115 164 54 96 141 76 116 165 55 98 143 106 112 157 66 114 164 66 114 163 84 115 163 65 112 161
109 111 156 85 114 162 68 117 167 64 111 159 62 109 157 64 112 160 59 104 150 61 107 154 67 115 165 68 116 166 77 115 164 141 107 147 64 110 159 67 115 164 58 102 148 102 112 158
64 111 160 54 97 142 67 115 165 62 108 156 57 102 148 103 112 157 67 115 165 144 107 146 57 101 146 59 104 151 87 114 162 95 113 159 141 107 147 139 107 147 70 116 166 54 97 141
71 116 166 54 96 141 145 107 146 64 111 160 64 111 159 63 109 157 83 115 163 64 111 160 59 103 150 58 103 149 67 115 165 61 106 154 62 108 156 81 115 163 62 108 156 65 113 162
57 101 147 55 99 144 63 109 157 68 116 166 62 108 157 60 106 153 96 113 159 54 97 141 53 95 140 128 109 150 66 113 163 60 106 153 52 94 138 57 100 146 59 104 151 91 114 161
64 110 159 54 97 142 55 99 144 58 102 148 65 112 162 57 101 147 53 95 139 68 116 166 54 97 142 60 106 153 65 112 161 68 116 166 91 114 161 61 106 153 65 113 162 58 102 149
60 106 153 125 109 151 64 111 159 54 97 141 61 107 155 55 99 144 81 115 163 64 111 160 65 113 162 57 101 147 62 108 156 54 97 142 67 115 165 75 79 77 83 87 85 91 95 93
79 83 81 86 90 88 79 83 81 74 78 76 78 82 80 87 91 89 91 95 93 90 94 92 88 92 90 89 93 91 89 93 91 89 93 91 78 82 80 89 93 91 90 94 92 92 96 94
85 89 87 92 96 94 76 80 78 96 100 98 86 90 88 88 92 90 74 78 76 86 90 88 90 94 92 96 100 98 93 97 95 93 97 95 81 85 83 83 87 85 83 87 85 84 88 86
87 91 89 94 98 96 96 100 98 90 94 92 93 97 95 78 82 80 76 80 78 87 91 89 96 100 98 77 81 79 87 91 89 82 86 84 80 84 82 82 86 84 80 84 82 94 98 96
83 87 85 79 83 81 78 82 80 80 84 82 81 85 83 77 81 79 84 88 86 80 84 82 82 86 84 78 82 80 87 91 89 77 81 79 97 101 99 84 88 86 93 97 95 97 101 99
93 97 95 75 79 77 79 83 81 87 91 89 92 96 94 81 85 83 85 89 87 86 90 88 82 86 84 97 101 99 75 79 77 93 97 95 90 94 92 92 96 94 78 82 80 22 26 27
22 26 27 22 26 27 22 26 27 22 26 27 22 26 27 22 26 27 22 26 27 22 26 27 22 26 27 22 26 27 22 26 27 22 26 27 22 26 27 22 26 27 22 26 27 22 26 27
22 26 27 22 26 27 22 26 27 22 26 27 22 26 27 22 26 27 22 26 27 22 26 27 22 26 27 22 26 27 22 26 27 22 26 27 22 26 27 22 26 27 22 26 27 22 26 27
22 26 27 22 26 27 22 26 27 22 26 27 22 26 27 22 26 27 22 26 27 22 26 27 22 26 27 22 26 27 22 26 27 22 26 27 22 26 27 22 26 27 22 26 27 22 26 27
22 26 27 22 26 27 22 26 27 88 92 92 81 85 85 90 94 94 22 26 27 85 89 89 73 77 77 81 85 85 75 79 79 22 26 27 69 73 73 84 88 88 85 89 89 75 79 79
137 103 142 52 95 140 49 91 135 63 111 160 106 107 150 48 90 133 58 104 151 49 91 135 60 106 155 63 111 160 64 112 161 54 98 144 60 107 155 49 91 134 56 100 147 85 109 156
52 96 141 58 103 150 50 93 137 50 93 137 90 109 155 58 104 152 112 106 149 57 103 150 53 97 143 62 110 159 57 102 149 63 111 161 64 112 161 57 103 150 60 107 156 51 94 139
59 105 153 51 94 139 114 106 148 48 90 134 63 110 160 50 92 136 61 107 156 52 95 140 56 101 148 54 98 144 50 93 137 48 90 134 67 112 161 57 102 149 131 103 143 53 96 142
56 101 147 61 107 156 57 102 149 64 112 161 53 97 142 53 96 141 51 93 138 112 106 149 59 105 152 127 104 145 59 105 153 133 103 143 58 104 152 50 93 138 49 92 135 55 100 147
58 104 151 113 106 148 59 105 153 62 109 158 54 98 143 56 102 148 62 109 158 58 104 151 48 90 133 74 111 159 140 102 141 63 110 159 52 95 140 49 91 135 64 112 161 60 107 155
53 97 143 59 106 154 126 104 145 79 110 158 48 89 133 56 100 147 125 104 145 63 111 161 54 98 144 51 94 138 57 103 150 61 108 156 55 99 146 60 107 155 101 107 152 52 96 141
63 111 161 58 103 151 55 99 145 53 97 142 51 95 139 60 106 154 63 111 161 55 100 146 61 108 156 54 98 144 53 97 143 55 100 146 49 92 136 97 101 99 91 95 93 76 80 78
90 94 92 89 93 91 94 98 96 89 93 91 79 83 81 95 99 97 82 86 84 81 85 83 88 92 90 83 87 85 84 88 86 93 97 95 87 91 89 90 94 92 88 92 90 78 82 80
88 92 90 74 78 76 79 83 81 85 89 87 86 90 88 96 100 98 86 90 88 98 102 100 97 101 99 87 91 89 88 92 90 96 100 98 86 90 88 96 100 98 83 87 85 76 80 78
81 85 83 91 95 93 91 95 93 86 90 88 79 83 81 75 79 77 91 95 93 76 80 78 76 80 78 74 78 76 92 96 94 97 101 99 95 99 97 82 86 84 83 87 85 98 102 100
86 90 88 76 80 78 93 97 95 88 92 90 77 81 79 81 85 83 86 90 88 94 98 96 96 100 98 94 98 96 85 89 87 76 80 78 80 84 82 82 86 84 76 80 78 78 82 80
75 79 77 80 84 82 77 81 79 75 79 77 92 96 94 96 100 98 92 96 94 79 83 81 82 86 84 77 81 79 96 100 98 94 98 96 83 87 85 92 96 94 86 90 88 22 26 27
22 26 27 22 26 27 22 26 27 22 26 27 22 26 27 22 26 27 22 26 27 22 26 27 22 26 27 22 26 27 22 26 27 22 26 27 22 26 27 22 26 27 22 26 27 22 26 27
22 26 27 22 26 27 22 26 27 22 26 27 22 26 27 22 26 27 22 26 27 22 26 27 22 26 27 22 26 27 22 26 27 22 26 27 22 26 27 22 26 27 22 26 27 22 26 27
22 26 27 22 26 27 22 26 27 22 26 27 22 26 27 22 26 27 22 26 27 22 26 27 22 26 27 22 26 27 22 26 27 22 26 27 22 26 27 22 26 27 22 26 27 22 26 27
22 26 27 22 26 27 22 26 27 85 89 89 83 87 87 85 89 89 22 26 27 88 92 92 87 91 91 93 97 97 84 88 88 22 26 27 71 75 75 69 73 73 83 87 87 71 75 75
57 104 152 42 83 125 81 103 148 56 103 151 56 103 151 54 101 148 47 91 136 54 101 148 53 98 145 45 87 130 43 85 128 47 90 134 49 93 139 50 94 140 51 96 142 56 103 152
69 104 152 49 93 138 50 95 141 44 86 130 47 91 135 55 102 150 57 105 154 44 86 129 42 84 126 77 103 150 46 89 133 49 93 138 51 96 143 56 103 151 113 99 140 54 101 148
46 89 134 118 98 138 54 100 147 66 105 153 48 92 137 53 98 145 48 92 137 70 104 152 50 95 140 46 89 133 55 101 149 48 91 136 54 101 148 49 93 138 56 103 152 55 101 149
59 106 155 83 103 148 55 101 148 57 104 153 50 94 140 70 104 152 47 90 135 117 98 139 47 90 135 56 103 151 116 99 139 51 96 142 56 103 152 57 104 152 51 96 143 49 93 139
57 104 153 43 85 128 57 105 154 46 89 133 53 99 145 44 86 129 48 92 137 121 98 138 64 105 153 76 104 150 74 104 150 57 104 152 54 100 147 96 101 145 57 105 154 123 98 137
55 101 149 47 91 135 52 97 143 53 99 146 47 90 135 55 102 150 46 90 134 50 95 141 47 90 135 44 85 129 57 104 153 44 87 130 57 104 152 50 94 139 53 98 145 42 83 125
52 97 143 49 94 139 56 103 152 76 104 150 73 104 151 58 106 154 112 99 140 93 101 145 101 100 143 49 93 138 49 93 138 53 98 145 51 96 142 95 99 97 84 88 86 82 86 84
80 84 82 83 87 85 90 94 92 77 81 79 85 89 87 91 95 93 77 81 79 90 94 92 83 87 85 96 100 98 77 81 79 97 101 99 87 91 89 88 92 90 89 93 91 96 100 98
85 89 87 75 79 77 79 83 81 94 98 96 80 84 82 86 90 88 79 83 81 85 89 87 84 88 86 87 91 89 94 98 96 83 87 85 87 91 89 97 101 99 91 95 93 89 93 91
91 95 93 96 100 98 74 78 76 97 101 99 90 94 92 84 88 86 76 80 78 89 93 91 95 99 97 79 83 81 81 85 83 95 99 97 76 80 78 85 89 87 87 91 89 97 101 99
83 87 85 75 79 77 82 86 84 85 89 87 93 97 95 85 89 87 79 83 81 94 98 96 92 96 94 86 90 88 94 98 96 85 89 87 78 82 80 75 79 77 84 88 86 85 89 87
80 84 82 76 80 78 80 84 82 98 102 100 86 90 88 95 99 97 76 80 78 81 85 83 91 95 93 95 99 97 84 88 86 86 90 88 81 85 83 81 85 83 95 99 97 22 26 27
22 26 27 22 26 27 22 26 27 22 26 27 22 26 27 22 26 27 22 26 27 22 26 27 22 26 27 22 26 27 22 26 27 22 26 27 22 26 27 22 26 27 22 26 27 22 26 27
22 26 27 22 26 27 22 26 27 22 26 27 22 26 27 22 26 27 22 26 27 22 26 27 22 26 27 22 26 27 22 26 27 22 26 27 22 26 27 22 26 27 22 26 27 22 26 27
22 26 27 22 26 27 22 26 27 22 26 27 22 26 27 22 26 27 22 26 27 22 26 27 22 26 27 22 26 27 22 26 27 22 26 27 22 26 27 22 26 27 22 26 27 22 26 27
22 26 27 22 26 27 22 26 27 89 93 93 86 90 90 74 78 78 22 26 27 74 78 78 92 96 96 75 79 79 92 96 96 22 26 27 69 73 73 93 97 97 85 89 89 84 88 88
47 93 139 37 78 120 41 84 128 45 89 134 46 91 137 52 99 147 41 83 127 78 96 140 68 98 143 47 93 139 49 96 143 52 99 147 41 83 127 103 93 134 67 98 143 38 80 123
42 85 129 42 85 128 50 97 144 49 95 142 93 94 137 38 80 122 130 90 126 47 92 138 45 90 135 40 83 126 39 81 124 47 92 138 48 93 139 38 80 123 43 87 131 48 93 139
129 90 127 43 86 131 47 92 138 46 91 136 48 94 140 49 95 142 102 93 134 42 85 130 40 83 126 49 95 141 40 82 125 38 79 121 73 97 142 41 84 128 44 88 132 39 81 124
50 97 144 100 93 134 37 79 121 38 79 122 39 81 124 84 95 139 41 84 127 38 80 122 38 80 122 37 78 120 38 80 123 44 88 133 43 86 130 40 83 126 45 89 134 39 82 125
76 97 141 37 78 120 51 98 145 101 93 134 99 94 135 41 83 127 39 82 125 48 93 139 37 78 121 46 90 136 41 84 128 47 92 139 123 91 128 45 89 134 37 78 121 41 84 127
40 82 125 86 95 138 47 92 138 36 77 119 38 80 122 48 94 141 104 93 133 41 84 127 46 91 136 51 98 146 46 91 136 48 94 141 45 90 135 48 94 140 49 95 142 43 87 132
44 87 132 51 98 145 37 79 121 39 81 124 37 78 120 108 92 132 40 83 126 51 98 145 46 90 136 51 98 146 47 92 138 49 96 143 36 77 119 78 82 80 93 97 95 76 80 78
78 82 80 88 92 90 92 96 94 79 83 81 74 78 76 90 94 92 78 82 80 93 97 95 82 86 84 84 88 86 86 90 88 90 94 92 83 87 85 85 89 87 93 97 95 83 87 85
87 91 89 97 101 99 92 96 94 84 88 86 93 97 95 94 98 96 75 79 77 91 95 93 90 94 92 97 101 99 82 86 84 94 98 96 96 100 98 94 98 96 81 85 83 74 78 76
77 81 79 95 99 97 83 87 85 78 82 80 80 84 82 94 98 96 76 80 78 79 83 81 90 94 92 84 88 86 83 87 85 97 101 99 97 101 99 98 102 100 84 88 86 75 79 77
86 90 88 96 100 98 97 101 99 81 85 83 80 84 82 88 92 90 86 90 88 83 87 85 77 81 79 94 98 96 85 89 87 91 95 93 95 99 97 90 94 92 76 80 78 86 90 88
86 90 88 96 100 98 80 84 82 83 87 85 81 85 83 93 97 95 93 97 95 95 99 97 86 90 88 76 80 78 86 90 88 90 94 92 86 90 88 81 85 83 90 94 92 22 26 27
22 26 27 22 26 27 22 26 27 22 26 27 22 26 27 22 26 27 22 26 27 22 26 27 22 26 27 22 26 27 22 26 27 22 26 27 22 26 27 22 26 27 22 26 27 22 26 27
22 26 27 22 26 27 22 26 27 22 26 27 22 26 27 22 26 27 22 26 27 22 26 27 22 26 27 22 26 27 22 26 27 22 26 27 22 26 27 22 26 27 22 26 27 22 26 27
22 26 27 22 26 27 22 26 27 22 26 27 22 26 27 22 26 27 22 26 27 22 26 27 22 26 27 22 26 27 22 26 27 22 26 27 22 26 27 22 26 27 22 26 27 22 26 27
22 26 27 22 26 27 22 26 27 79 83 83 72 76 76 76 80 80 22 26 27 84 88 88 75 79 79 81 85 85 91 95 95 22 26 27 80 84 84 74 78 78 85 89 89 81 85 85
47 94 141 44 90 136 39 82 126 39 82 126 45 92 138 41 85 130 62 92 138 38 81 125 42 87 132 42 86 132 40 84 128 47 93 140 123 85 121 47 94 141 41 86 131 44 90 136
41 86 131 40 84 129 39 83 127 38 82 126 44 89 135 47 94 141 32 73 115 93 89 129 35 77 119 34 76 118 88 89 131 31 72 112 32 73 114 42 86 131 74 91 134 39 82 126
35 78 120 118 85 122 42 87 132 43 88 133 46 92 139 42 87 133 40 84 129 39 82 126 42 87 132 42 87 133 43 88 133 46 93 140 41 85 130 41 86 131 83 90 132 47 93 140
32 73 115 43 88 133 44 89 135 34 76 118 37 80 124 44 90 136 124 85 121 91 89 130 43 88 134 34 76 118 39 83 127 35 77 120 38 81 125 35 77 120 32 73 114 39 83 127
56 93 140 41 85 130 40 84 129 35 77 119 109 87 125 34 76 118 32 73 115 79 90 133 37 79 123 47 94 141 44 90 136 35 77 119 111 86 124 31 72 112 33 74 115 124 85 121
32 73 114 105 87 126 88 89 131 32 73 115 125 85 121 39 82 126 46 93 140 47 93 140 38 82 125 44 90 136 38 81 124 72 91 135 41 86 131 41 86 131 41 86 131 52 94 140
33 74 115 35 76 119 43 88 134 45 91 138 48 94 142 73 91 135 32 73 114 41 86 131 32 73 114 37 80 124 62 93 138 38 81 124 39 83 127 86 90 88 91 95 93 87 91 89
80 84 82 91 95 93 93 97 95 97 101 99 93 97 95 80 84 82 94 98 96 80 84 82 84 88 86 74 78 76 93 97 95 90 94 92 76 80 78 86 90 88 96 100 98 79 83 81
76 80 78 87 91 89 95 99 97 83 87 85 93 97 95 94 98 96 86 90 88 77 81 79 90 94 92 85 89 87 81 85 83 94 98 96 77 81 79 91 95 93 90 94 92 84 88 86
76 80 78 84 88 86 81 85 83 94 98 96 90 94 92 90 94 92 97 101 99 80 84 82 94 98 96 89 93 91 76 80 78 96 100 98 96 100 98 96 100 98 96 100 98 87 91 89
77 81 79 89 93 91 78 82 80 97 101 99 87 91 89 82 86 84 82 86 84 88 92 90 80 84 82 76 80 78 91 95 93 75 79 77 82 86 84 93 97 95 95 99 97 95 99 97
92 96 94 83 87 85 80 84 82 75 79 77 77 81 79 91 95 93 74 78 76 74 78 76 89 93 91 97 101 99 94 98 96 87 91 89 82 86 84 75 79 77 88 92 90 22 26 27
22 26 27 22 26 27 22 26 27 22 26 27 22 26 27 22 26 27 22 26 27 22 26 27 22 26 27 22 26 27 22 26 27 22 26 27 22 26 27 22 26 27 22 26 27 22 26 27
22 26 27 22 26 27 22 26 27 22 26 27 22 26 27 22 26 27 22 26 27 22 26 27 22 26 27 22 26 27 22 26 27 22 26 27 22 26 27 22 26 27 22 26 27 22 26 27
22 26 27 22 26 27 22 26 27 22 26 27 22 26 27 22 26 27 22 26 27 22 26 27 22 26 27 22 26 27 22 26 27 22 26 27 22 26 27 22 26 27 22 26 27 22 26 27
22 26 27 22 26 27 22 26 27 76 80 80 71 75 75 87 91 91 22 26 27 86 90 90 89 93 93 86 90 90 78 82 82 22 26 27 75 79 79 69 73 73 82 86 86 83 87 87
32 74 116 77 87 129 35 78 121 42 88 134 36 79 123 39 84 129 36 80 123 34 76 119 123 81 116 37 81 126 31 72 114 31 72 114 91 85 125 61 89 133 35 79 122 76 87 129
44 91 138 29 70 111 35 78 121 35 78 121 41 87 133 30 72 113 34 76 119 29 69 110 31 72 113 71 87 130 122 81 116 30 71 112 39 84 128 35 78 122 43 90 137 42 89 135
42 88 134 41 87 132 44 90 137 29 70 111 42 88 134 28 68 109 40 85 130 41 86 132 33 75 117 42 88 135 41 86 132 97 84 123 29 70 111 100 84 122 38 82 126 37 80 124
34 77 120 38 82 127 30 71 112 35 79 122 36 80 124 34 77 120 37 81 125 35 78 122 40 85 131 39 83 128 32 74 116 33 75 118 40 86 131 50 90 136 74 87 130 31 72 114
38 82 126 38 82 127 31 73 115 31 72 114 36 80 124 112 82 119 44 90 137 43 89 136 42 88 134 73 87 130 44 91 137 40 84 130 33 75 118 37 81 126 28 68 109 70 88 131
69 88 131 41 87 133 41 87 133 41 87 132 45 91 137 40 85 131 36 80 123 32 73 115 28 69 109 43 90 137 44 90 137 39 83 128 30 71 113 40 86 131 38 83 127 52 90 136
41 87 132 44 90 137 41 87 133 67 88 131 36 79 122 30 71 112 29 69 110 86 86 126 44 90 137 41 87 132 108 83 120 43 89 135 109 83 120 83 87 85 93 97 95 95 99 97
81 85 83 78 82 80 81 85 83 87 91 89 89 93 91 87 91 89 85 89 87 81 85 83 91 95 93 83 87 85 87 91 89 96 100 98 96 100 98 87 91 89 77 81 79 85 89 87
78 82 80 97 101 99 88 92 90 77 81 79 90 94 92 98 102 100 96 100 98 79 83 81 86 90 88 88 92 90 82 86 84 83 87 85 95 99 97 79 83 81 74 78 76 79 83 81
94 98 96 84 88 86 91 95 93 86 90 88 78 82 80 94 98 96 77 81 79 84 88 86 90 94 92 85 89 87 75 79 77 82 86 84 77 81 79 86 90 88 77 81 79 94 98 96
78 82 80 91 95 93 93 97 95 91 95 93 92 96 94 87 91 89 96 100 98 88 92 90 95 99 97 82 86 84 96 100 98 80 84 82 83 87 85 83 87 85 80 84 82 90 94 92
97 101 99 83 87 85 83 87 85 97 101 99 78 82 80 84 88 86 76 80 78 98 102 100 78 82 80 77 81 79 81 85 83 92 96 94 89 93 91 97 101 99 91 95 93 22 26 27
22 26 27 22 26 27 22 26 27 22 26 27 22 26 27 22 26 27 22 26 27 22 26 27 22 26 27 22 26 27 22 26 27 22 26 27 22 26 27 22 26 27 22 26 27 22 26 27
22 26 27 22 26 27 22 26 27 22 26 27 22 26 27 22 26 27 22 26 27 22 26 27 22 26 27 22 26 27 22 26 27 22 26 27 22 26 27 22 26 27 22 26 27 22 26 27
22 26 27 22 26 27 22 26 27 22 26 27 22 26 27 22 26 27 22 26 27 22 26 27 22 26 27 22 26 27 22 26 27 22 26 27 22 26 27 22 26 27 22 26 27 22 26 27
22 26 27 22 26 27 22 26 27 90 94 94 85 89 89 85 89 89 22 26 27 72 76 76 92 96 96 90 94 94 82 86 86 22 26 27 74 78 78 80 84 84 73 77 77 72 76 76
37 82 126 30 72 114 40 86 132 30 71 113 37 81 126 37 82 127 28 69 110 36 79 124 49 88 134 30 72 113 30 72 114 29 70 112 40 86 131 31 74 116 86 83 123 30 72 114
38 83 128 39 85 130 42 88 135 41 87 133 37 82 126 105 81 118 38 83 128 82 84 125 27 67 108 31 74 116 32 75 117 37 82 127 27 67 108 39 84 129 38 83 129 42 89 135
32 74 117 89 83 123 27 68 108 85 83 124 36 80 124 102 81 119 27 67 108 38 83 128 41 87 133 28 69 110 35 79 123 38 83 128 77 84 126 26 67 107 28 69 110 26 67 107
39 84 129 42 88 135 90 83 122 67 86 129 61 86 130 38 82 127 34 77 121 27 68 108 28 69 110 37 82 127 39 85 131 36 80 124 38 84 129 36 80 124 41 87 133 39 85 131
34 77 121 42 88 134 106 81 118 52 87 133 27 67 108 31 73 115 28 68 109 32 75 118 32 74 117 41 88 134 33 76 119 39 84 129 41 87 133 26 66 107 38 84 129 35 79 122
26 67 107 71 85 127 28 69 110 32 74 117 31 73 115 73 85 127 61 86 130 35 78 122 37 82 126 36 80 125 31 73 115 105 81 118 33 76 120 75 84 126 27 68 109 27 68 108
28 69 109 32 74 117 81 84 125 38 83 128 37 81 126 30 72 114 34 78 121 42 89 135 26 66 106 34 77 120 41 88 134 37 82 126 99 82 120 88 92 90 87 91 89 87 91 89
97 101 99 94 98 96 93 97 95 80 84 82 90 94 92 87 91 89 90 94 92 81 85 83 97 101 99 78 82 80 77 81 79 79 83 81 80 84 82 80 84 82 76 80 78 79 83 81
81 85 83 78 82 80 88 92 90 88 92 90 96 100 98 83 87 85 88 92 90 96 100 98 94 98 96 81 85 83 89 93 91 81 85 83 94 98 96 89 93 91 77 81 79 85 89 87
96 100 98 95 99 97 84 88 86 79 83 81 76 80 78 86 90 88 91 95 93 79 83 81 75 79 77 88 92 90 94 98 96 90 94 92 78 82 80 78 82 80 96 100 98 92 96 94
74 78 76 87 91 89 89 93 91 86 90 88 89 93 91 78 82 80 87 91 89 78 82 80 83 87 85 86 90 88 75 79 77 77 81 79 89 93 91 82 86 84 89 93 91 95 99 97
95 99 97 91 95 93 81 85 83 86 90 88 77 81 79 76 80 78 86 90 88 83 87 85 75 79 77 76 80 78 79 83 81 78 82 80 84 88 86 91 95 93 89 93 91 22 26 27
22 26 27 22 26 27 22 26 27 22 26 27 22 26 27 22 26 27 22 26 27 22 26 27 22 26 27 22 26 27 22 26 27 22 26 27 22 26 27 22 26 27 22 26 27 22 26 27
22 26 27 22 26 27 22 26 27 22 26 27 22 26 27 22 26 27 22 26 27 22 26 27 22 26 27 22 26 27 22 26 27 22 26 27 22 26 27 22 26 27 22 26 27 22 26 27
22 26 27 22 26 27 22 26 27 22 26 27 22 26 27 22 26 27 22 26 27 22 26 27 22 26 27 22 26 27 22 26 27 22 26 27 22 26 27 22 26 27 22 26 27 22 26 27
22 26 27 22 26 27 22 26 27 81 85 85 72 76 76 70 74 74 22 26 27 73 77 77 91 95 95 77 81 81 76 80 80 22 26 27 74 78 78 78 82 82 90 94 94 79 83 83
33 76 120 92 80 119 33 76 120 25 65 105 30 72 114 34 78 122 34 78 122 40 86 132 35 79 123 36 81 126 26 67 108 117 77 112 32 76 119 33 77 120 35 80 124 37 82 127
38 84 130 36 81 126 36 81 125 29 71 114 40 86 132 25 66 106 77 82 123 28 70 112 27 68 109 30 72 114 35 79 123 27 68 109 24 64 104 30 72 115 32 76 119 28 69 111
31 74 117 32 75 118 33 76 120 35 80 124 34 78 122 33 76 119 25 66 106 34 78 122 31 73 116 32 75 118 33 76 120 109 78 115 118 77 112 64 84 127 37 83 128 24 64 104
28 69 110 35 80 124 36 81 126 94 80 119 40 86 132 24 64 104 33 76 120 28 69 110 31 73 116 33 77 120 27 68 110 28 70 112 31 73 116 83 81 121 39 85 131 38 84 130
67 83 126 36 81 125 38 84 129 97 80 118 87 81 120 39 85 131 37 82 127 37 81 126 39 84 130 24 64 104 31 74 117 28 69 111 35 80 124 34 77 121 30 73 115 39 85 131
26 66 107 42 87 133 27 68 109 29 71 112 39 84 130 29 71 113 35 79 123 35 79 123 30 72 114 100 79 117 30 72 115 26 67 108 29 71 114 37 81 126 33 76 119 45 86 132
31 74 117 30 72 114 31 73 116 28 70 111 38 84 130 37 82 127 33 76 120 40 87 133 26 67 108 35 79 123 36 81 126 30 73 115 34 78 122 77 81 79 89 93 91 94 98 96
85 89 87 92 96 94 77 81 79 94 98 96 79 83 81 78 82 80 96 100 98 91 95 93 87 91 89 93 97 95 79 83 81 76 80 78 95 99 97 78 82 80 98 102 100 93 97 95
88 92 90 93 97 95 92 96 94 88 92 90 94 98 96 84 88 86 94 98 96 75 79 77 95 99 97 84 88 86 87 91 89 79 83 81 80 84 82 83 87 85 91 95 93 86 90 88
89 93 91 97 101 99 77 81 79 83 87 85 93 97 95 82 86 84 83 87 85 87 91 89 78 82 80 74 78 76 97 101 99 87 91 89 88 92 90 92 96 94 74 78 76 92 96 94
87 91 89 85 89 87 83 87 85 93 97 95 91 95 93 94 98 96 88 92 90 84 88 86 79 83 81 86 90 88 84 88 86 84 88 86 87 91 89 89 93 91 92 96 94 98 102 100
85 89 87 76 80 78 82 86 84 78 82 80 91 95 93 77 81 79 78 82 80 90 94 92 91 95 93 97 101 99 83 87 85 91 95 93 76 80 78 82 86 84 81 85 83 22 26 27
22 26 27 22 26 27 22 26 27 22 26 27 22 26 27 22 26 27 22 26 27 22 26 27 22 26 27 22 26 27 22 26 27 22 26 27 22 26 27 22 26 27 22 26 27 22 26 27
22 26 27 22 26 27 22 26 27 22 26 27 22 26 27 22 26 27 22 26 27 22 26 27 22 26 27 22 26 27 22 26 27 22 26 27 22 26 27 22 26 27 22 26 27 22 26 27
22 26 27 22 26 27 22 26 27 22 26 27 22 26 27 22 26 27 22 26 27 22 26 27 22 26 27 22 26 27 22 26 27 22 26 27 22 26 27 22 26 27 22 26 27 22 26 27
22 26 27 22 26 27 22 26 27 77 81 81 85 89 89 90 94 94 22 26 27 73 77 77 80 84 84 82 86 86 83 87 87 22 26 27 92 96 96 75 79 79 73 77 77 77 81 81
36 82 127 37 83 128 36 82 128 37 82 128 111 75 110 32 76 120 32 76 120 24 64 105 24 64 105 26 67 108 24 65 105 22 63 103 26 68 109 36 81 126 26 67 109 22 62 102
43 83 129 25 66 107 37 83 129 37 82 128 33 77 121 43 83 129 65 80 123 33 78 122 32 76 120 37 84 130 34 78 123 36 82 128 35 80 125 108 75 111 62 81 123 30 73 117
73 79 120 21 61 101 30 74 117 31 74 118 36 82 128 30 73 116 27 70 112 48 83 127 32 76 119 76 79 120 25 66 107 99 76 113 30 74 117 27 69 111 32 76 120 69 80 122
23 64 104 108 75 111 25 66 107 54 82 126 53 82 126 26 67 109 71 80 121 30 74 117 47 83 128 22 62 102 32 76 120 35 80 125 27 69 110 95 77 114 24 64 105 29 71 114
33 77 122 27 69 111 31 74 118 35 80 126 31 75 119 33 77 122 30 73 117 42 83 129 36 82 127 24 65 105 29 72 114 27 69 111 33 78 122 25 66 108 30 73 116 24 64 105
29 72 115 22 61 101 24 64 105 40 84 129 27 69 112 26 68 110 24 65 106 24 65 106 22 61 101 35 80 124 23 64 104 32 76 120 27 68 110 25 67 108 37 84 130 36 82 127
37 83 129 31 75 119 37 83 129 39 84 130 37 83 129 35 79 124 27 69 111 27 69 110 35 80 125 36 81 127 32 76 120 24 65 106 24 65 105 97 101 99 97 101 99 93 97 95
76 80 78 84 88 86 79 83 81 79 83 81 93 97 95 88 92 90 95 99 97 80 84 82 94 98 96 86 90 88 82 86 84 81 85 83 77 81 79 78 82 80 79 83 81 91 95 93
85 89 87 93 97 95 80 84 82 92 96 94 91 95 93 87 91 89 97 101 99 91 95 93 89 93 91 89 93 91 82 86 84 81 85 83 83 87 85 76 80 78 78 82 80 81 85 83
95 99 97 90 94 92 77 81 79 91 95 93 82 86 84 94 98 96 87 91 89 79 83 81 80 84 82 94 98 96 91 95 93 76 80 78 87 91 89 86 90 88 77 81 79 91 95 93
74 78 76 92 96 94 83 87 85 84 88 86 83 87 85 91 95 93 92 96 94 98 102 100 84 88 86 85 89 87 98 102 100 74 78 76 80 84 82 82 86 84 88 92 90 87 91 89
97 101 99 75 79 77 85 89 87 91 95 93 78 82 80 89 93 91 92 96 94 79 83 81 81 85 83 85 89 87 93 97 95 96 100 98 86 90 88 91 95 93 75 79 77 22 26 27
22 26 27 22 26 27 22 26 27 22 26 27 22 26 27 22 26 27 22 26 27 22 26 27 22 26 27 22 26 27 22 26 27 22 26 27 22 26 27 22 26 27 22 26 27 22 26 27
22 26 27 22 26 27 22 26 27 22 26 27 22 26 27 22 26 27 22 26 27 22 26 27 22 26 27 22 26 27 22 26 27 22 26 27 22 26 27 22 26 27 22 26 27 22 26 27
22 26 27 22 26 27 22 26 27 22 26 27 22 26 27 22 26 27 22 26 27 22 26 27 22 26 27 22 26 27 22 26 27 22 26 27 22 26 27 22 26 27 22 26 27 22 26 27
22 26 27 22 26 27 22 26 27 71 75 75 92 96 96 88 92 92 22 26 27 89 93 93 73 77 77 78 82 82 87 91 91 22 26 27 92 96 96 77 81 81 82 86 86 74 78 78
21 62 103 56 76 119 60 76 118 18 58 97 27 70 114 22 64 105 20 60 101 18 57 96 33 78 124 33 78 124 47 77 121 32 78 123 112 69 103 32 78 123 28 72 115 17 56 96
19 59 99 19 58 98 38 78 123 22 63 104 33 79 125 28 71 115 31 76 120 19 59 99 23 65 107 27 71 114 30 75 120 24 66 108 32 78 123 33 79 124 31 76 121 25 67 109
24 66 108 21 62 103 23 64 106 24 66 108 92 72 109 72 74 114 97 71 107 29 73 117 31 76 121 27 70 113 27 71 114 32 78 123 23 65 107 32 77 122 31 75 120 31 76 121
30 74 118 23 64 106 32 77 122 25 67 109 23 65 107 26 68 111 77 74 113 20 60 101 27 71 114 32 77 122 27 70 114 32 78 123 18 58 97 25 68 110 29 73 117 19 59 99
65 75 116 24 66 108 22 63 104 112 69 103 30 75 119 27 70 113 62 75 117 29 73 117 21 62 102 31 75 120 23 64 105 28 72 115 26 68 111 25 67 110 42 78 122 25 67 110
24 66 108 30 74 119 31 76 120 30 74 118 24 65 107 31 75 120 39 78 123 59 76 118 27 70 113 21 61 102 19 59 99 26 69 112 18 58 98 26 69 112 25 67 109 31 76 121
17 57 96 24 67 109 22 64 105 33 79 125 23 65 107 23 65 106 26 69 112 19 59 100 25 67 109 30 74 118 19 58 98 18 58 97 25 67 110 90 94 92 76 80 78 81 85 83
84 88 86 79 83 81 80 84 82 77 81 79 88 92 90 93 97 95 87 91 89 87 91 89 77 81 79 96 100 98 75 79 77 92 96 94 79 83 81 90 94 92 94 98 96 76 80 78
81 85 83 84 88 86 93 97 95 95 99 97 92 96 94 98 102 100 97 101 99 85 89 87 97 101 99 88 92 90 85 89 87 83 87 85 81 85 83 90 94 92 79 83 81 93 97 95
75 79 77 75 79 77 77 81 79 75 79 77 92 96 94 85 89 87 78 82 80 86 90 88 95 99 97 84 88 86 96 100 98 76 80 78 90 94 92 90 94 92 93 97 95 91 95 93
77 81 79 84 88 86 89 93 91 85 89 87 86 90 88 79 83 81 83 87 85 97 101 99 92 96 94 97 101 99 98 102 100 84 88 86 89 93 91 87 91 89 89 93 91 93 97 95
80 84 82 81 85 83 89 93 91 97 101 99 84 88 86 74 78 76 78 82 80 80 84 82 87 91 89 79 83 81 92 96 94 87 91 89 94 98 96 89 93 91 80 84 82 22 26 27
22 26 27 22 26 27 22 26 27 22 26 27 22 26 27 22 26 27 22 26 27 22 26 27 22 26 27 22 26 27 22 26 27 22 26 27 22 26 27 22 26 27 22 26 27 22 26 27
22 26 27 22 26 27 22 26 27 22 26 27 22 26 27 22 26 27 22 26 27 22 26 27 22 26 27 22 26 27 22 26 27 22 26 27 22 26 27 22 26 27 22 26 27 22 26 27
22 26 27 22 26 27 22 26 27 22 26 27 22 26 27 22 26 27 22 26 27 22 26 27 22 26 27 22 26 27 22 26 27 22 26 27 22 26 27 22 26 27 22 26 27 22 26 27
22 26 27 22 26 27 22 26 27 69 73 73 82 86 86 73 77 77 22 26 27 84 88 88 90 94 94 71 75 75 81 85 85 22 26 27 86 90 90 91 95 95 81 85 85 76 80 80
17 58 100 52 70 112 24 68 111 103 63 98 16 56 97 21 64 106 22 65 108 23 66 109 64 68 108 15 55 95 24 68 112 19 61 103 20 62 104 24 67 111 15 55 95 18 59 101
13 53 92 105 63 97 65 68 108 21 63 106 26 71 115 24 68 112 17 58 99 22 65 108 30 73 118 99 64 99 25 68 112 14 54 94 12 51 90 15 55 95 14 54 94 23 67 110
101 64 98 42 71 114 15 56 96 12 51 90 21 64 106 93 65 100 16 56 96 100 64 98 18 59 100 28 73 118 21 64 106 15 55 96 22 64 107 28 73 118 26 70 115 14 54 94
17 58 99 27 71 116 20 62 104 17 58 99 67 68 107 20 63 105 16 56 96 12 51 90 17 58 99 21 63 106 15 55 95 19 61 103 15 54 94 14 54 94 15 54 94 12 51 91
27 72 117 20 62 104 23 67 110 14 53 93 27 72 117 105 63 97 28 73 118 14 54 94 20 62 104 25 69 113 16 57 97 26 71 115 19 60 102 27 73 118 33 72 117 79 66 104
72 67 106 70 68 107 20 62 104 12 51 89 13 52 91 26 70 115 24 68 111 12 51 90 12 52 91 15 55 94 26 70 114 22 65 107 24 68 111 16 57 97 18 60 101 16 56 97
18 59 101 26 70 114 17 57 98 19 61 103 20 62 104 12 50 89 21 64 106 16 57 97 49 70 112 24 68 112 16 57 98 33 72 117 26 70 115 89 93 91 90 94 92 90 94 92
87 91 89 96 100 98 91 95 93 81 85 83 91 95 93 92 96 94 86 90 88 80 84 82 90 94 92 86 90 88 84 88 86 97 101 99 95 99 97 81 85 83 77 81 79 80 84 82
90 94 92 81 85 83 89 93 91 92 96 94 93 97 95 82 86 84 74 78 76 80 84 82 81 85 83 80 84 82 89 93 91 83 87 85 94 98 96 91 95 93 94 98 96 91 95 93
76 80 78 86 90 88 97 101 99 97 101 99 78 82 80 93 97 95 95 99 97 84 88 86 77 81 79 81 85 83 75 79 77 87 91 89 92 96 94 77 81 79 97 101 99 92 96 94
83 87 85 96 100 98 95 99 97 93 97 95 84 88 86 80 84 82 91 95 93 80 84 82 74 78 76 95 99 97 81 85 83 96 100 98 76 80 78 96 100 98 93 97 95 80 84 82
83 87 85 82 86 84 91 95 93 88 92 90 87 91 89 76 80 78 90 94 92 81 85 83 79 83 81 96 100 98 78 82 80 91 95 93 90 94 92 87 91 89 91 95 93 22 26 27
22 26 27 22 26 27 22 26 27 22 26 27 22 26 27 22 26 27 22 26 27 22 26 27 22 26 27 22 26 27 22 26 27 22 26 27 22 26 27 22 26 27 22 26 27 22 26 27
22 26 27 22 26 27 22 26 27 22 26 27 22 26 27 22 26 27 22 26 27 22 26 27 22 26 27 22 26 27 22 26 27 22 26 27 22 26 27 22 26 27 22 26 27 22 26 27
22 26 27 22 26 27 22 26 27 22 26 27 22 26 27 22 26 27 22 26 27 22 26 27 22 26 27 22 26 27 22 26 27 22 26 27 22 26 27 22 26 27 22 26 27 22 26 27
22 26 27 22 26 27 22 26 27 82 86 86 84 88 88 83 87 87 22 26 27 88 92 92 78 82 82 80 84 84 91 95 95 22 26 27 76 80 80 73 77 77 79 83 83 92 96 96
16 58 99 17 60 102 16 58 100 13 54 95 7 45 83 66 62 101 14 56 97 10 50 90 13 54 95 14 55 96 18 61 104 15 57 98 20 63 106 11 51 91 90 59 94 27 67 111
10 50 90 10 49 88 14 56 97 14 54 95 9 49 88 20 63 106 17 60 102 10 49 89 71 62 99 71 62 99 17 59 102 21 65 108 50 64 105 19 62 105 20 63 107 36 66 109
19 62 105 13 53 94 17 60 102 15 57 99 21 65 109 20 64 107 17 60 102 9 49 88 58 63 103 9 48 87 20 64 107 98 58 92 9 48 87 21 65 109 8 47 86 9 48 87
22 66 110 91 59 94 21 66 110 22 66 110 85 60 95 10 49 89 13 53 94 20 64 108 60 63 102 18 61 103 13 53 94 9 48 86 16 57 99 21 65 109 12 53 94 23 68 112
34 66 110 21 64 108 17 59 101 13 54 95 19 62 106 7 46 84 12 53 94 22 66 111 13 54 94 17 59 101 18 60 103 14 55 96 16 58 100 12 53 93 48 65 106 87 60 95
19 63 106 65 62 101 7 46 84 9 48 88 17 60 102 14 54 95 10 49 89 67 62 100 7 45 83 58 63 103 23 67 112 12 52 92 13 54 95 19 62 105 20 64 107 8 47 85
12 52 93 70 62 100 10 49 89 18 60 103 17 60 102 11 51 90 15 57 99 20 64 108 8 47 86 36 66 109 23 68 112 40 66 108 7 45 84 76 80 78 84 88 86 94 98 96
90 94 92 96 100 98 97 101 99 80 84 82 77 81 79 94 98 96 88 92 90 83 87 85 77 81 79 96 100 98 88 92 90 83 87 85 88 92 90 95 99 97 81 85 83 78 82 80
89 93 91 82 86 84 84 88 86 91 95 93 96 100 98 87 91 89 80 84 82 97 101 99 94 98 96 87 91 89 89 93 91 87 91 89 83 87 85 82 86 84 98 102 100 97 101 99
83 87 85 82 86 84 88 92 90 91 95 93 87 91 89 96 100 98 84 88 86 96 100 98 79 83 81 87 91 89 74 78 76 97 101 99 82 86 84 85 89 87 92 96 94 74 78 76
82 86 84 89 93 91 82 86 84 90 94 92 84 88 86 88 92 90 95 99 97 76 80 78 89 93 91 78 82 80 83 87 85 77 81 79 84 88 86 95 99 97 77 81 79 77 81 79
83 87 85 88 92 90 77 81 79 85 89 87 95 99 97 95 99 97 84 88 86 87 91 89 82 86 84 79 83 81 87 91 89 90 94 92 77 81 79 87 91 89 79 83 81 22 26 27
22 26 27 22 26 27 22 26 27 22 26 27 22 26 27 22 26 27 22 26 27 22 26 27 22 26 27 22 26 27 22 26 27 22 26 27 22 26 27 22 26 27 22 26 27 22 26 27
22 26 27 22 26 27 22 26 27 22 26 27 22 26 27 22 26 27 22 26 27 22 26 27 22 26 27 22 26 27 22 26 27 22 26 27 22 26 27 22 26 27 22 26 27 22 26 27
22 26 27 22 26 27 22 26 27 22 26 27 22 26 27 22 26 27 22 26 27 22 26 27 22 26 27 22 26 27 22 26 27 22 26 27 22 26 27 22 26 27 22 26 27 22 26 27
22 26 27 22 26 27 22 26 27 89 93 93 78 82 82 77 81 81 22 26 27 71 75 75 74 78 78 72 76 76 87 91 91 22 26 27 80 84 84 89 93 93 71 75 75 79 83 83
13 54 96 87 58 93 16 59 102 14 55 97 38 64 106 87 58 93 8 47 86 10 51 91 14 55 96 19 63 106 6 44 83 6 44 83 16 59 101 95 57 90 69 60 98 15 57 100
12 52 93 12 53 94 17 60 103 53 62 102 50 62 103 11 52 92 17 59 102 33 65 107 10 50 90 12 53 94 15 57 99 7 46 85 13 55 96 99 56 89 13 54 95 9 49 89
20 64 108 16 58 101 16 59 101 8 48 87 20 64 108 69 60 97 21 65 110 72 60 97 8 47 87 26 65 109 12 52 93 8 47 86 73 59 96 61 61 100 18 61 104 75 59 96
64 61 99 17 60 103 15 57 99 13 54 95 8 47 86 19 63 106 19 63 106 14 56 98 13 54 95 13 54 96 12 53 94 12 53 94 6 45 83 5 44 82 17 60 103 9 49 88
5 43 81 8 47 87 14 56 98 29 65 108 8 47 86 9 48 88 7 46 85 17 60 103 31 65 108 13 54 96 21 65 109 5 43 81 18 61 104 8 48 87 17 59 102 17 60 103
91 57 92 8 47 86 69 60 97 21 66 110 10 50 90 17 60 103 14 55 96 39 64 106 21 65 109 9 49 89 5 43 81 36 64 107 17 60 103 10 49 89 11 52 92 7 46 84
17 59 102 47 63 104 85 58 93 75 59 96 20 64 107 15 58 100 20 64 108 18 61 104 18 61 104 15 57 99 18 62 105 21 66 110 21 66 110 80 84 82 88 92 90 85 89 87
95 99 97 79 83 81 91 95 93 90 94 92 94 98 96 77 81 79 90 94 92 88 92 90 85 89 87 88 92 90 98 102 100 92 96 94 75 79 77 82 86 84 78 82 80 90 94 92
78 82 80 97 101 99 94 98 96 92 96 94 77 81 79 87 91 89 98 102 100 91 95 93 75 79 77 83 87 85 97 101 99 84 88 86 97 101 99 90 94 92 92 96 94 78 82 80
81 85 83 88 92 90 81 85 83 88 92 90 90 94 92 81 85 83 88 92 90 77 81 79 76 80 78 97 101 99 80 84 82 97 101 99 83 87 85 87 91 89 84 88 86 77 81 79
75 79 77 74 78 76 82 86 84 82 86 84 80 84 82 76 80 78 96 100 98 86 90 88 95 99 97 85 89 87 96 100 98 97 101 99 92 96 94 82 86 84 84 88 86 76 80 78
94 98 96 88 92 90 86 90 88 89 93 91 75 79 77 78 82 80 91 95 93 91 95 93 82 86 84 81 85 83 91 95 93 81 85 83 98 102 100 83 87 85 80 84 82 22 26 27
22 26 27 22 26 27 22 26 27 22 26 27 22 26 27 22 26 27 22 26 27 22 26 27 22 26 27 22 26 27 22 26 27 22 26 27 22 26 27 22 26 27 22 26 27 22 26 27
22 26 27 22 26 27 22 26 27 22 26 27 22 26 27 22 26 27 22 26 27 22 26 27 22 26 27 22 26 27 22 26 27 22 26 27 22 26 27 22 26 27 22 26 27 22 26 27
22 26 27 22 26 27 22 26 27 22 26 27 22 26 27 22 26 27 22 26 27 22 26 27 22 26 27 22 26 27 22 26 27 22 26 27 22 26 27 22 26 27 22 26 27 22 26 27
22 26 27 22 26 27 22 26 27 89 93 93 91 95 95 93 97 97 22 26 27 71 75 75 91 95 95 90 94 94 92 96 96 22 26 27 74 78 78 78 82 82 83 87 87 91 95 95
24 68 113 11 51 90 16 58 100 16 58 100 12 52 93 21 65 108 42 66 109 9 47 86 12 52 92 80 61 98 24 68 113 20 64 107 20 64 107 21 65 109 16 58 100 23 68 112
49 65 107 12 52 92 19 62 104 10 50 89 16 57 99 83 61 97 38 67 110 14 55 96 55 65 105 18 60 103 80 61 98 11 50 90 20 63 106 58 64 104 21 65 108 80 61 98
23 68 113 17 59 101 22 67 111 8 46 85 8 46 84 22 66 110 13 53 93 15 56 98 8 47 85 24 68 113 23 67 111 15 56 97 14 55 96 23 67 111 18 61 103 15 56 98
10 49 88 13 53 93 18 61 103 18 61 103 13 54 94 17 59 101 18 61 104 22 66 110 20 64 107 18 61 103 20 63 106 14 55 96 31 68 111 20 64 107 8 46 84 77 62 99
88 61 96 19 61 104 17 58 100 11 51 91 24 68 113 15 57 98 21 64 108 20 63 106 19 62 105 17 59 101 23 67 112 19 62 105 9 48 87 11 50 90 11 50 90 20 63 106
12 52 92 11 50 90 20 63 107 22 66 110 19 62 104 80 61 98 12 52 93 100 59 93 12 52 92 23 67 111 23 67 112 18 61 104 15 56 98 12 52 92 89 60 96 8 47 86
11 50 90 69 63 101 15 56 97 9 49 88 20 63 106 77 62 99 17 59 101 37 67 110 10 50 89 14 55 96 10 49 89 17 59 101 12 52 92 84 88 86 94 98 96 79 83 81
96 100 98 94 98 96 92 96 94 89 93 91 85 89 87 79 83 81 93 97 95 78 82 80 75 79 77 95 99 97 94 98 96 80 84 82 95 99 97 82 86 84 98 102 100 82 86 84
80 84 82 78 82 80 92 96 94 82 86 84 80 84 82 79 83 81 85 89 87 85 89 87 88 92 90 96 100 98 92 96 94 88 92 90 80 84 82 83 87 85 77 81 79 89 93 91
95 99 97 87 91 89 79 83 81 88 92 90 90 94 92 86 90 88 87 91 89 97 101 99 95 99 97 89 93 91 76 80 78 86 90 88 90 94 92 92 96 94 82 86 84 97 101 99
77 81 79 79 83 81 77 81 79 80 84 82 96 100 98 85 89 87 81 85 83 78 82 80 88 92 90 79 83 81 90 94 92 77 81 79 88 92 90 76 80 78 88 92 90 77 81 79
75 79 77 95 99 97 78 82 80 75 79 77 80 84 82 89 93 91 98 102 100 79 83 81 94 98 96 77 81 79 79 83 81 92 96 94 74 78 76 86 90 88 83 87 85 22 26 27
22 26 27 22 26 27 22 26 27 22 26 27 22 26 27 22 26 27 22 26 27 22 26 27 22 26 27 22 26 27 22 26 27 22 26 27 22 26 27 22 26 27 22 26 27 22 26 27
22 26 27 22 26 27 22 26 27 22 26 27 22 26 27 22 26 27 22 26 27 22 26 27 22 26 27 22 26 27 22 26 27 22 26 27 22 26 27 22 26 27 22 26 27 22 26 27
22 26 27 22 26 27 22 26 27 22 26 27 22 26 27 22 26 27 22 26 27 22 26 27 22 26 27 22 26 27 22 26 27 22 26 27 22 26 27 22 26 27 22 26 27 22 26 27
22 26 27 22 26 27 22 26 27 91 95 95 75 79 79 85 89 89 22 26 27 71 75 75 79 83 83 86 90 90 87 91 91 22 26 27 79 83 83 90 94 94 73 77 77 84 88 88
26 70 115 15 55 95 14 54 93 28 74 119 16 56 95 13 51 90 19 61 102 23 65 108 34 74 118 28 74 119 25 69 113 27 71 115 28 74 119 43 72 116 23 66 109 25 68 112
24 67 111 26 71 115 20 62 104 77 68 106 27 72 116 23 66 108 14 53 92 27 72 117 22 64 106 19 60 101 21 63 105 20 62 103 28 73 117 51 71 114 24 68 111 25 69 112
18 59 99 22 65 107 16 56 96 13 52 90 23 66 108 24 67 110 17 58 99 19 61 102 23 66 109 18 59 100 13 53 92 14 53 92 14 53 92 19 60 101 27 71 115 27 72 116
20 62 104 72 69 108 15 54 94 13 53 92 17 57 98 21 63 106 28 73 118 16 56 96 17 58 99 24 67 111 24 67 111 107 64 98 21 62 104 93 66 102 28 73 118 19 60 101
21 64 106 25 68 112 23 66 108 13 51 90 25 68 112 23 65 108 14 54 94 23 66 108 18 58 99 14 54 93 89 67 103 15 54 94 18 59 100 28 73 118 103 65 99 26 70 114
21 63 105 93 66 102 22 65 108 23 66 109 25 68 112 15 55 95 21 63 105 77 68 106 14 53 92 16 55 95 19 60 101 36 73 117 23 66 109 17 58 98 15 55 95 27 71 116
26 70 114 75 68 107 22 65 108 19 61 102 15 54 94 18 59 100 25 68 112 27 72 117 22 65 107 28 72 117 18 59 100 23 66 109 16 56 96 97 101 99 93 97 95 84 88 86
77 81 79 81 85 83 83 87 85 92 96 94 94 98 96 80 84 82 95 99 97 88 92 90 94 98 96 79 83 81 75 79 77 85 89 87 86 90 88 89 93 91 76 80 78 94 98 96
91 95 93 74 78 76 75 79 77 80 84 82 84 88 86 91 95 93 79 83 81 81 85 83 92 96 94 93 97 95 91 95 93 97 101 99 98 102 100 77 81 79 94 98 96 93 97 95
95 99 97 90 94 92 94 98 96 82 86 84 88 92 90 94 98 96 78 82 80 92 96 94 86 90 88 78 82 80 87 91 89 93 97 95 92 96 94 96 100 98 82 86 84 95 99 97
79 83 81 79 83 81 76 80 78 89 93 91 83 87 85 87 91 89 94 98 96 77 81 79 89 93 91 90 94 92 86 90 88 94 98 96 77 81 79 75 79 77 75 79 77 92 96 94
84 88 86 89 93 91 85 89 87 88 92 90 93 97 95 88 92 90 93 97 95 97 101 99 76 80 78 88 92 90 89 93 91 76 80 78 94 98 96 92 96 94 91 95 93 22 26 27
22 26 27 22 26 27 22 26 27 22 26 27 22 26 27 22 26 27 22 26 27 22 26 27 22 26 27 22 26 27 22 26 27 22 26 27 22 26 27 22 26 27 22 26 27 22 26 27
22 26 27 22 26 27 22 26 27 22 26 27 22 26 27 22 26 27 22 26 27 22 26 27 22 26 27 22 26 27 22 26 27 22 26 27 22 26 27 22 26 27 22 26 27 22 26 27
22 26 27 22 26 27 22 26 27 22 26 27 22 26 27 22 26 27 22 26 27 22 26 27 22 26 27 22 26 27 22 26 27 22 26 27 22 26 27 22 26 27 22 26 27 22 26 27
22 26 27 22 26 27 22 26 27 71 75 75 80 84 84 80 84 84 22 26 27 80 84 84 84 88 88 73 77 77 83 87 87 22 26 27 81 85 85 69 73 73 79 83 83 75 79 79
19 58 98 27 70 113 75 75 115 23 65 106 21 61 101 24 66 107 22 63 104 34 80 125 21 62 103 90 73 111 19 59 99 28 71 115 50 78 122 30 74 118 24 66 108 27 70 113
25 67 109 26 68 111 18 58 97 23 64 106 31 76 121 27 70 114 48 78 122 30 75 119 25 67 110 30 74 118 25 67 109 91 73 111 32 77 122 61 77 119 23 64 106 33 78 123
22 62 103 29 72 116 32 76 121 29 72 116 25 67 109 23 64 105 25 67 109 32 77 122 23 64 105 19 59 99 20 60 100 86 74 112 28 71 114 34 79 125 29 73 117 21 62 103
31 76 121 27 70 113 77 75 114 51 78 122 26 69 111 22 62 103 28 72 115 19 58 98 24 66 108 25 68 110 31 76 121 19 59 98 30 75 119 45 79 123 21 61 102 26 68 110
30 74 119 28 71 114 23 65 106 23 64 105 29 73 117 25 67 109 30 74 118 30 74 118 26 69 111 20 60 100 27 70 113 27 69 112 22 63 104 29 73 116 57 77 120 21 62 103
22 64 105 18 57 97 101 72 108 26 68 110 21 61 102 20 60 101 31 75 119 21 62 102 21 61 102 64 76 118 77 75 114 22 63 104 33 79 124 41 79 124 26 68 110 34 80 126
28 71 114 25 67 109 30 74 118 65 76 118 25 68 110 29 73 117 32 76 121 19 58 98 54 78 121 34 80 125 79 75 114 19 59 99 64 76 118 84 88 86 84 88 86 98 102 100
97 101 99 91 95 93 78 82 80 79 83 81 76 80 78 93 97 95 80 84 82 83 87 85 89 93 91 88 92 90 84 88 86 93 97 95 86 90 88 84 88 86 75 79 77 87 91 89
92 96 94 95 99 97 77 81 79 76 80 78 90 94 92 81 85 83 92 96 94 76 80 78 83 87 85 89 93 91 81 85 83 88 92 90 83 87 85 82 86 84 87 91 89 81 85 83
87 91 89 81 85 83 98 102 100 88 92 90 79 83 81 87 91 89 84 88 86 90 94 92 79 83 81 91 95 93 88 92 90 95 99 97 94 98 96 98 102 100 83 87 85 95 99 97
97 101 99 85 89 87 78 82 80 85 89 87 77 81 79 96 100 98 76 80 78 97 101 99 86 90 88 93 97 95 91 95 93 86 90 88 76 80 78 82 86 84 93 97 95 97 101 99
93 97 95 98 102 100 81 85 83 78 82 80 93 97 95 89 93 91 77 81 79 84 88 86 84 88 86 88 92 90 80 84 82 86 90 88 78 82 80 80 84 82 84 88 86 22 26 27
22 26 27 22 26 27 22 26 27 22 26 27 22 26 27 22 26 27 22 26 27 22 26 27 22 26 27 22 26 27 22 26 27 22 26 27 22 26 27 22 26 27 22 26 27 22 26 27
22 26 27 22 26 27 22 26 27 22 26 27 22 26 27 22 26 27 22 26 27 22 26 27 22 26 27 22 26 27 22 26 27 22 26 27 22 26 27 22 26 27 22 26 27 22 26 27
22 26 27 22 26 27 22 26 27 22 26 27 22 26 27 22 26 27 22 26 27 22 26 27 22 26 27 22 26 27 22 26 27 22 26 27 22 26 27 22 26 27 22 26 27 22 26 27
22 26 27 22 26 27 22 26 27 88 92 92 88 92 92 81 85 85 22 26 27 71 75 75 77 81 81 90 94 94 72 76 76 22 26 27 89 93 93 74 78 78 77 81 81 87 91 91
90 78 117 36 82 127 28 70 112 34 78 123 35 80 125 25 67 108 114 75 110 24 64 104 31 74 118 22 62 102 35 80 125 34 78 123 24 65 106 22 62 102 26 67 108 90 78 117
94 78 116 23 64 104 29 72 115 36 82 127 26 68 109 24 64 104 89 78 117 83 79 119 27 69 111 27 68 110 94 78 116 28 70 112 38 84 130 25 65 106 33 77 121 35 80 124
26 68 109 37 83 129 36 81 126 32 75 119 33 77 122 33 77 121 35 80 125 99 77 114 24 64 104 26 67 109 26 67 109 36 81 126 38 84 130 37 83 128 30 73 115 25 66 107
22 62 102 35 80 125 36 82 127 32 75 119 32 76 120 27 69 111 71 80 122 50 83 128 35 80 125 38 84 130 35 80 124 94 78 116 24 64 104 27 69 110 57 82 126 24 65 106
27 69 110 37 83 129 30 73 117 38 84 130 37 83 129 28 70 112 37 82 128 80 79 119 36 81 126 38 84 130 28 70 113 34 79 123 27 68 110 71 80 122 28 70 112 31 74 117
86 79 118 32 75 119 25 66 107 27 68 110 28 70 113 52 83 127 38 85 131 27 68 110 24 65 106 71 80 122 38 84 130 27 69 111 27 68 110 99 77 114 24 64 105 33 78 122
23 64 104 25 66 107 47 84 129 64 81 124 109 76 111 61 82 125 24 65 106 30 73 116 25 66 107 33 78 122 33 77 121 33 77 120 22 62 101 82 86 84 79 83 81 77 81 79
79 83 81 95 99 97 85 89 87 94 98 96 87 91 89 92 96 94 96 100 98 85 89 87 88 92 90 75 79 77 96 100 98 90 94 92 86 90 88 91 95 93 90 94 92 91 95 93
96 100 98 77 81 79 80 84 82 97 101 99 91 95 93 87 91 89 83 87 85 92 96 94 76 80 78 96 100 98 93 97 95 77 81 79 88 92 90 76 80 78 93 97 95 93 97 95
89 93 91 95 99 97 84 88 86 95 99 97 84 88 86 77 81 79 90 94 92 93 97 95 84 88 86 96 100 98 74 78 76 84 88 86 77 81 79 94 98 96 94 98 96 92 96 94
96 100 98 96 100 98 82 86 84 94 98 96 83 87 85 80 84 82 85 89 87 75 79 77 78 82 80 93 97 95 95 99 97 94 98 96 82 86 84 84 88 86 90 94 92 89 93 91
79 83 81 92 96 94 86 90 88 77 81 79 88 92 90 96 100 98 83 87 85 79 83 81 86 90 88 75 79 77 95 99 97 74 78 76 83 87 85 96 100 98 98 102 100 22 26 27
22 26 27 22 26 27 22 26 27 22 26 27 22 26 27 22 26 27 22 26 27 22 26 27 22 26 27 22 26 27 22 26 27 22 26 27 22 26 27 22 26 27 22 26 27 22 26 27
22 26 27 22 26 27 22 26 27 22 26 27 22 26 27 22 26 27 22 26 27 22 26 27 22 26 27 22 26 27 22 26 27 22 26 27 22 26 27 22 26 27 22 26 27 22 26 27
22 26 27 22 26 27 22 26 27 22 26 27 22 26 27 22 26 27 22 26 27 22 26 27 22 26 27 22 26 27 22 26 27 22 26 27 22 26 27 22 26 27 22 26 27 22 26 27
22 26 27 22 26 27 22 26 27 80 84 84 79 83 83 76 80 80 22 26 27 79 83 83 82 86 86 84 88 88 71 75 75 22 26 27 76 80 80 89 93 93 91 95 95 80 84 84
38 84 129 39 85 130 35 80 124 30 72 114 39 85 131 28 69 111 27 67 108 38 84 129 26 67 107 37 82 127 50 86 131 25 65 105 28 69 111 38 84 129 39 85 131 29 70 112
34 78 122 40 86 133 40 86 133 35 80 124 34 77 121 36 80 124 25 65 106 39 84 130 28 69 111 34 78 122 28 69 111 34 78 122 40 86 132 34 77 121 38 83 128 32 74 117
32 75 118 26 66 107 65 84 127 34 78 122 60 85 129 79 82 123 95 80 119 28 70 112 28 69 110 74 83 125 36 80 125 27 68 109 39 85 130 26 66 107 37 82 127 31 74 116
53 86 130 39 85 131 28 69 110 89 81 120 28 69 110 40 86 132 39 85 130 38 83 128 37 82 127 35 79 123 38 83 129 35 80 124 34 78 122 37 82 127 30 72 114 33 77 120
29 71 113 35 79 123 31 74 117 38 83 128 77 83 124 29 71 113 37 82 128 26 67 108 39 85 131 28 70 111 35 79 123 28 69 110 26 66 107 86 81 121 89 81 120 31 73 116
37 82 128 40 87 133 28 69 110 36 80 125 113 78 114 32 75 118 31 74 117 97 80 118 38 84 129 26 66 107 31 74 116 27 68 110 49 86 131 34 78 121 34 77 121 26 66 106
26 67 107 31 74 116 35 79 123 98 80 118 38 84 129 115 78 113 99 80 118 33 76 120 31 73 116 35 79 123 32 75 118 106 79 116 30 73 115 83 87 85 93 97 95 89 93 91
96 100 98 89 93 91 75 79 77 76 80 78 88 92 90 87 91 89 86 90 88 97 101 99 75 79 77 88 92 90 84 88 86 88 92 90 89 93 91 77 81 79 82 86 84 84 88 86
83 87 85 82 86 84 77 81 79 80 84 82 75 79 77 80 84 82 84 88 86 96 100 98 77 81 79 88 92 90 95 99 97 90 94 92 89 93 91 89 93 91 84 88 86 75 79 77
93 97 95 74 78 76 95 99 97 78 82 80 86 90 88 90 94 92 76 80 78 81 85 83 85 89 87 93 97 95 94 98 96 95 99 97 94 98 96 78 82 80 80 84 82 88 92 90
85 89 87 96 100 98 77 81 79 76 80 78 85 89 87 91 95 93 95 99 97 81 85 83 80 84 82 85 89 87 92 96 94 81 85 83 88 92 90 81 85 83 79 83 81 85 89 87
75 79 77 89 93 91 76 80 78 90 94 92 90 94 92 92 96 94 79 83 81 95 99 97 89 93 91 86 90 88 83 87 85 85 89 87 92 96 94 97 101 99 98 102 100 22 26 27
22 26 27 22 26 27 22 26 27 22 26 27 22 26 27 22 26 27 22 26 27 22 26 27 22 26 27 22 26 27 22 26 27 22 26 27 22 26 27 22 26 27 22 26 27 22 26 27
22 26 27 22 26 27 22 26 27 22 26 27 22 26 27 22 26 27 22 26 27 22 26 27 22 26 27 22 26 27 22 26 27 22 26 27 22 26 27 22 26 27 22 26 27 22 26 27
22 26 27 22 26 27 22 26 27 22 26 27 22 26 27 22 26 27 22 26 27 22 26 27 22 26 27 22 26 27 22 26 27 22 26 27 22 26 27 22 26 27 22 26 27 22 26 27
22 26 27 22 26 27 22 26 27 90 94 94 91 95 95 88 92 92 22 26 27 91 95 95 72 76 76 72 76 76 88 92 92 22 26 27 91 95 95 77 81 81 86 90 90 82 86 86
27 67 108 40 86 131 34 77 121 39 85 130 82 84 125 36 80 124 42 89 135 40 85 131 27 68 108 39 84 130 102 82 120 32 75 117 27 67 107 35 78 122 31 73 116 31 73 115
100 82 120 37 82 126 34 77 120 49 88 134 34 77 121 29 70 111 40 86 131 96 82 121 38 83 128 40 85 131 34 77 120 35 79 123 40 85 131 114 80 116 29 70 111 27 68 108
30 71 113 41 87 133 30 72 114 41 87 134 29 70 112 35 78 122 38 82 127 35 78 122 27 67 108 29 70 111 33 76 120 29 71 112 42 88 134 36 80 125 34 77 120 34 77 121
38 83 128 32 75 117 40 86 132 43 89 136 118 79 115 92 83 122 90 83 123 37 81 125 105 81 119 92 83 122 31 73 115 40 85 131 39 85 130 38 83 128 41 88 134 31 73 116
97 82 121 26 66 107 77 85 126 42 88 135 28 69 110 112 80 117 30 71 113 32 75 118 97 82 121 36 80 124 37 82 127 57 87 132 33 76 119 31 73 115 68 86 129 42 88 135
30 72 114 35 79 123 35 79 122 36 80 124 36 80 124 37 82 126 37 82 126 26 66 107 27 68 109 35 78 122 32 74 116 99 82 120 36 81 125 35 79 123 35 78 122 32 74 116
41 86 132 35 79 122 28 69 110 27 67 108 33 76 119 27 67 107 35 79 123 83 84 125 55 87 132 41 87 134 37 82 127 94 82 122 30 71 113 79 83 81 79 83 81 97 101 99
97 101 99 93 97 95 83 87 85 76 80 78 92 96 94 83 87 85 80 84 82 85 89 87 81 85 83 75 79 77 91 95 93 86 90 88 88 92 90 77 81 79 95 99 97 98 102 100
92 96 94 87 91 89 96 100 98 81 85 83 81 85 83 94 98 96 90 94 92 96 100 98 75 79 77 75 79 77 88 92 90 94 98 96 78 82 80 78 82 80 87 91 89 76 80 78
92 96 94 92 96 94 87 91 89 76 80 78 94 98 96 95 99 97 94 98 96 88 92 90 83 87 85 79 83 81 86 90 88 78 82 80 83 87 85 79 83 81 81 85 83 82 86 84
95 99 97 88 92 90 78 82 80 93 97 95 90 94 92 96 100 98 90 94 92 81 85 83 78 82 80 86 90 88 93 97 95 76 80 78 94 98 96 80 84 82 90 94 92 97 101 99
97 101 99 79 83 81 80 84 82 87 91 89 91 95 93 96 100 98 87 91 89 85 89 87 91 95 93 84 88 86 93 97 95 93 97 95 85 89 87 74 78 76 82 86 84 22 26 27
22 26 27 22 26 27 22 26 27 22 26 27 22 26 27 22 26 27 22 26 27 22 26 27 22 26 27 22 26 27 22 26 27 22 26 27 22 26 27 22 26 27 22 26 27 22 26 27
22 26 27 22 26 27 22 26 27 22 26 27 22 26 27 22 26 27 22 26 27 22 26 27 22 26 27 22 26 27 22 26 27 22 26 27 22 26 27 22 26 27 22 26 27 22 26 27
22 26 27 22 26 27 22 26 27 22 26 27 22 26 27 22 26 27 22 26 27 22 26 27 22 26 27 22 26 27 22 26 27 22 26 27 22 26 27 22 26 27 22 26 27 22 26 27
22 26 27 22 26 27 22 26 27 79 83 83 71 75 75 84 88 88 22 26 27 69 73 73 72 76 76 80 84 84 89 93 93 22 26 27 82 86 86 80 84 84 74 78 78 91 95 95
32 74 117 30 71 113 30 71 112 44 91 137 102 84 123 119 82 118 31 73 115 33 75 117 87 86 127 32 74 116 33 75 118 42 88 134 29 70 111 62 89 134 29 69 110 40 85 130
43 89 135 99 85 124 33 75 118 84 86 128 85 86 127 32 73 115 43 90 136 36 80 123 40 85 130 42 88 134 42 87 133 34 76 119 38 82 126 30 70 112 68 89 132 39 84 128
40 85 131 35 78 121 38 83 127 46 91 138 61 89 134 40 85 130 35 77 120 36 80 123 29 70 111 31 72 114 37 81 125 39 84 129 42 87 133 39 84 129 29 70 111 42 88 134
38 82 127 29 69 110 39 84 128 42 87 133 41 86 132 41 87 132 40 85 131 44 90 136 43 90 136 86 86 127 40 85 130 38 83 127 93 85 125 44 91 138 36 79 122 37 80 124
49 91 137 42 88 133 32 73 115 39 83 128 31 72 114 35 78 121 35 78 121 52 91 136 33 75 117 33 76 118 31 72 113 33 76 118 32 74 116 31 72 114 36 80 124 105 84 122
29 70 111 39 83 128 34 76 119 39 83 128 114 83 120 44 90 137 43 90 136 41 86 132 32 74 116 44 90 137 97 85 124 40 86 131 41 87 132 36 79 123 30 71 113 115 83 119
44 90 136 32 73 115 87 86 127 122 82 117 41 86 132 33 76 118 40 85 130 40 85 131 32 74 117 39 83 128 53 90 136 29 70 111 31 73 115 79 83 81 94 98 96 93 97 95
77 81 79 93 97 95 98 102 100 80 84 82 76 80 78 93 97 95 78 82 80 81 85 83 78 82 80 74 78 76 83 87 85 80 84 82 89 93 91 80 84 82 93 97 95 84 88 86
84 88 86 83 87 85 86 90 88 95 99 97 91 95 93 91 95 93 89 93 91 84 88 86 93 97 95 75 79 77 83 87 85 87 91 89 85 89 87 78 82 80 94 98 96 75 79 77
74 78 76 91 95 93 77 81 79 91 95 93 95 99 97 86 90 88 81 85 83 93 97 95 81 85 83 76 80 78 79 83 81 96 100 98 84 88 86 77 81 79 89 93 91 82 86 84
93 97 95 90 94 92 83 87 85 84 88 86 94 98 96 80 84 82 75 79 77 92 96 94 81 85 83 93 97 95 89 93 91 77 81 79 89 93 91 97 101 99 78 82 80 96 100 98
88 92 90 74 78 76 78 82 80 83 87 85 92 96 94 82 86 84 85 89 87 95 99 97 92 96 94 92 96 94 78 82 80 76 80 78 86 90 88 80 84 82 94 98 96 22 26 27
22 26 27 22 26 27 22 26 27 22 26 27 22 26 27 22 26 27 22 26 27 22 26 27 22 26 27 22 26 27 22 26 27 22 26 27 22 26 27 22 26 27 22 26 27 22 26 27
22 26 27 22 26 27 22 26 27 22 26 27 22 26 27 22 26 27 22 26 27 22 26 27 22 26 27 22 26 27 22 26 27 22 26 27 22 26 27 22 26 27 22 26 27 22 26 27
22 26 27 22 26 27 22 26 27 22 26 27 22 26 27 22 26 27 22 26 27 22 26 27 22 26 27 22 26 27 22 26 27 22 26 27 22 26 27 22 26 27 22 26 27 22 26 27
22 26 27 22 26 27 22 26 27 72 76 76 82 86 86 92 96 96 22 26 27 86 90 90 71 75 75 90 94 94 73 77 77 22 26 27 82 86 86 91 95 95 85 89 89 80 84 84
38 81 125 45 91 137 42 87 132 39 83 127 36 78 120 34 75 117 32 72 113 33 73 115 40 84 128 58 94 140 47 93 140 42 87 132 48 95 142 41 85 129 43 88 134 44 90 136
42 87 132 34 75 117 47 93 140 44 90 136 36 78 121 32 73 114 35 77 119 43 88 134 34 75 117 40 84 128 35 77 119 60 94 140 44 89 135 32 72 113 47 93 140 43 88 133
75 92 135 35 76 118 43 88 134 33 74 116 40 83 127 37 80 123 42 87 132 47 93 140 38 81 124 34 75 117 41 85 129 35 76 118 122 86 123 43 88 134 68 93 137 38 81 125
40 83 128 34 76 118 46 92 138 45 91 138 87 90 132 115 87 125 44 89 134 92 90 131 33 74 115 50 95 142 42 86 131 41 85 130 42 87 132 39 83 127 106 88 127 44 89 135
88 90 132 112 87 125 40 84 129 45 90 136 36 78 121 81 91 134 41 85 130 107 88 127 33 73 115 41 85 129 41 85 129 63 93 139 42 86 131 41 85 130 33 73 115 41 85 130
33 74 116 122 86 123 66 93 138 38 80 124 76 92 135 42 87 132 38 80 124 114 87 125 39 82 126 40 84 128 36 79 121 96 89 130 40 84 129 33 74 115 48 95 142 38 81 125
60 94 140 44 89 135 73 92 136 34 76 117 111 87 126 36 78 120 107 88 127 121 86 123 46 92 138 60 94 140 41 85 130 34 75 117 44 89 135 87 91 89 79 83 81 94 98 96
75 79 77 97 101 99 79 83 81 94 98 96 96 100 98 78 82 80 75 79 77 93 97 95 87 91 89 91 95 93 78 82 80 82 86 84 95 99 97 91 95 93 75 79 77 85 89 87
80 84 82 75 79 77 76 80 78 89 93 91 90 94 92 90 94 92 90 94 92 91 95 93 93 97 95 87 91 89 91 95 93 96 100 98 77 81 79 78 82 80 88 92 90 85 89 87
97 101 99 92 96 94 74 78 76 77 81 79 86 90 88 85 89 87 92 96 94 87 91 89 81 85 83 76 80 78 93 97 95 80 84 82 90 94 92 81 85 83 85 89 87 96 100 98
75 79 77 96 100 98 74 78 76 78 82 80 79 83 81 86 90 88 96 100 98 76 80 78 89 93 91 75 79 77 78 82 80 93 97 95 76 80 78 87 91 89 96 100 98 95 99 97
93 97 95 75 79 77 77 81 79 85 89 87 90 94 92 95 99 97 76 80 78 91 95 93 94 98 96 76 80 78 94 98 96 85 89 87 75 79 77 85 89 87 79 83 81 22 26 27
22 26 27 22 26 27 22 26 27 22 26 27 22 26 27 22 26 27 22 26 27 22 26 27 22 26 27 22 26 27 22 26 27 22 26 27 22 26 27 22 26 27 22 26 27 22 26 27
22 26 27 22 26 27 22 26 27 22 26 27 22 26 27 22 26 27 22 26 27 22 26 27 22 26 27 22 26 27 22 26 27 22 26 27 22 26 27 22 26 27 22 26 27 22 26 27
22 26 27 22 26 27 22 26 27 22 26 27 22 26 27 22 26 27 22 26 27 22 26 27 22 26 27 22 26 27 22 26 27 22 26 27 22 26 27 22 26 27 22 26 27 22 26 27
22 26 27 22 26 27 22 26 27 92 96 96 74 78 78 73 77 77 22 26 27 88 92 92 82 86 86 82 86 86 93 97 97 22 26 27 72 76 76 90 94 94 69 73 73 88 92 92
43 86 130 47 92 138 41 83 127 40 82 124 47 93 139 46 90 136 41 83 126 80 97 142 59 100 147 53 101 149 52 99 147 51 98 145 51 98 145 128 91 129 72 98 144 51 98 145
63 99 146 39 81 123 43 87 131 42 85 128 37 78 120 53 100 148 38 80 122 80 97 142 48 94 140 53 100 148 43 86 130 45 89 133 42 85 128 41 83 126 95 95 138 50 96 142
50 97 144 47 92 138 48 93 139 47 92 138 41 84 127 46 90 136 79 97 142 42 85 128 53 100 148 40 83 126 47 91 137 44 87 132 42 85 128 51 97 145 47 92 138 47 93 138
51 98 145 119 92 131 42 85 129 42 84 128 37 78 120 50 97 144 47 91 137 41 83 127 47 92 138 44 88 132 62 100 147 40 82 124 46 90 136 61 100 147 51 97 145 45 89 134
46 90 135 53 101 149 50 96 143 42 85 129 49 95 142 102 95 136 99 95 137 48 93 139 50 96 142 106 94 134 44 87 131 49 95 141 39 80 122 37 78 120 52 99 147 76 98 143
44 88 133 37 78 120 51 98 145 37 78 120 106 94 135 48 93 139 38 79 122 39 81 123 41 83 126 46 91 136 44 88 132 53 100 148 46 91 136 48 94 140 47 92 138 121 92 130
99 95 136 43 86 130 46 90 135 40 82 125 42 85 129 41 83 126 49 95 142 48 93 140 53 101 149 47 92 137 38 80 122 40 82 125 50 96 143 79 83 81 75 79 77 84 88 86
75 79 77 85 89 87 80 84 82 92 96 94 80 84 82 78 82 80 94 98 96 82 86 84 89 93 91 81 85 83 76 80 78 93 97 95 92 96 94 88 92 90 92 96 94 91 95 93
74 78 76 75 79 77 93 97 95 97 101 99 85 89 87 90 94 92 97 101 99 90 94 92 79 83 81 76 80 78 83 87 85 77 81 79 82 86 84 85 89 87 87 91 89 77 81 79
85 89 87 83 87 85 78 82 80 77 81 79 77 81 79 91 95 93 93 97 95 95 99 97 77 81 79 90 94 92 85 89 87 77 81 79 89 93 91 76 80 78 76 80 78 77 81 79
76 80 78 76 80 78 92 96 94 85 89 87 74 78 76 92 96 94 75 79 77 76 80 78 95 99 97 77 81 79 80 84 82 87 91 89 94 98 96 95 99 97 93 97 95 90 94 92
89 93 91 79 83 81 80 84 82 97 101 99 92 96 94 77 81 79 84 88 86 80 84 82 96 100 98 77 81 79 85 89 87 87 91 89 97 101 99 74 78 76 95 99 97 22 26 27
22 26 27 22 26 27 22 26 27 22 26 27 22 26 27 22 26 27 22 26 27 22 26 27 22 26 27 22 26 27 22 26 27 22 26 27 22 26 27 22 26 27 22 26 27 22 26 27
22 26 27 22 26 27 22 26 27 22 26 27 22 26 27 22 26 27 22 26 27 22 26 27 22 26 27 22 26 27 22 26 27 22 26 27 22 26 27 22 26 27 22 26 27 22 26 27
22 26 27 22 26 27 22 26 27 22 26 27 22 26 27 22 26 27 22 26 27 22 26 27 22 26 27 22 26 27 22 26 27 22 26 27 22 26 27 22 26 27 22 26 27 22 26 27
22 26 27 22 26 27 22 26 27 78 82 82 78 82 82 77 81 81 22 26 27 92 96 96 71 75 75 76 80 80 77 81 81 22 26 27 83 87 87 77 81 81 83 87 87 83 87 87
57 104 153 49 93 138 53 98 144 69 106 154 58 105 154 47 90 134 130 98 137 43 84 127 58 105 153 57 103 151 48 91 135 44 86 130 103 102 144 52 97 143 58 106 154 44 85 128
56 102 150 50 94 139 43 85 128 56 103 151 55 101 149 105 101 144 97 102 146 54 99 146 120 100 140 53 99 146 126 99 138 51 96 142 57 104 153 51 95 141 45 87 130 106 101 143
47 90 134 53 98 144 57 104 153 96 102 146 122 99 139 46 89 133 44 86 129 50 94 139 43 85 127 49 93 138 58 105 154 47 91 135 52 97 143 53 98 145 54 100 147 54 100 147
59 107 156 48 91 135 54 99 146 49 93 138 46 89 133 47 90 135 48 91 135 47 90 134 46 89 133 54 100 148 50 94 140 96 102 146 49 93 138 49 93 138 55 101 149 52 96 142
89 103 148 47 90 135 53 98 145 47 90 134 55 101 148 56 103 151 46 89 133 58 106 154 54 99 146 53 98 144 46 89 133 46 89 133 53 98 145 46 88 132 49 93 139 82 104 150
57 104 153 53 98 145 44 86 129 50 95 140 44 86 129 46 88 132 57 104 153 57 104 152 45 86 130 79 105 151 44 85 128 53 98 145 55 101 148 48 91 136 46 89 133 53 99 145
45 88 131 50 94 139 52 97 144 59 107 156 48 91 136 54 100 147 44 86 129 127 99 138 70 106 153 56 103 151 53 98 145 53 98 145 57 104 152 88 92 90 76 80 78 78 82 80
86 90 88 77 81 79 84 88 86 91 95 93 93 97 95 93 97 95 93 97 95 81 85 83 74 78 76 84 88 86 79 83 81 81 85 83 93 97 95 89 93 91 85 89 87 97 101 99
95 99 97 75 79 77 77 81 79 85 89 87 80 84 82 77 81 79 87 91 89 79 83 81 82 86 84 80 84 82 79 83 81 92 96 94 86 90 88 84 88 86 83 87 85 85 89 87
87 91 89 79 83 81 95 99 97 84 88 86 87 91 89 77 81 79 80 84 82 88 92 90 93 97 95 82 86 84 95 99 97 87 91 89 85 89 87 78 82 80 89 93 91 75 79 77
97 101 99 79 83 81 88 92 90 91 95 93 84 88 86 76 80 78 92 96 94 87 91 89 93 97 95 92 96 94 88 92 90 88 92 90 84 88 86 87 91 89 86 90 88 89 93 91
85 89 87 95 99 97 85 89 87 81 85 83 85 89 87 98 102 100 79 83 81 76 80 78 77 81 79 94 98 96 82 86 84 77 81 79 89 93 91 95 99 97 83 87 85 22 26 27
22 26 27 22 26 27 22 26 27 22 26 27 22 26 27 22 26 27 22 26 27 22 26 27 22 26 27 22 26 27 22 26 27 22 26 27 22 26 27 22 26 27 22 26 27 22 26 27
22 26 27 22 26 27 22 26 27 22 26 27 22 26 27 22 26 27 22 26 27 22 26 27 22 26 27 22 26 27 22 26 27 22 26 27 22 26 27 22 26 27 22 26 27 22 26 27
22 26 27 22 26 27 22 26 27 22 26 27 22 26 27 22 26 27 22 26 27 22 26 27 22 26 27 22 26 27 22 26 27 22 26 27 22 26 27 22 26 27 22 26 27 22 26 27
22 26 27 22 26 27 22 26 27 91 95 95 93 97 97 87 91 91 22 26 27 88 92 92 75 79 79 76 80 80 87 91 91 22 26 27 88 92 92 74 78 78 72 76 76 71 75 75
52 95 139 60 106 153 50 92 136 110 107 151 67 113 162 54 98 144 53 96 141 82 111 158 142 103 142 59 106 153 59 105 152 92 110 156 57 103 149 53 96 141 58 104 151 125 106 147
49 91 135 52 95 140 59 105 152 52 95 139 56 100 147 56 101 148 102 108 153 52 95 139 59 105 153 58 104 151 59 105 153 49 91 134 67 113 163 52 95 140 64 111 161 63 111 160
61 108 157 49 91 134 62 109 158 64 111 161 56 100 147 116 107 149 55 99 145 51 93 138 56 101 147 51 93 138 61 108 156 51 93 137 53 97 142 54 97 143 121 106 148 64 112 162
57 102 148 52 95 140 60 107 155 53 97 142 59 105 152 54 98 144 52 95 139 62 109 158 65 113 163 63 111 160 60 106 153 62 110 158 61 108 156 54 98 143 50 93 137 55 99 145
62 109 157 63 110 159 65 113 163 53 97 142 68 113 162 50 93 137 58 104 151 62 110 159 64 112 161 57 102 149 62 110 158 142 103 142 58 103 151 49 91 134 55 100 146 60 106 154
49 91 135 63 110 159 61 108 156 52 96 141 58 103 150 104 108 152 63 110 160 62 109 158 60 106 154 59 104 152 58 104 151 57 101 148 60 107 155 113 107 150 63 110 159 78 111 159
69 113 162 57 101 148 90 110 156 129 105 145 51 93 137 50 92 136 89 110 156 61 108 157 73 112 161 51 93 137 61 107 156 57 102 149 50 93 137 92 96 94 80 84 82 76 80 78
97 101 99 91 95 93 86 90 88 81 85 83 90 94 92 96 100 98 87 91 89 97 101 99 87 91 89 85 89 87 88 92 90 84 88 86 84 88 86 87 91 89 79 83 81 78 82 80
86 90 88 81 85 83 86 90 88 81 85 83 76 80 78 80 84 82 74 78 76 86 90 88 81 85 83 92 96 94 77 81 79 91 95 93 87 91 89 90 94 92 97 101 99 86 90 88
93 97 95 85 89 87 82 86 84 82 86 84 89 93 91 80 84 82 88 92 90 77 81 79 86 90 88 91 95 93 77 81 79 83 87 85 87 91 89 88 92 90 95 99 97 86 90 88
81 85 83 98 102 100 93 97 95 86 90 88 81 85 83 88 92 90 84 88 86 86 90 88 89 93 91 96 100 98 92 96 94 94 98 96 79 83 81 75 79 77 90 94 92 86 90 88
96 100 98 90 94 92 94 98 96 90 94 92 98 102 100 83 87 85 84 88 86 88 92 90 84 88 86 74 78 76 89 93 91 85 89 87 86 90 88 90 94 92 90 94 92 22 26 27
22 26 27 22 26 27 22 26 27 22 26 27 22 26 27 22 26 27 22 26 27 22 26 27 22 26 27 22 26 27 22 26 27 22 26 27 22 26 27 22 26 27 22 26 27 22 26 27
22 26 27 22 26 27 22 26 27 22 26 27 22 26 27 22 26 27 22 26 27 22 26 27 22 26 27 22 26 27 22 26 27 22 26 27 22 26 27 22 26 27 22 26 27 22 26 27
22 26 27 22 26 27 22 26 27 22 26 27 22 26 27 22 26 27 22 26 27 22 26 27 22 26 27 22 26 27 22 26 27 22 26 27 22 26 27 22 26 27 22 26 27 22 26 27
22 26 27 22 26 27 22 26 27 78 82 82 80 84 84 84 88 88 22 26 27 89 93 93 73 77 77 74 78 78 91 95 95 22 26 27 70 74 74 89 93 93 71 75 75 71 75 75
57 101 146 119 111 154 62 108 156 67 115 165 108 112 157 58 102 148 59 104 151 53 95 140 61 107 155 67 115 164 55 98 143 57 101 147 54 96 141 58 102 148 68 116 167 53 95 139
57 101 147 68 117 167 53 95 139 59 104 151 80 116 165 55 98 143 68 116 166 59 104 150 63 109 157 60 105 152 55 97 142 68 116 166 60 104 151 55 98 142 55 98 143 55 98 143
68 116 166 65 112 161 104 113 158 59 103 150 134 109 150 67 114 164 56 99 145 56 100 145 130 109 151 56 99 144 64 110 159 60 104 151 65 112 161 68 116 166 65 112 160 66 113 163
107 112 157 58 102 149 67 115 165 57 101 147 62 108 156 123 110 153 58 102 148 57 101 147 58 103 149 67 115 165 59 104 150 57 101 146 57 101 147 60 105 152 66 114 164 66 114 163
63 109 157 124 110 152 68 116 166 60 105 152 58 102 148 63 109 158 55 98 143 67 115 165 119 111 154 68 116 167 58 102 148 57 101 147 97 114 160 114 111 155 117 111 154 57 101 146
59 103 149 64 110 159 54 97 141 58 102 148 113 112 155 66 113 163 63 110 158 118 111 154 52 94 138 64 111 160 56 100 146 61 106 153 115 111 155 66 113 163 55 98 143 55 98 143
61 107 155 63 110 158 57 101 146 67 115 165 95 114 160 65 112 161 52 94 138 57 101 147 63 109 157 57 101 147 59 103 150 58 102 148 56 100 146 86 90 88 95 99 97 77 81 79
83 87 85 93 97 95 94 98 96 78 82 80 80 84 82 92 96 94 97 101 99 79 83 81 83 87 85 94 98 96 92 96 94 74 78 76 90 94 92 91 95 93 79 83 81 78 82 80
77 81 79 89 93 91 76 80 78 84 88 86 78 82 80 94 98 96 82 86 84 81 85 83 97 101 99 89 93 91 78 82 80 94 98 96 80 84 82 84 88 86 86 90 88 80 84 82
81 85 83 78 82 80 94 98 96 82 86 84 89 93 91 75 79 77 85 89 87 82 86 84 94 98 96 89 93 91 89 93 91 89 93 91 94 98 96 80 84 82 96 100 98 90 94 92
89 93 91 89 93 91 80 84 82 91 95 93 96 100 98 79 83 81 78 82 80 97 101 99 82 86 84 84 88 86 81 85 83 96 100 98 80 84 82 74 78 76 96 100 98 92 96 94
77 81 79 79 83 81 93 97 95 89 93 91 78 82 80 96 100 98 77 81 79 81 85 83 74 78 76 91 95 93 78 82 80 97 101 99 81 85 83 90 94 92 81 85 83 22 26 27
22 26 27 22 26 27 22 26 27 22 26 27 22 26 27 22 26 27 22 26 27 22 26 27 22 26 27 22 26 27 22 26 27 22 26 27 22 26 27 22 26 27 22 26 27 22 26 27
22 26 27 22 26 27 22 26 27 22 26 27 22 26 27 22 26 27 22 26 27 22 26 27 22 26 27 22 26 27 22 26 27 22 26 27 22 26 27 22 26 27 22 26 27 22 26 27
22 26 27 22 26 27 22 26 27 22 26 27 22 26 27 22 26 27 22 26 27 22 26 27 22 26 27 22 26 27 22 26 27 22 26 27 22 26 27 22 26 27 22 26 27 22 26 27
22 26 27 22 26 27 22 26 27 86 90 90 83 87 87 93 97 97 22 26 27 74 78 78 71 75 75 72 76 76 71 75 75 22 26 27 82 86 86 83 87 87 77 81 81 84 88 88
102 114 160 53 96 140 54 96 141 132 110 151 106 113 158 75 117 167 65 112 161 53 95 139 60 105 152 62 107 155 61 106 153 66 113 162 58 103 149 62 107 155 67 115 165 64 110 158
65 112 161 137 109 150 68 115 165 67 115 165 63 110 158 67 115 165 53 95 139 61 106 154 93 115 162 54 97 142 139 109 149 61 106 153 68 116 166 61 106 153 65 112 160 60 104 151
99 114 160 60 105 152 63 109 157 66 114 163 66 114 163 67 114 164 121 111 154 66 114 163 61 106 154 59 103 150 56 99 144 60 105 152 60 105 152 55 97 142 58 102 148 62 107 155
57 100 146 67 114 164 55 98 143 65 112 160 64 111 159 68 116 166 60 104 151 66 113 162 126 111 153 68 116 166 63 110 158 67 115 164 60 105 152 61 106 154 66 113 162 56 99 144
64 111 159 65 112 160 59 103 149 55 98 143 130 110 152 131 110 151 63 110 158 56 99 144 53 95 140 60 105 151 55 98 143 63 109 157 62 107 155 121 111 154 60 105 151 54 97 142
65 112 161 66 113 162 56 99 145 67 115 164 58 103 149 59 103 150 60 105 152 66 113 162 124 111 153 65 112 161 57 101 147 66 114 163 62 108 155 62 108 155 62 108 156 61 106 154
60 104 151 68 116 166 59 104 150 57 101 147 56 100 145 64 111 160 69 117 168 55 98 143 106 113 158 61 107 154 65 112 161 66 113 162 55 99 144 81 85 83 93 97 95 95 99 97
93 97 95 87 91 89 77 81 79 80 84 82 96 100 98 78 82 80 79 83 81 95 99 97 87 91 89 82 86 84 88 92 90 97 101 99 80 84 82 80 84 82 84 88 86 86 90 88
85 89 87 92 96 94 89 93 91 76 80 78 79 83 81 75 79 77 95 99 97 88 92 90 88 92 90 88 92 90 92 96 94 92 96 94 92 96 94 93 97 95 90 94 92 96 100 98
82 86 84 83 87 85 96 100 98 78 82 80 94 98 96 86 90 88 74 78 76 86 90 88 79 83 81 92 96 94 81 85 83 82 86 84 79 83 81 83 87 85 97 101 99 84 88 86
80 84 82 89 93 91 87 91 89 88 92 90 74 78 76 93 97 95 76 80 78 86 90 88 75 79 77 91 95 93 79 83 81 92 96 94 90 94 92 75 79 77 88 92 90 88 92 90
90 94 92 76 80 78 81 85 83 87 91 89 98 102 100 88 92 90 86 90 88 95 99 97 78 82 80 80 84 82 78 82 80 93 97 95 94 98 96 97 101 99 86 90 88 22 26 27
22 26 27 22 26 27 22 26 27 22 26 27 22 26 27 22 26 27 22 26 27 22 26 27 22 26 27 22 26 27 22 26 27 22 26 27 22 26 27 22 26 27 22 26 27 22 26 27
22 26 27 22 26 27 22 26 27 22 26 27 22 26 27 22 26 27 22 26 27 22 26 27 22 26 27 22 26 27 22 26 27 22 26 27 22 26 27 22 26 27 22 26 27 22 26 27
22 26 27 22 26 27 22 26 27 22 26 27 22 26 27 22 26 27 22 26 27 22 26 27 22 26 27 22 26 27 22 26 27 22 26 27 22 26 27 22 26 27 22 26 27 22 26 27
22 26 27 22 26 27 22 26 27 78 82 82 90 94 94 76 80 80 22 26 27 73 77 77 82 86 86 73 77 77 75 79 79 22 26 27 81 85 85 81 85 85 83 87 87 89 93 93
56 100 146 57 101 147 55 99 144 52 94 138 60 105 153 52 94 138 120 108 150 99 111 156 63 110 159 53 96 140 55 99 145 54 97 142 103 110 155 62 109 158 52 95 140 53 96 141
65 112 161 53 95 140 127 107 149 60 106 154 119 108 151 56 100 146 65 113 163 55 98 144 51 92 136 62 108 157 62 109 157 51 94 138 61 107 154 90 112 159 58 102 149 64 111 160
126 108 149 66 113 163 63 110 159 53 96 140 60 105 152 130 107 148 144 105 144 127 107 149 56 100 146 66 114 164 118 109 151 65 112 161 82 113 161 135 106 147 136 106 146 59 104 151
56 100 146 65 113 163 55 99 144 62 109 157 55 98 144 59 105 152 62 109 157 67 115 165 50 92 136 55 99 144 65 112 161 56 100 146 66 114 164 124 108 150 53 96 140 66 115 165
64 111 160 57 102 148 71 114 164 66 114 163 54 97 142 66 115 165 104 110 155 93 112 158 54 98 143 63 110 159 61 107 155 53 96 140 64 111 160 68 115 165 51 93 137 66 114 163
63 109 158 62 108 156 62 109 157 119 108 151 62 108 156 52 94 139 65 113 162 60 106 153 53 96 140 52 95 139 54 97 141 59 105 152 65 113 163 58 103 150 52 95 139 66 115 165
66 114 163 54 97 142 54 97 143 55 99 144 65 112 162 138 106 146 102 111 156 58 102 149 65 113 163 59 105 152 55 99 144 56 101 147 53 95 140 82 86 84 97 101 99 77 81 79
88 92 90 80 84 82 92 96 94 84 88 86 83 87 85 77 81 79 77 81 79 77 81 79 76 80 78 81 85 83 74 78 76 87 91 89 90 94 92 86 90 88 77 81 79 84 88 86
84 88 86 86 90 88 78 82 80 87 91 89 74 78 76 90 94 92 76 80 78 95 99 97 81 85 83 86 90 88 79 83 81 87 91 89 85 89 87 93 97 95 97 101 99 92 96 94
90 94 92 94 98 96 85 89 87 78 82 80 82 86 84 83 87 85 85 89 87 94 98 96 75 79 77 81 85 83 83 87 85 88 92 90 95 99 97 79 83 81 87 91 89 84 88 86
93 97 95 87 91 89 79 83 81 80 84 82 88 92 90 80 84 82 93 97 95 86 90 88 95 99 97 82 86 84 76 80 78 96 100 98 75 79 77 92 96 94 88 92 90 86 90 88
88 92 90 97 101 99 94 98 96 76 80 78 98 102 100 76 80 78 88 92 90 74 78 76 85 89 87 92 96 94 95 99 97 89 93 91 74 78 76 91 95 93 87 91 89 22 26 27
22 26 27 22 26 27 22 26 27 22 26 27 22 26 27 22 26 27 22 26 27 22 26 27 22 26 27 22 26 27 22 26 27 22 26 27 22 26 27 22 26 27 22 26 27 22 26 27
22 26 27 22 26 27 22 26 27 22 26 27 22 26 27 22 26 27 22 26 27 22 26 27 22 26 27 22 26 27 22 26 27 22 26 27 22 26 27 22 26 27 22 26 27 22 26 27
22 26 27 22 26 27 22 26 27 22 26 27 22 26 27 22 26 27 22 26 27 22 26 27 22 26 27 22 26 27 22 26 27 22 26 27 22 26 27 22 26 27 22 26 27 22 26 27
22 26 27 22 26 27 22 26 27 90 94 94 89 93 93 82 86 86 22 26 27 70 74 74 70 74 74 89 93 93 81 85 85 22 26 27 70 74 74 78 82 82 90 94 94 74 78 78
52 96 142 51 95 140 47 89 132 61 109 158 124 102 142 49 91 136 51 95 141 56 101 148 54 99 145 51 95 141 109 104 146 46 88 132 46 88 131 55 100 147 60 107 156 48 90 134
55 100 147 129 101 141 51 95 141 46 88 131 61 109 159 52 96 141 56 102 150 46 88 131 138 100 138 54 99 146 54 99 146 49 92 137 115 103 144 119 102 144 54 100 146 55 100 147
61 109 159 55 100 147 49 92 136 101 105 148 62 110 159 52 96 141 71 109 157 52 97 142 77 108 155 53 97 143 60 108 157 48 90 134 137 100 139 91 106 151 52 96 141 48 91 135
86 107 152 62 110 159 61 108 157 55 100 147 46 87 131 59 106 154 59 106 155 60 107 155 48 90 134 127 101 141 56 102 149 60 107 156 101 105 148 48 91 135 47 89 132 61 109 159
84 107 153 93 106 150 48 90 134 61 109 158 101 105 148 54 99 145 75 108 155 61 108 157 100 105 149 72 108 156 50 94 138 46 88 131 61 109 159 62 110 159 54 98 144 58 105 153
61 108 157 48 90 134 105 104 147 50 93 138 46 88 131 46 87 130 104 104 148 49 93 137 58 104 152 48 90 134 50 94 139 50 93 138 53 98 144 50 93 138 98 105 149 57 103 150
140 100 138 52 97 142 58 104 152 52 96 142 61 108 157 55 100 147 47 90 133 50 93 138 54 98 145 51 94 139 46 87 130 48 91 135 62 110 159 78 82 80 88 92 90 93 97 95
75 79 77 81 85 83 82 86 84 95 99 97 83 87 85 77 81 79 92 96 94 93 97 95 90 94 92 83 87 85 86 90 88 85 89 87 89 93 91 76 80 78 92 96 94 92 96 94
89 93 91 80 84 82 96 100 98 84 88 86 77 81 79 78 82 80 96 100 98 79 83 81 92 96 94 91 95 93 77 81 79 75 79 77 81 85 83 97 101 99 89 93 91 86 90 88
80 84 82 96 100 98 95 99 97 87 91 89 79 83 81 78 82 80 79 83 81 78 82 80 88 92 90 82 86 84 97 101 99 77 81 79 94 98 96 81 85 83 82 86 84 84 88 86
88 92 90 89 93 91 86 90 88 84 88 86 85 89 87 76 80 78 77 81 79 80 84 82 91 95 93 83 87 85 80 84 82 85 89 87 88 92 90 79 83 81 81 85 83 88 92 90
75 79 77 94 98 96 78 82 80 94 98 96 88 92 90 74 78 76 86 90 88 91 95 93 79 83 81 89 93 91 84 88 86 77 81 79 98 102 100 95 99 97 76 80 78 22 26 27
22 26 27 22 26 27 22 26 27 22 26 27 22 26 27 22 26 27 22 26 27 22 26 27 22 26 27 22 26 27 22 26 27 22 26 27 22 26 27 22 26 27 22 26 27 22 26 27
22 26 27 22 26 27 22 26 27 22 26 27 22 26 27 22 26 27 22 26 27 22 26 27 22 26 27 22 26 27 22 26 27 22 26 27 22 26 27 22 26 27 22 26 27 22 26 27
22 26 27 22 26 27 22 26 27 22 26 27 22 26 27 22 26 27 22 26 27 22 26 27 22 26 27 22 26 27 22 26 27 22 26 27 22 26 27 22 26 27 22 26 27 22 26 27
22 26 27 22 26 27 22 26 27 78 82 82 78 82 82 77 81 81 22 26 27 81 85 85 77 81 81 88 92 92 83 87 87 22 26 27 71 75 75 86 90 90 85 89 89 72 76 76
43 85 129 53 100 148 53 100 148 55 102 151 42 83 126 54 101 149 47 92 137 40 82 124 42 84 128 46 89 134 90 99 143 46 90 135 54 101 149 45 88 133 45 89 133 43 86 129
44 87 131 43 85 128 87 99 143 47 92 137 40 81 123 89 99 143 43 86 129 44 87 131 44 86 130 45 88 133 42 84 128 53 99 147 43 86 130 53 100 148 42 84 127 48 93 138
62 102 150 53 100 147 49 94 140 55 103 151 45 88 133 55 102 150 40 82 124 119 95 134 49 94 140 45 89 133 76 101 146 49 94 140 50 95 141 55 102 150 43 86 129 119 95 134
55 102 150 41 83 126 47 91 136 48 93 138 40 82 124 49 94 140 42 84 128 126 94 133 50 96 142 45 88 133 56 103 152 93 98 142 40 81 124 68 102 148 43 85 128 41 83 126
54 101 149 41 83 125 77 100 146 51 97 144 44 86 130 43 85 129 44 86 130 46 90 134 51 97 143 55 103 151 91 99 142 45 88 132 49 94 140 41 82 125 44 87 131 108 97 137
43 86 130 50 96 142 105 97 138 49 93 139 48 92 137 55 103 151 39 80 122 52 97 144 44 87 131 55 102 150 48 92 137 55 103 151 52 98 145 55 103 151 40 81 123 55 102 150
52 99 146 44 87 131 54 102 150 42 85 128 47 92 137 53 99 146 42 85 128 55 103 151 56 103 152 51 97 144 54 100 148 48 93 139 55 102 151 89 93 91 86 90 88 80 84 82
96 100 98 92 96 94 88 92 90 84 88 86 94 98 96 78 82 80 81 85 83 74 78 76 95 99 97 98 102 100 88 92 90 87 91 89 86 90 88 95 99 97 89 93 91 81 85 83
78 82 80 82 86 84 83 87 85 85 89 87 78 82 80 79 83 81 91 95 93 84 88 86 98 102 100 91 95 93 75 79 77 83 87 85 74 78 76 95 99 97 90 94 92 78 82 80
86 90 88 75 79 77 80 84 82 83 87 85 78 82 80 89 93 91 77 81 79 85 89 87 93 97 95 79 83 81 84 88 86 90 94 92 97 101 99 96 100 98 84 88 86 85 89 87
96 100 98 89 93 91 93 97 95 95 99 97 80 84 82 97 101 99 88 92 90 91 95 93 89 93 91 97 101 99 88 92 90 87 91 89 97 101 99 94 98 96 87 91 89 79 83 81
88 92 90 85 89 87 93 97 95 76 80 78 90 94 92 81 85 83 78 82 80 80 84 82 87 91 89 83 87 85 93 97 95 88 92 90 79 83 81 82 86 84 95 99 97 22 26 27
22 26 27 22 26 27 22 26 27 22 26 27 22 26 27 22 26 27 22 26 27 22 26 27 22 26 27 22 26 27 22 26 27 22 26 27 22 26 27 22 26 27 22 26 27 22 26 27
22 26 27 22 26 27 22 26 27 22 26 27 22 26 27 22 26 27 22 26 27 22 26 27 22 26 27 22 26 27 22 26 27 22 26 27 22 26 27 22 26 27 22 26 27 22 26 27
22 26 27 22 26 27 22 26 27 22 26 27 22 26 27 22 26 27 22 26 27 22 26 27 22 26 27 22 26 27 22 26 27 22 26 27 22 26 27 22 26 27 22 26 27 22 26 27
22 26 27 22 26 27 22 26 27 91 95 95 88 92 92 83 87 87 22 26 27 73 77 77 84 88 88 70 74 74 92 96 96 22 26 27 85 89 89 71 75 75 87 91 91 72 76 76
120 88 126 41 85 129 53 97 144 44 88 133 87 93 135 39 82 126 42 86 131 40 83 127 46 92 138 41 84 128 112 89 128 50 97 145 42 86 131 47 93 139 128 87 124 44 89 135
39 82 126 38 80 123 39 82 125 39 82 126 76 94 138 42 86 131 49 95 143 37 79 122 38 80 123 45 90 136 38 80 123 44 88 133 122 88 125 35 76 117 76 94 138 43 87 132
39 82 125 42 87 131 55 97 144 50 97 145 40 83 126 34 75 116 45 90 136 46 92 138 39 82 125 47 93 140 56 96 143 54 97 144 111 90 128 40 83 127 45 90 136 52 97 145
106 90 130 57 96 143 37 79 121 49 96 143 48 94 141 40 84 128 48 95 142 43 87 132 34 75 117 46 91 137 47 93 139 48 94 141 45 90 136 86 93 135 37 79 122 43 87 132
49 96 143 36 77 120 43 87 132 45 90 136 36 77 119 39 81 124 40 82 126 94 92 133 91 92 134 37 79 122 44 88 133 35 76 118 34 75 116 50 97 145 44 89 134 77 94 138
34 75 116 43 88 133 77 94 138 48 95 142 35 76 118 43 87 132 43 87 132 37 79 122 49 95 142 43 87 132 45 90 136 35 76 118 40 84 128 36 77 119 111 90 129 50 97 144
40 82 126 39 82 126 36 77 119 48 94 141 42 86 131 45 91 137 123 88 125 45 90 136 39 82 126 49 96 143 116 89 127 35 76 118 38 80 123 85 89 87 95 99 97 81 85 83
97 101 99 77 81 79 87 91 89 78 82 80 95 99 97 78 82 80 93 97 95 75 79 77 74 78 76 91 95 93 80 84 82 85 89 87 78 82 80 77 81 79 96 100 98 87 91 89
74 78 76 85 89 87 75 79 77 84 88 86 93 97 95 91 95 93 91 95 93 93 97 95 92 96 94 98 102 100 89 93 91 79 83 81 92 96 94 92 96 94 95 99 97 80 84 82
96 100 98 79 83 81 96 100 98 95 99 97 92 96 94 86 90 88 88 92 90 88 92 90 88 92 90 92 96 94 79 83 81 88 92 90 94 98 96 89 93 91 78 82 80 76 80 78
89 93 91 93 97 95 91 95 93 92 96 94 87 91 89 90 94 92 91 95 93 75 79 77 80 84 82 89 93 91 82 86 84 91 95 93 83 87 85 79 83 81 91 95 93 87 91 89
88 92 90 79 83 81 77 81 79 94 98 96 77 81 79 76 80 78 90 94 92 78 82 80 97 101 99 76 80 78 80 84 82 79 83 81 91 95 93 88 92 90 82 86 84 22 26 27
22 26 27 22 26 27 22 26 27 22 26 27 22 26 27 22 26 27 22 26 27 22 26 27 22 26 27 22 26 27 22 26 27 22 26 27 22 26 27 22 26 27 22 26 27 22 26 27
22 26 27 22 26 27 22 26 27 22 26 27 22 26 27 22 26 27 22 26 27 22 26 27 22 26 27 22 26 27 22 26 27 22 26 27 22 26 27 22 26 27 22 26 27 22 26 27
22 26 27 22 26 27 22 26 27 22 26 27 22 26 27 22 26 27 22 26 27 22 26 27 22 26 27 22 26 27 22 26 27 22 26 27 22 26 27 22 26 27 22 26 27 22 26 27
22 26 27 22 26 27 22 26 27 87 91 91 84 88 88 75 79 79 22 26 27 72 76 76 79 83 83 89 93 93 76 80 80 22 26 27 76 80 80 89 93 93 74 78 78 71 75 75
43 89 135 35 78 121 36 78 122 46 92 140 41 86 131 30 71 112 30 70 111 45 91 138 37 80 124 30 70 111 42 88 133 31 72 114 57 91 137 41 86 131 31 73 114 40 85 129
118 84 120 106 85 124 38 82 126 38 81 125 40 84 129 48 92 139 40 85 130 60 91 136 38 82 126 48 92 139 104 85 124 43 88 134 41 87 132 76 89 132 121 83 119 44 91 137
95 87 127 45 92 139 40 85 129 34 76 118 39 84 128 38 82 126 42 87 132 35 78 121 30 70 111 38 82 126 37 81 124 45 91 138 44 90 137 35 78 121 41 86 131 32 74 116
32 73 114 44 90 136 45 92 138 36 78 122 38 81 125 35 78 121 42 87 133 107 85 123 31 71 113 39 83 127 32 73 115 33 75 118 34 76 119 44 91 137 38 82 125 39 83 127
34 75 118 38 82 126 32 73 115 41 86 131 36 79 123 40 85 130 32 74 116 31 71 112 33 75 117 44 90 136 31 72 113 40 85 130 45 91 138 41 86 132 40 85 129 42 88 134
68 90 134 35 78 121 123 83 119 31 72 113 56 92 137 32 73 115 79 89 131 34 77 119 42 88 133 42 88 134 39 83 127 39 83 127 40 85 130 42 87 133 37 81 125 31 72 114
35 78 121 40 84 129 32 73 115 42 88 134 36 79 123 39 83 127 115 84 121 34 77 119 31 72 114 35 77 120 32 73 114 41 86 131 63 91 135 87 91 89 82 86 84 94 98 96
78 82 80 90 94 92 92 96 94 76 80 78 90 94 92 75 79 77 87 91 89 92 96 94 84 88 86 79 83 81 91 95 93 76 80 78 96 100 98 86 90 88 92 96 94 90 94 92
96 100 98 87 91 89 83 87 85 82 86 84 86 90 88 80 84 82 96 100 98 76 80 78 88 92 90 86 90 88 92 96 94 77 81 79 89 93 91 93 97 95 79 83 81 86 90 88
93 97 95 80 84 82 97 101 99 89 93 91 85 89 87 93 97 95 87 91 89 78 82 80 96 100 98 77 81 79 80 84 82 84 88 86 87 91 89 79 83 81 77 81 79 98 102 100
95 99 97 84 88 86 91 95 93 82 86 84 96 100 98 94 98 96 85 89 87 82 86 84 75 79 77 85 89 87 94 98 96 83 87 85 93 97 95 92 96 94 95 99 97 94 98 96
86 90 88 77 81 79 87 91 89 83 87 85 88 92 90 95 99 97 81 85 83 81 85 83 91 95 93 81 85 83 82 86 84 89 93 91 86 90 88 74 78 76 91 95 93 22 26 27
22 26 27 22 26 27 22 26 27 22 26 27 22 26 27 22 26 27 22 26 27 22 26 27 22 26 27 22 26 27 22 26 27 22 26 27 22 26 27 22 26 27 22 26 27 22 26 27
22 26 27 22 26 27 22 26 27 22 26 27 22 26 27 22 26 27 22 26 27 22 26 27 22 26 27 22 26 27 22 26 27 22 26 27 22 26 27 22 26 27 22 26 27 22 26 27
22 26 27 22 26 27 22 26 27 22 26 27 22 26 27 22 26 27 22 26 27 22 26 27 22 26 27 22 26 27 22 26 27 22 26 27 22 26 27 22 26 27 22 26 27 22 26 27
22 26 27 22 26 27 22 26 27 93 97 97 82 86 86 73 77 77 22 26 27 83 87 87 90 94 94 74 78 78 88 92 92 22 26 27 81 85 85 73 77 77 77 81 81 78 82 82
30 72 113 28 68 109 42 88 135 119 80 116 42 88 135 33 75 117 37 81 126 37 82 126 28 69 110 62 87 131 27 68 108 31 73 115 34 77 120 37 82 126 33 75 118 38 83 127
30 72 113 46 90 136 36 79 123 74 86 128 33 75 118 45 90 136 73 86 128 97 83 122 69 87 130 41 87 133 34 77 120 29 70 112 41 87 133 33 76 119 40 86 132 30 71 112
98 83 122 27 67 107 36 79 123 41 87 132 34 77 121 32 74 116 40 85 130 31 73 116 29 69 110 38 83 128 66 87 130 40 85 131 42 89 135 76 86 128 37 81 125 29 70 111
42 89 135 30 71 113 42 88 134 31 73 115 57 88 133 27 67 108 41 86 132 30 72 114 40 85 130 35 79 123 52 89 134 33 75 117 40 85 130 55 88 133 35 79 122 32 74 116
30 71 113 33 76 119 28 68 109 33 76 119 39 84 129 39 85 130 31 74 116 40 86 132 39 85 130 41 87 132 31 72 114 106 82 119 36 79 123 88 84 124 27 67 108 42 88 135
31 73 115 39 84 129 80 85 127 33 75 118 41 86 132 102 82 121 40 85 131 65 87 131 32 74 116 36 79 123 27 68 108 35 78 122 37 82 126 39 85 130 86 84 125 39 84 130
90 84 124 30 71 113 33 76 119 36 80 124 88 84 124 82 85 126 43 89 136 30 72 113 40 85 131 28 69 110 40 85 131 35 79 122 35 78 121 97 101 99 87 91 89 91 95 93
77 81 79 84 88 86 76 80 78 91 95 93 92 96 94 92 96 94 95 99 97 75 79 77 98 102 100 80 84 82 83 87 85 89 93 91 83 87 85 83 87 85 91 95 93 91 95 93
81 85 83 78 82 80 93 97 95 95 99 97 86 90 88 91 95 93 80 84 82 94 98 96 87 91 89 86 90 88 88 92 90 79 83 81 82 86 84 77 81 79 85 89 87 93 97 95
96 100 98 94 98 96 79 83 81 83 87 85 96 100 98 91 95 93 93 97 95 87 91 89 89 93 91 87 91 89 97 101 99 91 95 93 88 92 90 97 101 99 86 90 88 83 87 85
88 92 90 75 79 77 92 96 94 81 85 83 93 97 95 85 89 87 86 90 88 85 89 87 94 98 96 88 92 90 79 83 81 84 88 86 92 96 94 88 92 90 96 100 98 75 79 77
79 83 81 80 84 82 91 95 93 86 90 88 95 99 97 84 88 86 77 81 79 86 90 88 88 92 90 85 89 87 92 96 94 84 88 86 95 99 97 90 94 92 95 99 97 22 26 27
22 26 27 22 26 27 22 26 27 22 26 27 22 26 27 22 26 27 22 26 27 22 26 27 22 26 27 22 26 27 22 26 27 22 26 27 22 26 27 22 26 27 22 26 27 22 26 27
22 26 27 22 26 27 22 26 27 22 26 27 22 26 27 22 26 27 22 26 27 22 26 27 22 26 27 22 26 27 22 26 27 22 26 27 22 26 27 22 26 27 22 26 27 22 26 27
22 26 27 22 26 27 22 26 27 22 26 27 22 26 27 22 26 27 22 26 27 22 26 27 22 26 27 22 26 27 22 26 27 22 26 27 22 26 27 22 26 27 22 26 27 22 26 27
22 26 27 22 26 27 22 26 27 89 93 93 77 81 81 85 89 89 22 26 27 81 85 85 87 91 91 91 95 95 74 78 78 22 26 27 86 90 90 90 94 94 79 83 83 76 80 80
74 84 126 39 84 130 33 77 120 49 87 133 112 79 115 37 82 127 60 86 130 37 82 127 33 77 120 39 84 130 72 84 126 41 87 133 30 71 113 40 85 131 27 67 108 28 69 110
39 84 129 26 67 107 37 82 126 32 75 118 36 81 126 30 72 114 38 83 128 33 76 119 25 66 106 29 70 112 41 87 133 30 72 115 39 84 129 27 67 108 29 71 113 58 86 130
28 69 111 100 81 119 33 76 119 28 69 110 51 87 132 35 79 123 28 69 110 38 83 128 63 85 129 32 75 118 40 87 133 31 73 116 35 79 123 33 77 120 31 74 116 28 68 109
30 72 113 33 76 119 28 69 110 28 69 110 31 73 115 36 81 125 35 79 124 34 77 121 35 80 124 36 80 125 39 84 130 62 85 129 35 79 124 36 80 125 41 87 133 40 86 132
43 88 134 28 70 111 32 75 118 47 87 133 31 73 116 37 81 126 29 71 112 34 77 120 36 81 125 30 72 114 30 72 113 35 79 123 31 74 117 84 83 123 40 86 131 35 79 123
98 81 119 27 67 108 26 67 107 25 65 105 40 86 133 38 83 128 39 85 130 35 79 124 25 66 106 30 72 114 35 79 124 25 65 105 33 76 119 41 88 134 28 69 111 29 71 113
102 80 118 33 77 120 32 74 117 28 69 111 33 76 120 30 72 113 37 82 126 27 68 109 33 77 120 28 69 110 29 71 112 86 82 122 41 88 134 74 78 76 86 90 88 90 94 92
96 100 98 75 79 77 80 84 82 88 92 90 98 102 100 98 102 100 82 86 84 77 81 79 95 99 97 91 95 93 85 89 87 76 80 78 78 82 80 78 82 80 79 83 81 79 83 81
86 90 88 84 88 86 87 91 89 78 82 80 82 86 84 84 88 86 79 83 81 75 79 77 93 97 95 95 99 97 83 87 85 94 98 96 88 92 90 81 85 83 76 80 78 91 95 93
86 90 88 79 83 81 93 97 95 76 80 78 83 87 85 86 90 88 97 101 99 95 99 97 85 89 87 82 86 84 79 83 81 77 81 79 93 97 95 87 91 89 86 90 88 93 97 95
77 81 79 87 91 89 93 97 95 98 102 100 88 92 90 87 91 89 97 101 99 78 82 80 77 81 79 86 90 88 86 90 88 93 97 95 75 79 77 98 102 100 77 81 79 96 100 98
86 90 88 81 85 83 74 78 76 92 96 94 80 84 82 75 79 77 96 100 98 96 100 98 77 81 79 78 82 80 75 79 77 87 91 89 90 94 92 97 101 99 91 95 93 22 26 27
22 26 27 22 26 27 22 26 27 22 26 27 22 26 27 22 26 27 22 26 27 22 26 27 22 26 27 22 26 27 22 26 27 22 26 27 22 26 27 22 26 27 22 26 27 22 26 27
22 26 27 22 26 27 22 26 27 22 26 27 22 26 27 22 26 27 22 26 27 22 26 27 22 26 27 22 26 27 22 26 27 22 26 27 22 26 27 22 26 27 22 26 27 22 26 27
22 26 27 22 26 27 22 26 27 22 26 27 22 26 27 22 26 27 22 26 27 22 26 27 22 26 27 22 26 27 22 26 27 22 26 27 22 26 27 22 26 27 22 26 27 22 26 27
22 26 27 22 26 27 22 26 27 83 87 87 92 96 96 77 81 81 22 26 27 90 94 94 78 82 82 79 83 83 83 87 87 22 26 27 82 86 86 80 84 84 93 97 97 69 73 73
43 85 131 23 63 103 82 80 121 31 75 118 24 65 105 48 85 130 40 86 132 25 66 106 38 84 130 23 63 103 76 81 122 37 82 128 38 83 129 24 64 105 30 72 115 38 84 130
25 65 106 25 65 105 43 85 131 33 77 121 24 64 104 25 66 106 31 74 117 24 65 105 33 77 121 94 79 117 34 79 123 33 77 121 35 80 125 33 77 121 37 83 128 27 68 109
41 86 132 39 85 131 37 82 127 25 66 106 31 75 118 26 67 108 36 81 126 36 81 125 26 66 107 24 64 104 33 77 121 29 71 113 37 83 128 31 74 117 36 81 126 28 70 112
38 84 130 31 74 117 26 67 108 23 63 103 116 76 111 34 78 122 55 84 128 29 71 113 30 72 114 32 76 120 27 68 110 32 75 118 37 82 128 30 73 116 62 83 126 27 68 109
24 64 104 31 73 116 36 81 126 32 75 119 27 69 111 36 81 127 80 81 121 32 76 120 36 81 126 61 83 126 103 78 115 37 82 128 107 77 114 34 78 122 53 84 129 27 69 110
32 75 119 25 65 106 29 71 113 28 70 111 31 73 116 35 80 124 30 72 114 30 72 115 37 83 128 28 70 112 32 75 118 33 77 121 25 65 106 29 72 114 69 82 124 37 83 129
29 72 114 34 78 122 33 76 120 25 66 106 26 67 109 36 81 126 34 79 123 34 78 122 27 68 109 39 85 131 44 85 131 32 75 118 105 78 114 82 86 84 82 86 84 87 91 89
87 91 89 81 85 83 95 99 97 77 81 79 85 89 87 76 80 78 82 86 84 84 88 86 75 79 77 82 86 84 93 97 95 88 92 90 79 83 81 96 100 98 86 90 88 92 96 94
82 86 84 87 91 89 77 81 79 87 91 89 96 100 98 86 90 88 96 100 98 84 88 86 86 90 88 79 83 81 85 89 87 80 84 82 86 90 88 85 89 87 85 89 87 94 98 96
83 87 85 77 81 79 84 88 86 88 92 90 82 86 84 91 95 93 87 91 89 90 94 92 78 82 80 81 85 83 84 88 86 94 98 96 89 93 91 83 87 85 76 80 78 92 96 94
86 90 88 86 90 88 90 94 92 95 99 97 85 89 87 77 81 79 82 86 84 90 94 92 79 83 81 91 95 93 85 89 87 84 88 86 90 94 92 83 87 85 76 80 78 82 86 84
80 84 82 86 90 88 88 92 90 78 82 80 98 102 100 84 88 86 90 94 92 77 81 79 90 94 92 83 87 85 84 88 86 75 79 77 78 82 80 86 90 88 86 90 88 22 26 27
22 26 27 22 26 27 22 26 27 22 26 27 22 26 27 22 26 27 22 26 27 22 26 27 22 26 27 22 26 27 22 26 27 22 26 27 22 26 27 22 26 27 22 26 27 22 26 27
22 26 27 22 26 27 22 26 27 22 26 27 22 26 27 22 26 27 22 26 27 22 26 27 22 26 27 22 26 27 22 26 27 22 26 27 22 26 27 22 26 27 22 26 27 22 26 27
22 26 27 22 26 27 22 26 27 22 26 27 22 26 27 22 26 27 22 26 27 22 26 27 22 26 27 22 26 27 22 26 27 22 26 27 22 26 27 22 26 27 22 26 27 22 26 27
22 26 27 22 26 27 22 26 27 86 90 90 77 81 81 85 89 89 22 26 27 77 81 81 72 76 76 81 85 85 77 81 81 22 26 27 92 96 96 85 89 89 85 89 89 72 76 76
33 77 122 21 61 101 22 62 102 25 66 107 27 70 112 31 75 119 26 68 110 34 78 123 72 78 118 30 74 117 23 64 104 21 60 100 31 75 119 99 74 111 21 62 102 20 59 99
31 75 119 22 62 103 36 81 127 24 66 107 29 72 115 106 73 109 24 66 107 34 79 124 45 81 126 63 79 121 35 80 126 96 75 112 73 77 118 27 69 111 100 74 111 100 74 111
26 68 111 21 62 102 34 79 124 76 77 117 34 79 124 22 63 103 24 66 107 25 67 108 31 76 120 70 78 119 30 74 118 30 73 116 112 73 107 28 71 114 30 74 118 44 81 126
33 78 123 21 61 101 21 61 100 34 80 125 24 65 106 22 62 102 29 73 116 33 78 122 31 75 119 27 69 111 25 67 108 22 62 102 30 74 117 22 63 103 36 81 127 30 73 116
25 66 108 32 77 121 36 82 128 23 64 104 22 63 103 28 71 114 24 65 106 109 73 108 28 71 114 27 69 111 41 82 127 27 69 111 29 72 115 27 69 112 34 80 125 36 82 128
22 62 103 28 70 113 56 80 123 26 67 109 25 67 109 32 76 121 20 59 99 32 76 120 26 67 109 25 67 108 29 72 115 25 67 108 34 79 123 23 64 105 27 69 111 25 66 107
25 67 109 34 79 124 32 76 120 30 73 117 74 77 118 21 60 100 72 78 118 34 80 125 57 80 122 108 73 109 30 74 118 23 63 104 25 66 108 78 82 80 78 82 80 76 80 78
89 93 91 80 84 82 89 93 91 82 86 84 82 86 84 88 92 90 83 87 85 91 95 93 85 89 87 75 79 77 83 87 85 80 84 82 93 97 95 92 96 94 93 97 95 97 101 99
78 82 80 76 80 78 92 96 94 91 95 93 88 92 90 96 100 98 77 81 79 77 81 79 84 88 86 81 85 83 85 89 87 86 90 88 85 89 87 82 86 84 93 97 95 95 99 97
80 84 82 81 85 83 96 100 98 89 93 91 81 85 83 91 95 93 83 87 85 91 95 93 75 79 77 96 100 98 92 96 94 76 80 78 76 80 78 92 96 94 84 88 86 93 97 95
77 81 79 74 78 76 97 101 99 90 94 92 77 81 79 82 86 84 91 95 93 85 89 87 94 98 96 89 93 91 97 101 99 79 83 81 76 80 78 95 99 97 76 80 78 74 78 76
96 100 98 98 102 100 85 89 87 80 84 82 97 101 99 76 80 78 85 89 87 86 90 88 83 87 85 96 100 98 91 95 93 83 87 85 75 79 77 86 90 88 96 100 98 22 26 27
22 26 27 22 26 27 22 26 27 22 26 27 22 26 27 22 26 27 22 26 27 22 26 27 22 26 27 22 26 27 22 26 27 22 26 27 22 26 27 22 26 27 22 26 27 22 26 27
22 26 27 22 26 27 22 26 27 22 26 27 22 26 27 22 26 27 22 26 27 22 26 27 22 26 27 22 26 27 22 26 27 22 26 27 22 26 27 22 26 27 22 26 27 22 26 27
22 26 27 22 26 27 22 26 27 22 26 27 22 26 27 22 26 27 22 26 27 22 26 27 22 26 27 22 26 27 22 26 27 22 26 27 22 26 27 22 26 27 22 26 27 22 26 27
22 26 27 22 26 27 22 26 27 76 80 80 73 77 77 76 80 80 22 26 27 71 75 75 77 81 81 84 88 88 83 87 87 22 26 27 70 74 74 79 83 83 88 92 92 80 84 84
23 65 107 24 67 110 22 64 106 30 75 120 24 66 109 30 75 121 26 70 113 89 69 107 72 72 111 28 73 117 86 70 107 29 74 119 16 56 95 55 74 116 23 66 108 110 67 101
31 77 122 43 75 119 29 74 118 29 73 118 16 55 94 60 73 114 19 60 100 21 63 105 30 76 121 24 66 109 17 57 97 18 58 99 18 58 99 26 70 114 61 73 114 100 68 103
18 59 99 29 74 119 109 67 101 26 70 113 27 70 114 24 66 109 29 73 118 25 68 111 73 71 111 15 55 94 15 54 93 23 66 108 41 75 119 15 54 93 15 54 93 28 72 116
15 55 94 27 71 114 106 67 102 17 57 97 29 73 118 17 56 96 18 59 99 19 59 99 23 66 108 18 58 99 23 66 108 16 55 95 50 74 117 44 75 119 21 62 103 29 73 118
19 60 101 16 56 95 25 68 110 58 73 115 22 63 105 17 57 97 26 69 112 30 76 121 26 69 113 107 67 102 26 69 112 18 59 99 25 68 111 31 76 121 104 68 102 66 72 113
21 62 104 30 75 120 15 55 94 76 71 110 18 59 99 26 69 113 86 70 107 29 74 119 18 58 98 60 73 114 19 59 100 27 71 115 20 61 101 68 72 112 26 70 113 17 57 97
32 77 122 25 68 111 23 65 108 30 75 120 23 65 107 28 72 117 26 70 113 22 65 107 27 70 114 20 61 103 31 76 122 24 67 109 18 58 99 95 99 97 90 94 92 98 102 100
86 90 88 84 88 86 76 80 78 75 79 77 91 95 93 98 102 100 89 93 91 88 92 90 98 102 100 74 78 76 87 91 89 92 96 94 89 93 91 89 93 91 77 81 79 87 91 89
93 97 95 91 95 93 90 94 92 76 80 78 98 102 100 86 90 88 79 83 81 93 97 95 76 80 78 82 86 84 80 84 82 85 89 87 92 96 94 78 82 80 75 79 77 90 94 92
94 98 96 91 95 93 91 95 93 93 97 95 95 99 97 84 88 86 81 85 83 97 101 99 80 84 82 95 99 97 76 80 78 77 81 79 87 91 89 93 97 95 78 82 80 88 92 90
89 93 91 89 93 91 79 83 81 77 81 79 90 94 92 91 95 93 82 86 84 93 97 95 88 92 90 81 85 83 90 94 92 80 84 82 82 86 84 91 95 93 84 88 86 90 94 92
94 98 96 81 85 83 74 78 76 76 80 78 91 95 93 92 96 94 83 87 85 81 85 83 76 80 78 85 89 87 85 89 87 79 83 81 90 94 92 84 88 86 82 86 84 22 26 27
22 26 27 22 26 27 22 26 27 22 26 27 22 26 27 22 26 27 22 26 27 22 26 27 22 26 27 22 26 27 22 26 27 22 26 27 22 26 27 22 26 27 22 26 27 22 26 27
22 26 27 22 26 27 22 26 27 22 26 27 22 26 27 22 26 27 22 26 27 22 26 27 22 26 27 22 26 27 22 26 27 22 26 27 22 26 27 22 26 27 22 26 27 22 26 27
22 26 27 22 26 27 22 26 27 22 26 27 22 26 27 22 26 27 22 26 27 22 26 27 22 26 27 22 26 27 22 26 27 22 26 27 22 26 27 22 26 27 22 26 27 22 26 27
22 26 27 22 26 27 22 26 27 84 88 88 79 83 83 90 94 94 22 26 27 92 96 96 90 94 94 70 74 74 74 78 78 22 26 27 92 96 96 83 87 87 70 74 74 72 76 76
21 64 107 96 62 96 21 64 106 20 63 105 9 48 86 12 51 90 17 59 101 19 61 104 14 54 95 25 70 115 25 69 114 22 66 110 21 64 107 11 50 90 22 65 109 24 68 112
17 58 100 21 64 107 20 62 105 18 61 103 25 69 114 24 69 113 23 67 111 17 58 100 65 66 105 18 60 102 11 51 90 13 53 93 17 58 99 16 57 98 45 68 110 11 50 88
12 51 90 25 70 115 19 61 103 102 61 95 13 53 93 10 48 87 15 56 97 24 69 113 24 69 113 18 60 102 31 70 114 18 61 103 14 54 95 23 66 110 12 52 91 11 50 89
14 55 95 16 56 97 21 64 107 23 67 111 10 49 87 14 54 94 24 68 112 83 63 100 11 50 89 23 67 111 71 65 103 12 51 91 15 56 97 20 62 105 16 56 97 51 67 109
15 55 96 22 66 109 24 68 112 23 68 112 67 65 104 11 50 89 24 68 113 25 70 114 9 48 86 23 67 111 16 57 98 19 61 103 22 66 109 14 54 94 48 68 110 9 48 86
101 61 95 14 54 95 11 50 89 20 62 105 63 66 105 17 58 99 19 61 104 24 68 112 79 64 101 64 66 105 15 56 97 97 62 96 12 51 90 26 71 116 39 69 112 27 70 115
13 52 92 96 62 96 17 59 101 18 60 102 73 65 103 19 61 103 18 60 101 9 48 86 14 54 95 41 69 111 25 70 115 13 53 93 17 58 100 92 96 94 87 91 89 85 89 87
89 93 91 76 80 78 76 80 78 91 95 93 83 87 85 93 97 95 98 102 100 94 98 96 81 85 83 91 95 93 82 86 84 96 100 98 93 97 95 88 92 90 95 99 97 87 91 89
84 88 86 81 85 83 91 95 93 97 101 99 80 84 82 87 91 89 90 94 92 84 88 86 77 81 79 93 97 95 85 89 87 79 83 81 81 85 83 94 98 96 75 79 77 88 92 90
76 80 78 75 79 77 94 98 96 93 97 95 89 93 91 79 83 81 98 102 100 81 85 83 80 84 82 84 88 86 89 93 91 83 87 85 91 95 93 89 93 91 97 101 99 94 98 96
94 98 96 76 80 78 96 100 98 75 79 77 88 92 90 77 81 79 97 101 99 97 101 99 85 89 87 85 89 87 80 84 82 83 87 85 88 92 90 77 81 79 86 90 88 90 94 92
87 91 89 85 89 87 78 82 80 80 84 82 93 97 95 84 88 86 76 80 78 94 98 96 79 83 81 92 96 94 87 91 89 83 87 85 91 95 93 84 88 86 86 90 88 22 26 27
22 26 27 22 26 27 22 26 27 22 26 27 22 26 27 22 26 27 22 26 27 22 26 27 22 26 27 22 26 27 22 26 27 22 26 27 22 26 27 22 26 27 22 26 27 22 26 27
22 26 27 22 26 27 22 26 27 22 26 27 22 26 27 22 26 27 22 26 27 22 26 27 22 26 27 22 26 27 22 26 27 22 26 27 22 26 27 22 26 27 22 26 27 22 26 27
22 26 27 22 26 27 22 26 27 22 26 27 22 26 27 22 26 27 22 26 27 22 26 27 22 26 27 22 26 27 22 26 27 22 26 27 22 26 27 22 26 27 22 26 27 22 26 27
22 26 27 22 26 27 22 26 27 83 87 87 89 93 93 75 79 79 22 26 27 71 75 75 84 88 88 76 80 80 80 84 84 22 26 27 88 92 92 69 73 73 83 87 87 93 97 97
22 26 27 22 26 27 22 26 27 22 26 27 22 26 27 22 26 27 22 26 27 22 26 27 22 26 27 22 26 27 22 26 27 22 26 27 22 26 27 22 26 27 22 26 27 22 26 27
22 26 27 22 26 27 22 26 27 22 26 27 22 26 27 22 26 27 22 26 27 22 26 27 22 26 27 22 26 27 22 26 27 22 26 27 22 26 27 22 26 27 22 26 27 22 26 27
22 26 27 22 26 27 22 26 27 22 26 27 22 26 27 22 26 27 22 26 27 22 26 27 22 26 27 22 26 27 22 26 27 22 26 27 22 26 27 22 26 27 22 26 27 22 26 27
22 26 27 22 26 27 22 26 27 22 26 27 22 26 27 22 26 27 22 26 27 22 26 27 22 26 27 22 26 27 22 26 27 22 26 27 22 26 27 22 26 27 22 26 27 22 26 27
22 26 27 22 26 27 22 26 27 22 26 27 22 26 27 22 26 27 22 26 27 22 26 27 22 26 27 22 26 27 22 26 27 22 26 27 22 26 27 22 26 27 22 26 27 22 26 27
22 26 27 22 26 27 22 26 27 22 26 27 22 26 27 22 26 27 22 26 27 22 26 27 22 26 27 22 26 27 22 26 27 22 26 27 22 26 27 22 26 27 22 26 27 22 26 27
22 26 27 22 26 27 22 26 27 22 26 27 22 26 27 22 26 27 22 26 27 22 26 27 22 26 27 22 26 27 22 26 27 22 26 27 22 26 27 77 81 79 85 89 87 89 93 91
87 91 89 80 84 82 94 98 96 76 80 78 86 90 88 80 84 82 85 89 87 78 82 80 77 81 79 86 90 88 81 85 83 78 82 80 84 88 86 93 97 95 77 81 79 87 91 89
86 90 88 84 88 86 95 99 97 98 102 100 81 85 83 77 81 79 94 98 96 91 95 93 78 82 80 76 80 78 88 92 90 86 90 88 81 85 83 75 79 77 86 90 88 83 87 85
86 90 88 80 84 82 76 80 78 92 96 94 93 97 95 97 101 99 91 95 93 84 88 86 81 85 83 80 84 82 86 90 88 86 90 88 80 84 82 96 100 98 75 79 77 85 89 87
90 94 92 82 86 84 96 100 98 77 81 79 95 99 97 92 96 94 87 91 89 80 84 82 92 96 94 79 83 81 94 98 96 86 90 88 86 90 88 75 79 77 75 79 77 97 101 99
81 85 83 83 87 85 87 91 89 79 83 81 76 80 78 77 81 79 79 83 81 88 92 90 90 94 92 89 93 91 85 89 87 95 99 97 81 85 83 88 92 90 91 95 93 22 26 27
22 26 27 22 26 27 22 26 27 22 26 27 22 26 27 22 26 27 22 26 27 22 26 27 22 26 27 22 26 27 22 26 27 22 26 27 22 26 27 22 26 27 22 26 27 22 26 27
22 26 27 22 26 27 22 26 27 22 26 27 22 26 27 22 26 27 22 26 27 22 26 27 22 26 27 22 26 27 22 26 27 22 26 27 22 26 27 22 26 27 22 26 27 22 26 27
22 26 27 22 26 27 22 26 27 22 26 27 22 26 27 22 26 27 22 26 27 22 26 27 22 26 27 22 26 27 22 26 27 22 26 27 22 26 27 22 26 27 22 26 27 22 26 27
