P3
# Grey skin variant of Oil_Drum_Texture.ppm; identical UV atlas and geometry.
256 256
255
22 26 27 22 26 27 22 26 27 78 82 82 83 87 87 89 93 93 22 26 27 92 96 96 76 80 80 83 87 87 89 93 93 22 26 27 80 84 84 90 94 94 81 85 85 89 93 93 22 26 27 22 26 27 22 26 27 22 26 27 22 26 27 22 26 27 22 26 27 22 26 27 22 26 27 22 26 27 22 26 27 22 26 27 22 26 27 22 26 27 22 26 27 22 26 27 22 26 27 22 26 27 22 26 27 22 26 27 22 26 27 22 26 27 22 26 27 22 26 27 22 26 27 22 26 27 22 26 27 22 26 27 22 26 27 22 26 27 22 26 27 22 26 27 22 26 27 22 26 27 22 26 27 22 26 27 22 26 27 22 26 27 22 26 27 22 26 27 22 26 27 22 26 27 22 26 27 22 26 27 22 26 27 22 26 27 22 26 27 22 26 27 22 26 27 22 26 27 22 26 27 22 26 27 22 26 27 22 26 27 22 26 27 22 26 27 22 26 27 22 26 27 22 26 27 22 26 27 22 26 27 22 26 27 22 26 27 22 26 27 22 26 27 22 26 27 22 26 27 22 26 27 22 26 27 22 26 27 22 26 27 22 26 27 22 26 27 22 26 27 22 26 27 22 26 27 22 26 27 22 26 27 22 26 27 22 26 27 22 26 27 22 26 27 22 26 27 22 26 27 22 26 27 22 26 27 22 26 27 22 26 27 22 26 27 22 26 27 22 26 27 22 26 27 22 26 27 22 26 27 22 26 27 22 26 27 22 26 27 22 26 27 22 26 27 22 26 27 22 26 27 22 26 27 22 26 27 22 26 27 22 26 27 22 26 27 22 26 27 22 26 27 22 26 27 22 26 27 22 26 27 22 26 27 22 26 27 22 26 27 22 26 27 22 26 27 22 26 27 22 26 27 22 26 27 22 26 27 22 26 27 22 26 27 22 26 27 22 26 27 22 26 27 22 26 27 22 26 27 22 26 27 22 26 27 22 26 27 22 26 27 22 26 27 22 26 27 22 26 27 22 26 27 22 26 27 22 26 27 22 26 27 22 26 27 22 26 27 22 26 27 22 26 27 22 26 27 22 26 27 22 26 27 22 26 27 22 26 27 22 26 27 22 26 27 22 26 27 22 26 27 22 26 27 22 26 27 22 26 27 22 26 27 22 26 27 22 26 27 22 26 27 22 26 27 22 26 27 22 26 27 22 26 27 22 26 27 22 26 27 22 26 27 22 26 27 22 26 27 22 26 27 22 26 27 22 26 27 22 26 27 22 26 27 22 26 27 22 26 27 22 26 27 22 26 27 22 26 27 22 26 27 22 26 27 22 26 27 22 26 27 22 26 27 22 26 27 22 26 27 22 26 27 22 26 27 22 26 27 22 26 27 22 26 27 22 26 27 22 26 27 22 26 27 22 26 27 22 26 27 22 26 27 22 26 27 22 26 27 22 26 27 22 26 27 22 26 27 22 26 27 22 26 27 22 26 27 22 26 27 22 26 27 22 26 27 22 26 27 22 26 27 22 26 27 22 26 27 22 26 27 22 26 27 22 26 27 22 26 27 22 26 27 22 26 27 22 26 27 22 26 27 22 26 27 22 26 27 22 26 27 22 26 27 22 26 27 22 26 27 22 26 27 22 26 27 22 26 27 22 26 27 22 26 27 22 26 27 22 26 27 22 26 27 22 26 27 22 26 27 22 26 27 22 26 27 22 26 27 22 26 27 22 26 27 22 26 27
22 26 27 22 26 27 22 26 27 74 78 78 86 90 90 78 82 82 22 26 27 71 75 75 93 97 97 74 78 78 79 83 83 22 26 27 92 96 96 69 73 73 71 75 75 69 73 73 22 26 27 22 26 27 22 26 27 22 26 27 22 26 27 22 26 27 22 26 27 22 26 27 22 26 27 22 26 27 22 26 27 22 26 27 22 26 27 22 26 27 22 26 27 22 26 27 22 26 27 22 26 27 22 26 27 22 26 27 22 26 27 22 26 27 22 26 27 22 26 27 22 26 27 22 26 27 22 26 27 22 26 27 22 26 27 22 26 27 22 26 27 22 26 27 22 26 27 22 26 27 22 26 27 22 26 27 22 26 27 22 26 27 22 26 27 22 26 27 22 26 27 22 26 27 22 26 27 22 26 27 22 26 27 22 26 27 22 26 27 22 26 27 22 26 27 22 26 27 22 26 27 22 26 27 22 26 27 22 26 27 22 26 27 22 26 27 22 26 27 22 26 27 22 26 27 22 26 27 22 26 27 22 26 27 22 26 27 22 26 27 22 26 27 22 26 27 22 26 27 22 26 27 22 26 27 22 26 27 22 26 27 22 26 27 22 26 27 22 26 27 22 26 27 22 26 27 22 26 27 22 26 27 22 26 27 22 26 27 22 26 27 22 26 27 22 26 27 22 26 27 22 26 27 22 26 27 22 26 27 22 26 27 22 26 27 22 26 27 22 26 27 22 26 27 22 26 27 22 26 27 22 26 27 22 26 27 22 26 27 22 26 27 22 26 27 22 26 27 22 26 27 22 26 27 22 26 27 22 26 27 22 26 27 22 26 27 22 26 27 22 26 27 22 26 27 22 26 27 22 26 27 22 26 27 22 26 27 22 26 27 22 26 27 22 26 27 22 26 27 22 26 27 22 26 27 22 26 27 22 26 27 22 26 27 22 26 27 22 26 27 22 26 27 22 26 27 22 26 27 22 26 27 22 26 27 22 26 27 22 26 27 22 26 27 22 26 27 22 26 27 22 26 27 22 26 27 22 26 27 22 26 27 22 26 27 22 26 27 22 26 27 22 26 27 22 26 27 22 26 27 22 26 27 22 26 27 22 26 27 22 26 27 22 26 27 22 26 27 22 26 27 22 26 27 22 26 27 22 26 27 22 26 27 22 26 27 22 26 27 22 26 27 22 26 27 22 26 27 22 26 27 22 26 27 22 26 27 22 26 27 22 26 27 22 26 27 22 26 27 22 26 27 22 26 27 22 26 27 22 26 27 22 26 27 22 26 27 22 26 27 22 26 27 22 26 27 22 26 27 22 26 27 22 26 27 22 26 27 22 26 27 22 26 27 22 26 27 22 26 27 22 26 27 22 26 27 22 26 27 22 26 27 22 26 27 22 26 27 22 26 27 22 26 27 22 26 27 22 26 27 22 26 27 22 26 27 22 26 27 22 26 27 22 26 27 22 26 27 22 26 27 22 26 27 22 26 27 22 26 27 22 26 27 22 26 27 22 26 27 22 26 27 22 26 27 22 26 27 22 26 27 22 26 27 22 26 27 22 26 27 22 26 27 22 26 27 22 26 27 22 26 27 22 26 27 22 26 27 22 26 27 22 26 27 22 26 27 22 26 27 22 26 27 22 26 27 22 26 27 22 26 27 22 26 27 22 26 27 22 26 27 22 26 27 22 26 27 22 26 27 22 26 27 22 26 27 22 26 27 22 26 27 22 26 27 22 26 27
22 26 27 22 26 27 22 26 27 87 91 91 76 80 80 72 76 76 22 26 27 75 79 79 87 91 91 76 80 80 81 85 85 22 26 27 91 95 95 74 78 78 78 82 82 89 93 93 22 26 27 22 26 27 22 26 27 22 26 27 22 26 27 22 26 27 22 26 27 22 26 27 22 26 27 22 26 27 22 26 27 22 26 27 22 26 27 22 26 27 22 26 27 22 26 27 22 26 27 22 26 27 22 26 27 22 26 27 22 26 27 22 26 27 22 26 27 22 26 27 22 26 27 22 26 27 22 26 27 22 26 27 22 26 27 22 26 27 22 26 27 22 26 27 22 26 27 22 26 27 22 26 27 22 26 27 22 26 27 22 26 27 22 26 27 22 26 27 22 26 27 22 26 27 22 26 27 22 26 27 22 26 27 22 26 27 22 26 27 22 26 27 22 26 27 22 26 27 22 26 27 22 26 27 22 26 27 22 26 27 22 26 27 22 26 27 22 26 27 22 26 27 22 26 27 22 26 27 22 26 27 22 26 27 22 26 27 22 26 27 22 26 27 22 26 27 22 26 27 22 26 27 22 26 27 22 26 27 22 26 27 22 26 27 22 26 27 22 26 27 22 26 27 22 26 27 22 26 27 22 26 27 22 26 27 22 26 27 22 26 27 22 26 27 22 26 27 22 26 27 22 26 27 22 26 27 22 26 27 22 26 27 22 26 27 22 26 27 22 26 27 22 26 27 22 26 27 22 26 27 22 26 27 22 26 27 22 26 27 22 26 27 22 26 27 22 26 27 22 26 27 22 26 27 22 26 27 22 26 27 22 26 27 22 26 27 22 26 27 22 26 27 22 26 27 22 26 27 22 26 27 22 26 27 22 26 27 22 26 27 22 26 27 22 26 27 22 26 27 22 26 27 22 26 27 22 26 27 22 26 27 22 26 27 22 26 27 22 26 27 22 26 27 22 26 27 22 26 27 22 26 27 22 26 27 22 26 27 22 26 27 22 26 27 22 26 27 22 26 27 22 26 27 22 26 27 22 26 27 22 26 27 22 26 27 22 26 27 22 26 27 22 26 27 22 26 27 22 26 27 22 26 27 22 26 27 22 26 27 22 26 27 22 26 27 22 26 27 22 26 27 22 26 27 22 26 27 22 26 27 22 26 27 22 26 27 22 26 27 22 26 27 22 26 27 22 26 27 22 26 27 22 26 27 22 26 27 22 26 27 22 26 27 22 26 27 22 26 27 22 26 27 22 26 27 22 26 27 22 26 27 22 26 27 22 26 27 22 26 27 22 26 27 22 26 27 22 26 27 22 26 27 22 26 27 22 26 27 22 26 27 22 26 27 22 26 27 22 26 27 22 26 27 22 26 27 22 26 27 22 26 27 22 26 27 22 26 27 22 26 27 22 26 27 22 26 27 22 26 27 22 26 27 22 26 27 22 26 27 22 26 27 22 26 27 22 26 27 22 26 27 22 26 27 22 26 27 22 26 27 22 26 27 22 26 27 22 26 27 22 26 27 22 26 27 22 26 27 22 26 27 22 26 27 22 26 27 22 26 27 22 26 27 22 26 27 22 26 27 22 26 27 22 26 27 22 26 27 22 26 27 22 26 27 22 26 27 22 26 27 22 26 27 22 26 27 22 26 27 22 26 27 22 26 27 22 26 27 22 26 27 22 26 27 22 26 27 22 26 27 22 26 27 22 26 27 22 26 27 22 26 27 22 26 27 22 26 27
22 26 27 22 26 27 22 26 27 70 74 74 79 83 83 75 79 79 22 26 27 79 83 83 76 80 80 90 94 94 77 81 81 22 26 27 77 81 81 83 87 87 72 76 76 77 81 81 22 26 27 22 26 27 22 26 27 22 26 27 22 26 27 22 26 27 22 26 27 22 26 27 22 26 27 22 26 27 22 26 27 22 26 27 22 26 27 22 26 27 22 26 27 22 26 27 22 26 27 22 26 27 22 26 27 22 26 27 22 26 27 22 26 27 22 26 27 22 26 27 22 26 27 22 26 27 22 26 27 22 26 27 22 26 27 22 26 27 22 26 27 22 26 27 22 26 27 22 26 27 22 26 27 22 26 27 22 26 27 22 26 27 22 26 27 22 26 27 22 26 27 22 26 27 22 26 27 22 26 27 22 26 27 22 26 27 22 26 27 22 26 27 22 26 27 22 26 27 22 26 27 22 26 27 22 26 27 22 26 27 22 26 27 22 26 27 22 26 27 22 26 27 22 26 27 22 26 27 22 26 27 22 26 27 22 26 27 22 26 27 22 26 27 22 26 27 22 26 27 22 26 27 22 26 27 22 26 27 22 26 27 22 26 27 22 26 27 22 26 27 22 26 27 22 26 27 22 26 27 22 26 27 22 26 27 22 26 27 22 26 27 22 26 27 22 26 27 22 26 27 22 26 27 22 26 27 22 26 27 22 26 27 22 26 27 22 26 27 22 26 27 22 26 27 22 26 27 22 26 27 22 26 27 22 26 27 22 26 27 22 26 27 22 26 27 22 26 27 22 26 27 22 26 27 22 26 27 22 26 27 22 26 27 22 26 27 22 26 27 22 26 27 22 26 27 22 26 27 22 26 27 22 26 27 22 26 27 22 26 27 22 26 27 22 26 27 22 26 27 22 26 27 99 100 93 96 98 91 109 110 101 105 106 98 99 101 93 93 95 89 89 91 85 103 104 96 97 99 92 95 97 90 84 87 81 106 107 99 84 86 81 100 101 94 22 26 27 22 26 27 22 26 27 22 26 27 22 26 27 22 26 27 22 26 27 22 26 27 22 26 27 22 26 27 22 26 27 22 26 27 22 26 27 22 26 27 22 26 27 22 26 27 22 26 27 22 26 27 22 26 27 22 26 27 22 26 27 22 26 27 22 26 27 22 26 27 22 26 27 22 26 27 22 26 27 22 26 27 22 26 27 22 26 27 22 26 27 22 26 27 22 26 27 22 26 27 22 26 27 22 26 27 22 26 27 22 26 27 22 26 27 22 26 27 22 26 27 22 26 27 22 26 27 22 26 27 22 26 27 22 26 27 22 26 27 22 26 27 22 26 27 22 26 27 22 26 27 22 26 27 22 26 27 22 26 27 22 26 27 22 26 27 22 26 27 22 26 27 22 26 27 22 26 27 22 26 27 22 26 27 22 26 27 22 26 27 22 26 27 22 26 27 22 26 27 22 26 27 22 26 27 22 26 27 22 26 27 22 26 27 22 26 27 22 26 27 22 26 27 22 26 27 22 26 27 22 26 27 22 26 27 22 26 27 22 26 27 22 26 27 22 26 27 22 26 27 22 26 27 22 26 27 22 26 27 22 26 27 22 26 27 22 26 27 22 26 27 22 26 27 22 26 27 22 26 27 22 26 27 22 26 27 22 26 27 22 26 27 22 26 27 22 26 27 22 26 27 22 26 27 22 26 27 22 26 27 22 26 27 22 26 27 22 26 27 22 26 27
22 26 27 22 26 27 22 26 27 85 89 89 88 92 92 91 95 95 22 26 27 70 74 74 87 91 91 71 75 75 93 97 97 22 26 27 84 88 88 76 80 80 90 94 94 75 79 79 22 26 27 22 26 27 22 26 27 22 26 27 22 26 27 22 26 27 22 26 27 22 26 27 22 26 27 22 26 27 22 26 27 22 26 27 22 26 27 22 26 27 22 26 27 22 26 27 22 26 27 22 26 27 22 26 27 22 26 27 22 26 27 22 26 27 22 26 27 22 26 27 22 26 27 22 26 27 22 26 27 22 26 27 22 26 27 22 26 27 22 26 27 22 26 27 22 26 27 22 26 27 22 26 27 22 26 27 22 26 27 22 26 27 22 26 27 22 26 27 22 26 27 22 26 27 22 26 27 22 26 27 22 26 27 22 26 27 22 26 27 22 26 27 22 26 27 22 26 27 22 26 27 22 26 27 22 26 27 22 26 27 22 26 27 22 26 27 22 26 27 22 26 27 22 26 27 22 26 27 22 26 27 22 26 27 22 26 27 22 26 27 22 26 27 22 26 27 22 26 27 22 26 27 22 26 27 22 26 27 22 26 27 22 26 27 22 26 27 22 26 27 22 26 27 22 26 27 22 26 27 22 26 27 22 26 27 22 26 27 22 26 27 22 26 27 22 26 27 22 26 27 22 26 27 22 26 27 22 26 27 22 26 27 22 26 27 22 26 27 22 26 27 22 26 27 22 26 27 22 26 27 22 26 27 22 26 27 22 26 27 22 26 27 22 26 27 22 26 27 22 26 27 22 26 27 22 26 27 22 26 27 22 26 27 22 26 27 22 26 27 22 26 27 22 26 27 22 26 27 22 26 27 22 26 27 22 26 27 22 26 27 22 26 27 22 26 27 22 26 27 22 26 27 104 105 97 90 92 86 95 97 90 110 111 102 86 89 83 97 99 92 92 95 88 95 97 90 100 101 94 101 102 94 88 90 84 99 100 93 99 101 93 104 105 97 22 26 27 22 26 27 22 26 27 22 26 27 22 26 27 22 26 27 22 26 27 22 26 27 22 26 27 22 26 27 22 26 27 22 26 27 22 26 27 22 26 27 22 26 27 22 26 27 22 26 27 22 26 27 22 26 27 22 26 27 22 26 27 22 26 27 22 26 27 22 26 27 22 26 27 22 26 27 22 26 27 22 26 27 22 26 27 22 26 27 22 26 27 22 26 27 22 26 27 22 26 27 22 26 27 22 26 27 22 26 27 22 26 27 22 26 27 22 26 27 22 26 27 22 26 27 22 26 27 22 26 27 22 26 27 22 26 27 22 26 27 22 26 27 22 26 27 22 26 27 22 26 27 22 26 27 22 26 27 22 26 27 22 26 27 22 26 27 22 26 27 22 26 27 22 26 27 22 26 27 22 26 27 22 26 27 22 26 27 22 26 27 22 26 27 22 26 27 22 26 27 22 26 27 22 26 27 22 26 27 22 26 27 22 26 27 22 26 27 22 26 27 22 26 27 22 26 27 22 26 27 22 26 27 22 26 27 22 26 27 22 26 27 22 26 27 22 26 27 22 26 27 22 26 27 22 26 27 22 26 27 22 26 27 22 26 27 22 26 27 22 26 27 22 26 27 22 26 27 22 26 27 22 26 27 22 26 27 22 26 27 22 26 27 22 26 27 22 26 27 22 26 27 22 26 27 22 26 27 22 26 27 22 26 27 22 26 27 22 26 27 22 26 27
22 26 27 22 26 27 22 26 27 74 78 78 82 86 86 84 88 88 22 26 27 90 94 94 93 97 97 71 75 75 74 78 78 22 26 27 74 78 78 86 90 90 87 91 91 76 80 80 22 26 27 22 26 27 22 26 27 22 26 27 22 26 27 22 26 27 22 26 27 22 26 27 22 26 27 22 26 27 22 26 27 22 26 27 22 26 27 22 26 27 22 26 27 22 26 27 22 26 27 22 26 27 22 26 27 22 26 27 22 26 27 22 26 27 22 26 27 22 26 27 22 26 27 22 26 27 22 26 27 22 26 27 22 26 27 22 26 27 22 26 27 22 26 27 22 26 27 22 26 27 22 26 27 22 26 27 22 26 27 22 26 27 22 26 27 22 26 27 22 26 27 22 26 27 22 26 27 22 26 27 22 26 27 22 26 27 22 26 27 22 26 27 22 26 27 22 26 27 22 26 27 22 26 27 22 26 27 22 26 27 22 26 27 22 26 27 22 26 27 22 26 27 22 26 27 22 26 27 22 26 27 22 26 27 22 26 27 22 26 27 22 26 27 22 26 27 22 26 27 22 26 27 22 26 27 22 26 27 22 26 27 22 26 27 22 26 27 22 26 27 22 26 27 22 26 27 22 26 27 22 26 27 22 26 27 22 26 27 22 26 27 22 26 27 22 26 27 22 26 27 22 26 27 22 26 27 22 26 27 22 26 27 22 26 27 22 26 27 22 26 27 22 26 27 22 26 27 22 26 27 22 26 27 22 26 27 22 26 27 22 26 27 22 26 27 22 26 27 22 26 27 22 26 27 22 26 27 22 26 27 22 26 27 22 26 27 22 26 27 22 26 27 22 26 27 22 26 27 22 26 27 22 26 27 22 26 27 22 26 27 22 26 27 22 26 27 22 26 27 22 26 27 83 86 80 99 101 93 85 88 82 102 103 95 82 85 79 87 90 84 96 97 90 83 86 81 85 87 82 89 92 86 107 108 100 102 104 96 91 93 86 88 90 84 22 26 27 22 26 27 22 26 27 22 26 27 22 26 27 22 26 27 22 26 27 22 26 27 22 26 27 22 26 27 22 26 27 22 26 27 22 26 27 22 26 27 22 26 27 22 26 27 22 26 27 22 26 27 22 26 27 22 26 27 22 26 27 22 26 27 22 26 27 22 26 27 22 26 27 22 26 27 22 26 27 22 26 27 22 26 27 22 26 27 22 26 27 22 26 27 22 26 27 22 26 27 22 26 27 22 26 27 22 26 27 22 26 27 22 26 27 22 26 27 22 26 27 22 26 27 22 26 27 22 26 27 22 26 27 22 26 27 22 26 27 22 26 27 22 26 27 22 26 27 22 26 27 22 26 27 22 26 27 22 26 27 22 26 27 22 26 27 22 26 27 22 26 27 22 26 27 22 26 27 22 26 27 22 26 27 22 26 27 22 26 27 22 26 27 22 26 27 22 26 27 22 26 27 22 26 27 22 26 27 22 26 27 22 26 27 22 26 27 22 26 27 22 26 27 22 26 27 22 26 27 22 26 27 22 26 27 22 26 27 22 26 27 22 26 27 22 26 27 22 26 27 22 26 27 22 26 27 22 26 27 22 26 27 22 26 27 22 26 27 22 26 27 22 26 27 22 26 27 22 26 27 22 26 27 22 26 27 22 26 27 22 26 27 22 26 27 22 26 27 22 26 27 22 26 27 22 26 27 22 26 27 22 26 27 22 26 27 22 26 27 22 26 27
22 26 27 22 26 27 22 26 27 86 90 90 79 83 83 85 89 89 22 26 27 78 82 82 73 77 77 82 86 86 87 91 91 22 26 27 71 75 75 71 75 75 71 75 75 70 74 74 22 26 27 22 26 27 22 26 27 22 26 27 22 26 27 22 26 27 22 26 27 22 26 27 22 26 27 22 26 27 22 26 27 22 26 27 22 26 27 22 26 27 22 26 27 22 26 27 22 26 27 22 26 27 22 26 27 22 26 27 22 26 27 22 26 27 22 26 27 22 26 27 22 26 27 22 26 27 22 26 27 22 26 27 22 26 27 22 26 27 22 26 27 22 26 27 22 26 27 22 26 27 22 26 27 22 26 27 22 26 27 22 26 27 22 26 27 22 26 27 22 26 27 22 26 27 22 26 27 22 26 27 22 26 27 22 26 27 22 26 27 22 26 27 22 26 27 22 26 27 22 26 27 22 26 27 22 26 27 22 26 27 22 26 27 22 26 27 22 26 27 22 26 27 22 26 27 22 26 27 22 26 27 22 26 27 22 26 27 22 26 27 22 26 27 22 26 27 22 26 27 22 26 27 22 26 27 22 26 27 22 26 27 22 26 27 22 26 27 22 26 27 22 26 27 22 26 27 22 26 27 22 26 27 22 26 27 22 26 27 22 26 27 22 26 27 22 26 27 22 26 27 22 26 27 22 26 27 22 26 27 22 26 27 22 26 27 22 26 27 22 26 27 22 26 27 22 26 27 22 26 27 22 26 27 22 26 27 22 26 27 22 26 27 22 26 27 22 26 27 22 26 27 22 26 27 22 26 27 22 26 27 22 26 27 22 26 27 22 26 27 22 26 27 22 26 27 22 26 27 22 26 27 22 26 27 22 26 27 22 26 27 22 26 27 22 26 27 22 26 27 22 26 27 86 89 83 82 85 80 88 90 84 85 88 82 108 109 100 91 93 87 93 95 88 101 102 95 99 101 93 89 91 85 107 109 100 104 105 97 96 98 91 109 110 101 22 26 27 22 26 27 22 26 27 22 26 27 22 26 27 22 26 27 22 26 27 22 26 27 22 26 27 22 26 27 22 26 27 22 26 27 22 26 27 22 26 27 22 26 27 22 26 27 22 26 27 22 26 27 22 26 27 22 26 27 22 26 27 22 26 27 22 26 27 22 26 27 22 26 27 22 26 27 22 26 27 22 26 27 22 26 27 22 26 27 22 26 27 22 26 27 22 26 27 22 26 27 22 26 27 22 26 27 22 26 27 22 26 27 22 26 27 22 26 27 22 26 27 22 26 27 22 26 27 22 26 27 22 26 27 22 26 27 22 26 27 22 26 27 22 26 27 22 26 27 22 26 27 22 26 27 22 26 27 22 26 27 22 26 27 22 26 27 22 26 27 22 26 27 22 26 27 22 26 27 22 26 27 22 26 27 22 26 27 22 26 27 22 26 27 22 26 27 22 26 27 22 26 27 22 26 27 22 26 27 22 26 27 22 26 27 22 26 27 22 26 27 22 26 27 22 26 27 22 26 27 22 26 27 22 26 27 22 26 27 22 26 27 22 26 27 22 26 27 22 26 27 22 26 27 22 26 27 22 26 27 22 26 27 22 26 27 22 26 27 22 26 27 22 26 27 22 26 27 22 26 27 22 26 27 22 26 27 22 26 27 22 26 27 22 26 27 22 26 27 22 26 27 22 26 27 22 26 27 22 26 27 22 26 27 22 26 27 22 26 27 22 26 27
22 26 27 22 26 27 22 26 27 75 79 79 74 78 78 92 96 96 22 26 27 74 78 78 71 75 75 92 96 96 87 91 91 22 26 27 83 87 87 88 92 92 72 76 76 88 92 92 22 26 27 22 26 27 22 26 27 22 26 27 22 26 27 22 26 27 22 26 27 22 26 27 22 26 27 22 26 27 22 26 27 22 26 27 22 26 27 22 26 27 22 26 27 22 26 27 22 26 27 22 26 27 22 26 27 22 26 27 22 26 27 22 26 27 22 26 27 22 26 27 22 26 27 22 26 27 22 26 27 22 26 27 22 26 27 22 26 27 22 26 27 22 26 27 22 26 27 22 26 27 22 26 27 22 26 27 22 26 27 22 26 27 22 26 27 22 26 27 22 26 27 22 26 27 22 26 27 22 26 27 22 26 27 22 26 27 22 26 27 22 26 27 22 26 27 22 26 27 22 26 27 22 26 27 22 26 27 22 26 27 22 26 27 22 26 27 22 26 27 22 26 27 22 26 27 22 26 27 22 26 27 22 26 27 22 26 27 22 26 27 22 26 27 22 26 27 22 26 27 22 26 27 22 26 27 22 26 27 22 26 27 22 26 27 22 26 27 22 26 27 22 26 27 22 26 27 22 26 27 22 26 27 22 26 27 22 26 27 22 26 27 22 26 27 22 26 27 22 26 27 22 26 27 22 26 27 22 26 27 22 26 27 22 26 27 22 26 27 22 26 27 22 26 27 22 26 27 22 26 27 22 26 27 22 26 27 22 26 27 22 26 27 22 26 27 22 26 27 22 26 27 22 26 27 22 26 27 22 26 27 22 26 27 22 26 27 22 26 27 22 26 27 22 26 27 22 26 27 22 26 27 22 26 27 22 26 27 22 26 27 22 26 27 22 26 27 22 26 27 22 26 27 81 84 79 84 87 81 89 91 85 84 86 81 87 90 84 81 84 79 94 96 89 90 92 86 84 86 81 87 90 84 107 108 100 91 93 87 102 103 95 95 97 90 22 26 27 22 26 27 22 26 27 22 26 27 22 26 27 22 26 27 22 26 27 22 26 27 22 26 27 22 26 27 22 26 27 22 26 27 22 26 27 22 26 27 22 26 27 22 26 27 22 26 27 22 26 27 22 26 27 22 26 27 22 26 27 22 26 27 22 26 27 22 26 27 22 26 27 22 26 27 22 26 27 22 26 27 22 26 27 22 26 27 22 26 27 22 26 27 22 26 27 22 26 27 22 26 27 22 26 27 22 26 27 22 26 27 22 26 27 22 26 27 22 26 27 22 26 27 22 26 27 22 26 27 22 26 27 22 26 27 22 26 27 22 26 27 22 26 27 22 26 27 22 26 27 22 26 27 22 26 27 22 26 27 22 26 27 22 26 27 22 26 27 22 26 27 22 26 27 22 26 27 22 26 27 22 26 27 22 26 27 22 26 27 22 26 27 22 26 27 22 26 27 22 26 27 22 26 27 22 26 27 22 26 27 22 26 27 22 26 27 22 26 27 22 26 27 22 26 27 22 26 27 22 26 27 22 26 27 22 26 27 22 26 27 22 26 27 22 26 27 22 26 27 22 26 27 22 26 27 22 26 27 22 26 27 22 26 27 22 26 27 22 26 27 22 26 27 22 26 27 22 26 27 22 26 27 22 26 27 22 26 27 22 26 27 22 26 27 22 26 27 22 26 27 22 26 27 22 26 27 22 26 27 22 26 27 22 26 27 22 26 27 22 26 27
22 26 27 22 26 27 22 26 27 76 80 80 83 87 87 70 74 74 22 26 27 92 96 96 91 95 95 82 86 86 84 88 88 22 26 27 71 75 75 92 96 96 84 88 88 86 90 90 22 26 27 22 26 27 22 26 27 22 26 27 22 26 27 22 26 27 22 26 27 22 26 27 22 26 27 22 26 27 22 26 27 22 26 27 22 26 27 22 26 27 22 26 27 22 26 27 22 26 27 22 26 27 22 26 27 22 26 27 22 26 27 22 26 27 22 26 27 22 26 27 22 26 27 22 26 27 22 26 27 22 26 27 22 26 27 22 26 27 22 26 27 22 26 27 22 26 27 22 26 27 22 26 27 22 26 27 22 26 27 22 26 27 22 26 27 22 26 27 22 26 27 22 26 27 22 26 27 22 26 27 22 26 27 22 26 27 22 26 27 22 26 27 22 26 27 22 26 27 22 26 27 22 26 27 22 26 27 22 26 27 22 26 27 22 26 27 22 26 27 22 26 27 22 26 27 22 26 27 22 26 27 22 26 27 22 26 27 22 26 27 22 26 27 22 26 27 22 26 27 22 26 27 22 26 27 22 26 27 22 26 27 22 26 27 22 26 27 22 26 27 22 26 27 22 26 27 22 26 27 22 26 27 22 26 27 22 26 27 22 26 27 22 26 27 22 26 27 22 26 27 22 26 27 22 26 27 22 26 27 22 26 27 22 26 27 22 26 27 22 26 27 22 26 27 22 26 27 22 26 27 22 26 27 22 26 27 22 26 27 22 26 27 22 26 27 22 26 27 22 26 27 22 26 27 22 26 27 22 26 27 22 26 27 22 26 27 22 26 27 22 26 27 22 26 27 22 26 27 22 26 27 22 26 27 22 26 27 22 26 27 22 26 27 22 26 27 22 26 27 22 26 27 85 88 82 92 94 88 108 109 100 103 104 96 100 102 94 102 104 96 82 85 79 104 105 97 88 91 85 93 95 88 80 83 78 90 92 86 85 88 82 106 108 99 22 26 27 22 26 27 22 26 27 22 26 27 22 26 27 22 26 27 22 26 27 22 26 27 22 26 27 22 26 27 22 26 27 22 26 27 22 26 27 22 26 27 22 26 27 22 26 27 22 26 27 22 26 27 22 26 27 22 26 27 22 26 27 22 26 27 22 26 27 22 26 27 22 26 27 22 26 27 22 26 27 22 26 27 22 26 27 22 26 27 22 26 27 22 26 27 22 26 27 22 26 27 22 26 27 22 26 27 22 26 27 22 26 27 22 26 27 22 26 27 22 26 27 22 26 27 22 26 27 22 26 27 22 26 27 22 26 27 22 26 27 22 26 27 22 26 27 22 26 27 22 26 27 22 26 27 22 26 27 22 26 27 22 26 27 22 26 27 22 26 27 22 26 27 22 26 27 22 26 27 22 26 27 22 26 27 22 26 27 22 26 27 22 26 27 22 26 27 22 26 27 22 26 27 22 26 27 22 26 27 22 26 27 22 26 27 22 26 27 22 26 27 22 26 27 22 26 27 22 26 27 22 26 27 22 26 27 22 26 27 22 26 27 22 26 27 22 26 27 22 26 27 22 26 27 22 26 27 22 26 27 22 26 27 22 26 27 22 26 27 22 26 27 22 26 27 22 26 27 22 26 27 22 26 27 22 26 27 22 26 27 22 26 27 22 26 27 22 26 27 22 26 27 22 26 27 22 26 27 22 26 27 22 26 27 22 26 27 22 26 27 22 26 27
22 26 27 22 26 27 22 26 27 77 81 81 74 78 78 73 77 77 22 26 27 86 90 90 84 88 88 88 92 92 80 84 84 22 26 27 85 89 89 91 95 95 72 76 76 79 83 83 22 26 27 22 26 27 22 26 27 22 26 27 22 26 27 22 26 27 22 26 27 22 26 27 22 26 27 22 26 27 22 26 27 22 26 27 22 26 27 22 26 27 22 26 27 22 26 27 22 26 27 22 26 27 22 26 27 22 26 27 22 26 27 22 26 27 22 26 27 22 26 27 22 26 27 22 26 27 22 26 27 22 26 27 22 26 27 22 26 27 22 26 27 22 26 27 22 26 27 22 26 27 22 26 27 22 26 27 22 26 27 22 26 27 22 26 27 22 26 27 22 26 27 22 26 27 22 26 27 22 26 27 22 26 27 22 26 27 22 26 27 22 26 27 22 26 27 22 26 27 22 26 27 22 26 27 22 26 27 22 26 27 22 26 27 22 26 27 22 26 27 22 26 27 22 26 27 22 26 27 22 26 27 22 26 27 22 26 27 22 26 27 22 26 27 22 26 27 22 26 27 22 26 27 22 26 27 22 26 27 22 26 27 22 26 27 22 26 27 22 26 27 22 26 27 22 26 27 22 26 27 22 26 27 22 26 27 22 26 27 22 26 27 22 26 27 22 26 27 22 26 27 22 26 27 22 26 27 22 26 27 22 26 27 22 26 27 22 26 27 22 26 27 22 26 27 22 26 27 22 26 27 22 26 27 22 26 27 22 26 27 22 26 27 22 26 27 22 26 27 22 26 27 22 26 27 22 26 27 22 26 27 22 26 27 22 26 27 22 26 27 22 26 27 22 26 27 22 26 27 22 26 27 22 26 27 22 26 27 22 26 27 22 26 27 22 26 27 22 26 27 22 26 27 103 105 97 86 88 82 103 104 96 99 101 93 102 103 95 81 84 79 94 96 89 110 111 102 91 93 87 80 83 78 89 91 85 106 107 99 85 88 82 89 91 85 22 26 27 22 26 27 22 26 27 22 26 27 22 26 27 22 26 27 22 26 27 22 26 27 22 26 27 22 26 27 22 26 27 22 26 27 22 26 27 22 26 27 22 26 27 22 26 27 22 26 27 22 26 27 22 26 27 22 26 27 22 26 27 22 26 27 22 26 27 22 26 27 22 26 27 22 26 27 22 26 27 22 26 27 22 26 27 22 26 27 22 26 27 22 26 27 22 26 27 22 26 27 22 26 27 22 26 27 22 26 27 22 26 27 22 26 27 22 26 27 22 26 27 22 26 27 22 26 27 22 26 27 22 26 27 22 26 27 22 26 27 22 26 27 22 26 27 22 26 27 22 26 27 22 26 27 22 26 27 22 26 27 22 26 27 22 26 27 22 26 27 22 26 27 22 26 27 22 26 27 22 26 27 22 26 27 22 26 27 22 26 27 22 26 27 22 26 27 22 26 27 22 26 27 22 26 27 22 26 27 22 26 27 22 26 27 22 26 27 22 26 27 22 26 27 22 26 27 22 26 27 22 26 27 22 26 27 22 26 27 22 26 27 22 26 27 22 26 27 22 26 27 22 26 27 22 26 27 22 26 27 22 26 27 22 26 27 22 26 27 22 26 27 22 26 27 22 26 27 22 26 27 22 26 27 22 26 27 22 26 27 22 26 27 22 26 27 22 26 27 22 26 27 22 26 27 22 26 27 22 26 27 22 26 27 22 26 27 22 26 27 22 26 27
22 26 27 22 26 27 22 26 27 73 77 77 75 79 79 77 81 81 22 26 27 90 94 94 73 77 77 74 78 78 86 90 90 22 26 27 86 90 90 75 79 79 91 95 95 79 83 83 22 26 27 22 26 27 22 26 27 22 26 27 22 26 27 22 26 27 22 26 27 22 26 27 22 26 27 22 26 27 22 26 27 22 26 27 22 26 27 22 26 27 22 26 27 22 26 27 22 26 27 22 26 27 22 26 27 22 26 27 22 26 27 22 26 27 22 26 27 22 26 27 22 26 27 22 26 27 22 26 27 22 26 27 22 26 27 22 26 27 22 26 27 22 26 27 22 26 27 22 26 27 22 26 27 22 26 27 22 26 27 22 26 27 22 26 27 22 26 27 22 26 27 22 26 27 22 26 27 22 26 27 22 26 27 22 26 27 22 26 27 22 26 27 22 26 27 22 26 27 22 26 27 22 26 27 22 26 27 22 26 27 22 26 27 22 26 27 22 26 27 22 26 27 22 26 27 22 26 27 22 26 27 22 26 27 22 26 27 22 26 27 22 26 27 22 26 27 22 26 27 22 26 27 22 26 27 22 26 27 22 26 27 22 26 27 22 26 27 22 26 27 22 26 27 22 26 27 22 26 27 22 26 27 22 26 27 22 26 27 22 26 27 22 26 27 22 26 27 22 26 27 22 26 27 22 26 27 22 26 27 22 26 27 22 26 27 22 26 27 22 26 27 22 26 27 22 26 27 22 26 27 22 26 27 22 26 27 22 26 27 22 26 27 22 26 27 22 26 27 22 26 27 22 26 27 22 26 27 22 26 27 22 26 27 22 26 27 22 26 27 22 26 27 22 26 27 22 26 27 22 26 27 22 26 27 22 26 27 22 26 27 22 26 27 22 26 27 22 26 27 22 26 27 97 99 92 96 98 90 83 85 80 88 90 84 90 93 86 109 110 101 105 107 98 95 97 90 90 92 86 100 101 94 89 91 85 106 107 98 110 111 102 107 109 100 22 26 27 22 26 27 22 26 27 22 26 27 22 26 27 22 26 27 22 26 27 22 26 27 22 26 27 22 26 27 22 26 27 22 26 27 22 26 27 22 26 27 22 26 27 22 26 27 22 26 27 22 26 27 22 26 27 22 26 27 22 26 27 22 26 27 22 26 27 22 26 27 22 26 27 22 26 27 22 26 27 22 26 27 22 26 27 22 26 27 22 26 27 22 26 27 22 26 27 22 26 27 22 26 27 22 26 27 22 26 27 22 26 27 22 26 27 22 26 27 22 26 27 22 26 27 22 26 27 22 26 27 22 26 27 22 26 27 22 26 27 22 26 27 22 26 27 22 26 27 22 26 27 22 26 27 22 26 27 22 26 27 22 26 27 22 26 27 22 26 27 22 26 27 22 26 27 22 26 27 22 26 27 22 26 27 22 26 27 22 26 27 22 26 27 22 26 27 22 26 27 22 26 27 22 26 27 22 26 27 22 26 27 22 26 27 22 26 27 22 26 27 22 26 27 22 26 27 22 26 27 22 26 27 22 26 27 22 26 27 22 26 27 22 26 27 22 26 27 22 26 27 22 26 27 22 26 27 22 26 27 22 26 27 22 26 27 22 26 27 22 26 27 22 26 27 22 26 27 22 26 27 22 26 27 22 26 27 22 26 27 22 26 27 22 26 27 22 26 27 22 26 27 22 26 27 22 26 27 22 26 27 22 26 27 22 26 27 22 26 27 22 26 27
22 26 27 22 26 27 22 26 27 84 88 88 83 87 87 90 94 94 22 26 27 70 74 74 87 91 91 72 76 76 88 92 92 22 26 27 73 77 77 80 84 84 79 83 83 76 80 80 22 26 27 22 26 27 22 26 27 22 26 27 22 26 27 22 26 27 22 26 27 22 26 27 22 26 27 22 26 27 22 26 27 22 26 27 22 26 27 22 26 27 22 26 27 22 26 27 22 26 27 22 26 27 22 26 27 22 26 27 22 26 27 22 26 27 22 26 27 22 26 27 22 26 27 22 26 27 22 26 27 22 26 27 22 26 27 22 26 27 22 26 27 22 26 27 22 26 27 22 26 27 22 26 27 22 26 27 22 26 27 22 26 27 22 26 27 22 26 27 22 26 27 22 26 27 22 26 27 22 26 27 22 26 27 22 26 27 22 26 27 22 26 27 22 26 27 22 26 27 22 26 27 22 26 27 22 26 27 22 26 27 22 26 27 22 26 27 22 26 27 22 26 27 22 26 27 22 26 27 22 26 27 22 26 27 22 26 27 22 26 27 22 26 27 22 26 27 22 26 27 22 26 27 22 26 27 22 26 27 22 26 27 22 26 27 22 26 27 22 26 27 22 26 27 22 26 27 22 26 27 22 26 27 22 26 27 22 26 27 22 26 27 22 26 27 22 26 27 22 26 27 22 26 27 22 26 27 22 26 27 22 26 27 22 26 27 22 26 27 22 26 27 22 26 27 22 26 27 22 26 27 22 26 27 22 26 27 22 26 27 22 26 27 22 26 27 22 26 27 22 26 27 22 26 27 22 26 27 22 26 27 22 26 27 22 26 27 22 26 27 22 26 27 22 26 27 22 26 27 22 26 27 22 26 27 22 26 27 22 26 27 22 26 27 22 26 27 22 26 27 22 26 27 93 95 88 109 110 101 101 102 95 98 100 93 82 85 80 109 110 101 85 87 82 97 99 92 97 99 92 102 103 95 99 101 93 103 104 96 82 85 80 90 92 86 22 26 27 22 26 27 22 26 27 22 26 27 22 26 27 22 26 27 22 26 27 22 26 27 22 26 27 22 26 27 22 26 27 22 26 27 22 26 27 22 26 27 22 26 27 22 26 27 22 26 27 22 26 27 22 26 27 22 26 27 22 26 27 22 26 27 22 26 27 22 26 27 22 26 27 22 26 27 22 26 27 22 26 27 22 26 27 22 26 27 22 26 27 22 26 27 22 26 27 22 26 27 22 26 27 22 26 27 22 26 27 22 26 27 22 26 27 22 26 27 22 26 27 22 26 27 22 26 27 22 26 27 22 26 27 22 26 27 22 26 27 22 26 27 22 26 27 22 26 27 22 26 27 22 26 27 22 26 27 22 26 27 22 26 27 22 26 27 22 26 27 22 26 27 22 26 27 22 26 27 22 26 27 22 26 27 22 26 27 22 26 27 22 26 27 22 26 27 22 26 27 22 26 27 22 26 27 22 26 27 22 26 27 22 26 27 22 26 27 22 26 27 22 26 27 22 26 27 22 26 27 22 26 27 22 26 27 22 26 27 22 26 27 22 26 27 22 26 27 22 26 27 22 26 27 22 26 27 22 26 27 22 26 27 22 26 27 22 26 27 22 26 27 22 26 27 22 26 27 22 26 27 22 26 27 22 26 27 22 26 27 22 26 27 22 26 27 22 26 27 22 26 27 22 26 27 22 26 27 22 26 27 22 26 27 22 26 27 22 26 27 22 26 27
22 26 27 22 26 27 22 26 27 75 79 79 86 90 90 72 76 76 22 26 27 82 86 86 76 80 80 79 83 83 93 97 97 22 26 27 79 83 83 71 75 75 90 94 94 91 95 95 92 92 92 84 84 84 94 94 94 86 86 86 94 94 94 94 94 94 93 93 93 84 84 84 89 89 89 85 85 85 90 90 90 91 91 91 93 93 93 87 87 87 91 91 91 94 94 94 93 93 93 85 85 85 94 94 94 91 91 91 93 93 93 130 110 152 127 110 152 92 92 92 92 92 92 83 83 83 85 85 85 137 109 150 85 85 85 91 91 91 93 93 93 90 90 90 93 93 93 91 91 91 89 89 89 93 93 93 92 92 92 88 88 88 85 85 85 88 88 88 86 86 86 92 92 92 88 88 88 93 93 93 84 84 84 92 92 92 88 88 88 94 94 94 94 94 94 139 109 149 94 94 94 87 87 87 93 93 93 85 85 85 87 87 87 85 85 85 91 91 91 84 84 84 86 86 86 93 93 93 93 93 93 91 91 91 90 90 90 93 93 93 94 94 94 94 94 94 93 93 93 94 94 94 85 85 85 137 109 150 91 91 91 93 93 93 92 92 92 89 89 89 92 92 92 89 89 89 87 87 87 93 93 93 91 91 91 88 88 88 91 91 91 94 94 94 94 94 94 88 88 88 93 93 93 93 93 93 93 93 93 93 93 93 93 93 93 93 93 93 94 94 94 89 89 89 91 91 91 94 94 94 140 109 149 90 90 90 94 94 94 91 91 91 93 93 93 92 92 92 92 92 92 92 92 92 91 91 91 90 90 90 92 92 92 84 84 84 131 110 151 88 88 88 89 89 89 22 26 27 22 26 27 22 26 27 22 26 27 22 26 27 22 26 27 22 26 27 22 26 27 22 26 27 90 92 86 101 102 94 102 104 96 110 111 102 84 87 81 103 105 96 108 109 100 87 89 83 96 98 90 100 102 94 83 86 80 86 88 82 83 86 80 101 103 95 22 26 27 22 26 27 22 26 27 22 26 27 22 26 27 22 26 27 22 26 27 22 26 27 22 26 27 22 26 27 22 26 27 22 26 27 22 26 27 22 26 27 22 26 27 22 26 27 22 26 27 22 26 27 22 26 27 22 26 27 22 26 27 22 26 27 22 26 27 22 26 27 22 26 27 22 26 27 22 26 27 22 26 27 22 26 27 22 26 27 22 26 27 22 26 27 22 26 27 22 26 27 22 26 27 22 26 27 22 26 27 22 26 27 22 26 27 22 26 27 22 26 27 22 26 27 22 26 27 22 26 27 22 26 27 22 26 27 22 26 27 22 26 27 22 26 27 22 26 27 22 26 27 22 26 27 22 26 27 22 26 27 22 26 27 22 26 27 22 26 27 22 26 27 22 26 27 22 26 27 22 26 27 22 26 27 22 26 27 22 26 27 22 26 27 22 26 27 22 26 27 22 26 27 22 26 27 22 26 27 22 26 27 22 26 27 22 26 27 22 26 27 22 26 27 22 26 27 22 26 27 22 26 27 22 26 27 22 26 27 22 26 27 22 26 27 22 26 27 22 26 27 22 26 27 22 26 27 22 26 27 22 26 27 22 26 27 22 26 27 22 26 27 22 26 27 22 26 27 22 26 27 22 26 27 22 26 27 22 26 27 22 26 27 22 26 27 22 26 27 22 26 27 22 26 27 22 26 27 22 26 27 22 26 27 22 26 27 22 26 27 22 26 27
22 26 27 22 26 27 22 26 27 81 85 85 76 80 80 78 82 82 22 26 27 93 97 97 80 84 84 84 88 88 83 87 87 22 26 27 77 81 81 74 78 78 70 74 74 79 83 83 93 93 93 91 91 91 93 93 93 92 92 92 93 93 93 83 83 83 88 88 88 93 93 93 91 91 91 91 91 91 89 89 89 87 87 87 92 92 92 93 93 93 84 84 84 88 88 88 93 93 93 88 88 88 147 107 146 83 83 83 82 82 82 92 92 92 94 94 94 91 91 91 87 87 87 92 92 92 92 92 92 84 84 84 141 108 148 90 90 90 93 93 93 92 92 92 83 83 83 91 91 91 93 93 93 83 83 83 91 91 91 92 92 92 92 92 92 92 92 92 94 94 94 145 107 147 92 92 92 82 82 82 85 85 85 92 92 92 135 109 149 84 84 84 93 93 93 92 92 92 85 85 85 94 94 94 133 109 150 90 90 90 83 83 83 87 87 87 93 93 93 140 108 148 93 93 93 92 92 92 93 93 93 94 94 94 91 91 91 92 92 92 94 94 94 90 90 90 93 93 93 87 87 87 91 91 91 92 92 92 89 89 89 86 86 86 82 82 82 94 94 94 91 91 91 87 87 87 92 92 92 94 94 94 85 85 85 93 93 93 93 93 93 90 90 90 94 94 94 91 91 91 89 89 89 83 83 83 92 92 92 91 91 91 94 94 94 89 89 89 93 93 93 93 93 93 93 93 93 83 83 83 90 90 90 94 94 94 94 94 94 87 87 87 91 91 91 89 89 89 92 92 92 94 94 94 93 93 93 85 85 85 93 93 93 84 84 84 87 87 87 93 93 93 92 92 92 22 26 27 22 26 27 22 26 27 22 26 27 22 26 27 22 26 27 22 26 27 22 26 27 22 26 27 95 97 90 110 111 102 88 91 85 109 110 102 84 87 81 106 107 99 88 91 85 88 90 84 85 87 82 100 102 94 91 94 87 89 91 85 81 84 79 105 106 98 22 26 27 22 26 27 22 26 27 22 26 27 22 26 27 22 26 27 22 26 27 22 26 27 22 26 27 22 26 27 22 26 27 22 26 27 22 26 27 22 26 27 22 26 27 22 26 27 22 26 27 22 26 27 22 26 27 22 26 27 22 26 27 22 26 27 22 26 27 22 26 27 22 26 27 22 26 27 22 26 27 22 26 27 22 26 27 22 26 27 22 26 27 22 26 27 22 26 27 22 26 27 22 26 27 22 26 27 22 26 27 22 26 27 22 26 27 22 26 27 22 26 27 22 26 27 22 26 27 22 26 27 22 26 27 22 26 27 22 26 27 22 26 27 22 26 27 22 26 27 22 26 27 22 26 27 22 26 27 22 26 27 22 26 27 22 26 27 22 26 27 22 26 27 22 26 27 22 26 27 22 26 27 22 26 27 22 26 27 22 26 27 22 26 27 22 26 27 22 26 27 22 26 27 22 26 27 22 26 27 22 26 27 22 26 27 22 26 27 22 26 27 22 26 27 22 26 27 22 26 27 22 26 27 22 26 27 22 26 27 22 26 27 22 26 27 22 26 27 22 26 27 22 26 27 22 26 27 22 26 27 22 26 27 22 26 27 22 26 27 22 26 27 22 26 27 22 26 27 22 26 27 22 26 27 22 26 27 22 26 27 22 26 27 22 26 27 22 26 27 22 26 27 22 26 27 22 26 27 22 26 27 22 26 27 22 26 27 22 26 27 22 26 27
22 26 27 22 26 27 22 26 27 70 74 74 74 78 78 76 80 80 22 26 27 82 86 86 71 75 75 80 84 84 71 75 75 22 26 27 80 84 84 81 85 85 72 76 76 92 96 96 82 82 82 90 90 90 82 82 82 83 83 83 90 90 90 87 87 87 82 82 82 92 92 92 91 91 91 93 93 93 92 92 92 143 103 142 93 93 93 135 104 144 92 92 92 82 82 82 89 89 89 91 91 91 93 93 93 86 86 86 90 90 90 93 93 93 86 86 86 86 86 86 93 93 93 79 79 79 81 81 81 92 92 92 93 93 93 93 93 93 92 92 92 92 92 92 90 90 90 85 85 85 83 83 83 88 88 88 93 93 93 89 89 89 92 92 92 86 86 86 92 92 92 85 85 85 90 90 90 90 90 90 87 87 87 92 92 92 84 84 84 83 83 83 91 91 91 92 92 92 85 85 85 90 90 90 87 87 87 91 91 91 84 84 84 134 104 144 93 93 93 86 86 86 82 82 82 91 91 91 91 91 91 93 93 93 91 91 91 91 91 91 93 93 93 91 91 91 93 93 93 89 89 89 91 91 91 93 93 93 91 91 91 92 92 92 121 106 148 86 86 86 131 105 145 85 85 85 84 84 84 91 91 91 88 88 88 82 82 82 91 91 91 90 90 90 93 93 93 89 89 89 91 91 91 92 92 92 92 92 92 80 80 80 88 88 88 91 91 91 87 87 87 93 93 93 93 93 93 93 93 93 83 83 83 86 86 86 81 81 81 85 85 85 84 84 84 88 88 88 82 82 82 92 92 92 85 85 85 84 84 84 91 91 91 92 92 92 92 92 92 92 92 92 88 88 88 22 26 27 22 26 27 22 26 27 22 26 27 22 26 27 22 26 27 22 26 27 22 26 27 22 26 27 100 101 94 107 109 100 96 98 91 89 92 86 80 83 78 105 106 98 101 103 95 107 108 100 106 107 99 81 84 79 103 104 96 97 99 92 99 101 93 107 108 99 22 26 27 22 26 27 22 26 27 22 26 27 22 26 27 22 26 27 22 26 27 22 26 27 22 26 27 22 26 27 22 26 27 22 26 27 22 26 27 22 26 27 22 26 27 22 26 27 22 26 27 22 26 27 22 26 27 22 26 27 22 26 27 22 26 27 22 26 27 22 26 27 22 26 27 22 26 27 22 26 27 22 26 27 22 26 27 22 26 27 22 26 27 22 26 27 22 26 27 22 26 27 22 26 27 22 26 27 22 26 27 22 26 27 22 26 27 22 26 27 22 26 27 22 26 27 22 26 27 22 26 27 22 26 27 22 26 27 22 26 27 22 26 27 22 26 27 22 26 27 22 26 27 22 26 27 22 26 27 22 26 27 22 26 27 22 26 27 22 26 27 22 26 27 22 26 27 22 26 27 22 26 27 22 26 27 22 26 27 22 26 27 22 26 27 22 26 27 22 26 27 22 26 27 22 26 27 22 26 27 22 26 27 22 26 27 22 26 27 22 26 27 22 26 27 22 26 27 22 26 27 22 26 27 22 26 27 22 26 27 22 26 27 22 26 27 22 26 27 22 26 27 22 26 27 22 26 27 22 26 27 22 26 27 22 26 27 22 26 27 22 26 27 22 26 27 22 26 27 22 26 27 22 26 27 22 26 27 22 26 27 22 26 27 22 26 27 22 26 27 22 26 27 22 26 27 22 26 27 22 26 27 22 26 27 22 26 27 22 26 27 22 26 27
22 26 27 22 26 27 22 26 27 81 85 85 82 86 86 78 82 82 22 26 27 82 86 86 89 93 93 72 76 76 78 82 82 22 26 27 77 81 81 82 86 86 84 88 88 92 96 96 75 75 75 88 88 88 88 88 88 91 91 91 84 84 84 88 88 88 88 88 88 79 79 79 91 91 91 80 80 80 83 83 83 77 77 77 81 81 81 82 82 82 75 75 75 81 81 81 76 76 76 89 89 89 129 98 137 91 91 91 123 99 139 83 83 83 92 92 92 87 87 87 83 83 83 79 79 79 83 83 83 91 91 91 82 82 82 88 88 88 89 89 89 92 92 92 87 87 87 88 88 88 91 91 91 116 100 141 79 79 79 78 78 78 89 89 89 89 89 89 78 78 78 91 91 91 77 77 77 90 90 90 81 81 81 76 76 76 75 75 75 87 87 87 88 88 88 78 78 78 90 90 90 90 90 90 76 76 76 86 86 86 87 87 87 91 91 91 125 99 138 91 91 91 81 81 81 77 77 77 81 81 81 122 99 139 89 89 89 91 91 91 91 91 91 83 83 83 91 91 91 76 76 76 85 85 85 76 76 76 91 91 91 79 79 79 88 88 88 90 90 90 88 88 88 81 81 81 114 100 141 81 81 81 131 98 137 91 91 91 87 87 87 75 75 75 89 89 89 83 83 83 77 77 77 91 91 91 82 82 82 76 76 76 90 90 90 81 81 81 85 85 85 88 88 88 82 82 82 78 78 78 80 80 80 91 91 91 77 77 77 84 84 84 83 83 83 79 79 79 89 89 89 89 89 89 75 75 75 89 89 89 91 91 91 80 80 80 91 91 91 91 91 91 92 92 92 22 26 27 22 26 27 22 26 27 22 26 27 22 26 27 22 26 27 22 26 27 22 26 27 22 26 27 93 95 88 98 100 93 89 92 85 83 85 80 102 104 96 106 107 99 93 95 88 106 108 99 109 110 102 105 106 98 108 109 100 89 92 85 95 97 90 99 101 93 22 26 27 22 26 27 22 26 27 22 26 27 22 26 27 22 26 27 22 26 27 22 26 27 22 26 27 22 26 27 22 26 27 22 26 27 22 26 27 22 26 27 22 26 27 22 26 27 22 26 27 22 26 27 22 26 27 22 26 27 22 26 27 22 26 27 22 26 27 22 26 27 22 26 27 22 26 27 22 26 27 22 26 27 22 26 27 22 26 27 22 26 27 22 26 27 22 26 27 22 26 27 22 26 27 22 26 27 22 26 27 22 26 27 22 26 27 22 26 27 22 26 27 22 26 27 22 26 27 22 26 27 22 26 27 22 26 27 22 26 27 22 26 27 22 26 27 22 26 27 22 26 27 22 26 27 22 26 27 22 26 27 22 26 27 22 26 27 22 26 27 22 26 27 22 26 27 22 26 27 22 26 27 22 26 27 22 26 27 22 26 27 22 26 27 22 26 27 22 26 27 22 26 27 22 26 27 22 26 27 22 26 27 22 26 27 22 26 27 22 26 27 22 26 27 22 26 27 22 26 27 22 26 27 22 26 27 22 26 27 22 26 27 22 26 27 22 26 27 22 26 27 22 26 27 22 26 27 22 26 27 22 26 27 22 26 27 22 26 27 22 26 27 22 26 27 22 26 27 22 26 27 22 26 27 22 26 27 22 26 27 22 26 27 22 26 27 22 26 27 22 26 27 22 26 27 22 26 27 22 26 27 22 26 27 22 26 27 22 26 27 22 26 27
22 26 27 22 26 27 22 26 27 85 89 89 72 76 76 79 83 83 22 26 27 77 81 81 73 77 77 77 81 81 88 92 92 22 26 27 72 76 76 84 88 88 89 93 93 69 73 73 77 77 77 71 71 71 84 84 84 74 74 74 80 80 80 73 73 73 88 88 88 76 76 76 86 86 86 78 78 78 82 82 82 73 73 73 84 84 84 78 78 78 73 73 73 125 92 129 86 86 86 73 73 73 87 87 87 85 85 85 72 72 72 77 77 77 78 78 78 76 76 76 70 70 70 72 72 72 82 82 82 84 84 84 70 70 70 80 80 80 76 76 76 85 85 85 78 78 78 114 93 132 83 83 83 76 76 76 73 73 73 73 73 73 82 82 82 78 78 78 83 83 83 76 76 76 87 87 87 86 86 86 84 84 84 75 75 75 128 91 129 84 84 84 73 73 73 73 73 73 130 91 128 84 84 84 80 80 80 85 85 85 80 80 80 73 73 73 86 86 86 80 80 80 88 88 88 76 76 76 76 76 76 82 82 82 81 81 81 73 73 73 88 88 88 76 76 76 80 80 80 84 84 84 78 78 78 71 71 71 72 72 72 75 75 75 117 93 132 75 75 75 75 75 75 78 78 78 71 71 71 114 93 132 88 88 88 73 73 73 83 83 83 130 91 128 126 91 129 77 77 77 72 72 72 70 70 70 87 87 87 71 71 71 80 80 80 84 84 84 82 82 82 86 86 86 73 73 73 73 73 73 82 82 82 88 88 88 73 73 73 84 84 84 77 77 77 71 71 71 72 72 72 79 79 79 78 78 78 86 86 86 78 78 78 113 93 133 87 87 87 73 73 73 75 75 75 22 26 27 22 26 27 22 26 27 22 26 27 22 26 27 22 26 27 22 26 27 22 26 27 22 26 27 93 95 88 95 97 90 109 110 101 108 109 100 102 104 96 92 94 88 84 86 81 104 106 97 92 95 88 81 84 79 100 101 94 106 107 99 107 108 99 94 96 90 22 26 27 22 26 27 22 26 27 22 26 27 22 26 27 22 26 27 22 26 27 22 26 27 22 26 27 22 26 27 22 26 27 22 26 27 22 26 27 22 26 27 22 26 27 22 26 27 22 26 27 22 26 27 22 26 27 22 26 27 22 26 27 22 26 27 22 26 27 22 26 27 22 26 27 22 26 27 22 26 27 22 26 27 22 26 27 22 26 27 22 26 27 22 26 27 22 26 27 22 26 27 22 26 27 22 26 27 22 26 27 22 26 27 22 26 27 22 26 27 22 26 27 22 26 27 22 26 27 22 26 27 22 26 27 22 26 27 22 26 27 22 26 27 22 26 27 22 26 27 22 26 27 22 26 27 22 26 27 22 26 27 22 26 27 22 26 27 22 26 27 22 26 27 22 26 27 22 26 27 22 26 27 22 26 27 22 26 27 22 26 27 22 26 27 22 26 27 22 26 27 22 26 27 22 26 27 22 26 27 22 26 27 22 26 27 22 26 27 22 26 27 22 26 27 22 26 27 22 26 27 22 26 27 22 26 27 22 26 27 22 26 27 22 26 27 22 26 27 22 26 27 22 26 27 22 26 27 22 26 27 22 26 27 22 26 27 22 26 27 22 26 27 22 26 27 22 26 27 22 26 27 22 26 27 22 26 27 22 26 27 22 26 27 22 26 27 22 26 27 22 26 27 22 26 27 22 26 27 22 26 27 22 26 27 22 26 27 22 26 27 22 26 27
22 26 27 22 26 27 22 26 27 85 89 89 70 74 74 72 76 76 22 26 27 87 91 91 80 84 84 73 77 77 70 74 74 22 26 27 73 77 77 76 80 80 79 83 83 77 81 81 73 73 73 77 77 77 79 79 79 80 80 80 84 84 84 83 83 83 78 78 78 66 66 66 82 82 82 119 86 123 68 68 68 75 75 75 80 80 80 78 78 78 70 70 70 78 78 78 107 88 127 76 76 76 81 81 81 70 70 70 74 74 74 107 88 127 81 81 81 79 79 79 69 69 69 72 72 72 67 67 67 70 70 70 78 78 78 82 82 82 76 76 76 81 81 81 81 81 81 69 69 69 84 84 84 69 69 69 84 84 84 71 71 71 76 76 76 82 82 82 83 83 83 83 83 83 72 72 72 76 76 76 77 77 77 69 69 69 73 73 73 78 78 78 110 87 126 71 71 71 73 73 73 67 67 67 80 80 80 75 75 75 126 85 121 81 81 81 79 79 79 84 84 84 79 79 79 82 82 82 68 68 68 71 71 71 81 81 81 67 67 67 76 76 76 83 83 83 69 69 69 78 78 78 79 79 79 72 72 72 66 66 66 82 82 82 68 68 68 75 75 75 80 80 80 83 83 83 80 80 80 68 68 68 68 68 68 77 77 77 75 75 75 83 83 83 78 78 78 72 72 72 79 79 79 71 71 71 71 71 71 69 69 69 78 78 78 66 66 66 69 69 69 69 69 69 69 69 69 74 74 74 81 81 81 78 78 78 74 74 74 68 68 68 68 68 68 77 77 77 99 89 129 69 69 69 82 82 82 82 82 82 80 80 80 72 72 72 77 77 77 76 76 76 66 66 66 22 26 27 22 26 27 22 26 27 22 26 27 22 26 27 22 26 27 22 26 27 22 26 27 22 26 27 92 94 87 94 96 89 94 96 89 85 87 82 87 90 84 84 87 81 97 98 91 91 93 87 90 93 86 102 104 96 88 91 85 90 93 86 99 100 93 89 92 85 22 26 27 22 26 27 22 26 27 22 26 27 22 26 27 22 26 27 22 26 27 22 26 27 22 26 27 22 26 27 22 26 27 22 26 27 22 26 27 22 26 27 22 26 27 22 26 27 22 26 27 22 26 27 22 26 27 22 26 27 22 26 27 22 26 27 22 26 27 22 26 27 22 26 27 22 26 27 22 26 27 22 26 27 22 26 27 22 26 27 22 26 27 22 26 27 22 26 27 22 26 27 22 26 27 22 26 27 22 26 27 22 26 27 22 26 27 22 26 27 22 26 27 22 26 27 22 26 27 22 26 27 22 26 27 22 26 27 22 26 27 22 26 27 22 26 27 22 26 27 22 26 27 22 26 27 22 26 27 22 26 27 22 26 27 22 26 27 22 26 27 22 26 27 22 26 27 22 26 27 22 26 27 22 26 27 22 26 27 22 26 27 22 26 27 22 26 27 22 26 27 22 26 27 22 26 27 22 26 27 22 26 27 22 26 27 22 26 27 22 26 27 22 26 27 22 26 27 22 26 27 22 26 27 22 26 27 22 26 27 22 26 27 22 26 27 22 26 27 22 26 27 22 26 27 22 26 27 22 26 27 22 26 27 22 26 27 22 26 27 22 26 27 22 26 27 22 26 27 22 26 27 22 26 27 22 26 27 22 26 27 22 26 27 22 26 27 22 26 27 22 26 27 22 26 27 22 26 27 22 26 27 22 26 27 22 26 27 22 26 27 22 26 27
22 26 27 22 26 27 22 26 27 82 86 86 78 82 82 92 96 96 22 26 27 70 74 74 71 75 75 71 75 75 88 92 92 22 26 27 92 96 96 86 90 90 85 89 89 73 77 77 80 80 80 76 76 76 63 63 63 70 70 70 67 67 67 72 72 72 69 69 69 107 84 121 104 84 122 71 71 71 73 73 73 79 79 79 72 72 72 67 67 67 73 73 73 73 73 73 74 74 74 70 70 70 75 75 75 79 79 79 73 73 73 69 69 69 81 81 81 80 80 80 80 80 80 113 83 120 76 76 76 72 72 72 79 79 79 73 73 73 74 74 74 75 75 75 76 76 76 81 81 81 70 70 70 72 72 72 65 65 65 65 65 65 71 71 71 79 79 79 80 80 80 74 74 74 69 69 69 75 75 75 74 74 74 63 63 63 78 78 78 64 64 64 67 67 67 67 67 67 79 79 79 69 69 69 67 67 67 69 69 69 81 81 81 78 78 78 75 75 75 65 65 65 76 76 76 65 65 65 79 79 79 71 71 71 79 79 79 79 79 79 73 73 73 64 64 64 76 76 76 74 74 74 69 69 69 69 69 69 81 81 81 65 65 65 79 79 79 121 82 118 75 75 75 69 69 69 66 66 66 68 68 68 75 75 75 71 71 71 72 72 72 69 69 69 71 71 71 80 80 80 73 73 73 77 77 77 80 80 80 73 73 73 65 65 65 66 66 66 75 75 75 76 76 76 123 82 117 105 84 122 81 81 81 63 63 63 80 80 80 72 72 72 66 66 66 68 68 68 81 81 81 81 81 81 78 78 78 75 75 75 107 84 121 74 74 74 118 82 118 67 67 67 70 70 70 22 26 27 22 26 27 22 26 27 22 26 27 22 26 27 22 26 27 22 26 27 22 26 27 22 26 27 99 100 93 85 87 82 87 90 84 85 88 82 102 103 95 98 99 92 89 92 86 82 85 80 89 91 85 95 97 90 104 106 97 92 94 88 87 90 84 101 103 95 22 26 27 22 26 27 22 26 27 22 26 27 22 26 27 22 26 27 22 26 27 22 26 27 22 26 27 22 26 27 22 26 27 22 26 27 22 26 27 22 26 27 22 26 27 22 26 27 22 26 27 22 26 27 22 26 27 22 26 27 22 26 27 22 26 27 22 26 27 22 26 27 22 26 27 22 26 27 22 26 27 22 26 27 22 26 27 22 26 27 22 26 27 22 26 27 22 26 27 22 26 27 22 26 27 22 26 27 22 26 27 22 26 27 22 26 27 22 26 27 22 26 27 22 26 27 22 26 27 22 26 27 22 26 27 22 26 27 22 26 27 22 26 27 22 26 27 22 26 27 22 26 27 22 26 27 22 26 27 22 26 27 22 26 27 22 26 27 22 26 27 22 26 27 22 26 27 22 26 27 22 26 27 22 26 27 22 26 27 22 26 27 22 26 27 22 26 27 22 26 27 22 26 27 22 26 27 22 26 27 22 26 27 22 26 27 22 26 27 22 26 27 22 26 27 22 26 27 22 26 27 22 26 27 22 26 27 22 26 27 22 26 27 22 26 27 22 26 27 22 26 27 22 26 27 22 26 27 22 26 27 22 26 27 22 26 27 22 26 27 22 26 27 22 26 27 22 26 27 22 26 27 22 26 27 22 26 27 22 26 27 22 26 27 22 26 27 22 26 27 22 26 27 22 26 27 22 26 27 22 26 27 22 26 27 22 26 27 22 26 27 22 26 27
22 26 27 22 26 27 22 26 27 90 94 94 83 87 87 87 91 91 22 26 27 73 77 77 86 90 90 83 87 87 84 88 88 22 26 27 71 75 75 74 78 78 92 96 96 75 79 79 67 67 67 74 74 74 70 70 70 68 68 68 67 67 67 79 79 79 67 67 67 78 78 78 64 64 64 75 75 75 69 69 69 69 69 69 71 71 71 74 74 74 77 77 77 79 79 79 61 61 61 70 70 70 72 72 72 79 79 79 65 65 65 105 81 119 78 78 78 63 63 63 76 76 76 75 75 75 77 77 77 74 74 74 78 78 78 77 77 77 67 67 67 76 76 76 74 74 74 68 68 68 65 65 65 71 71 71 78 78 78 66 66 66 63 63 63 62 62 62 65 65 65 70 70 70 72 72 72 68 68 68 102 82 119 75 75 75 66 66 66 64 64 64 76 76 76 78 78 78 64 64 64 110 81 117 70 70 70 74 74 74 78 78 78 66 66 66 104 81 119 78 78 78 63 63 63 75 75 75 78 78 78 70 70 70 63 63 63 76 76 76 62 62 62 75 75 75 75 75 75 67 67 67 74 74 74 74 74 74 68 68 68 62 62 62 66 66 66 73 73 73 92 83 122 70 70 70 77 77 77 70 70 70 63 63 63 77 77 77 66 66 66 61 61 61 68 68 68 72 72 72 63 63 63 67 67 67 74 74 74 65 65 65 63 63 63 77 77 77 76 76 76 73 73 73 64 64 64 77 77 77 75 75 75 63 63 63 62 62 62 75 75 75 111 80 117 76 76 76 79 79 79 75 75 75 75 75 75 69 69 69 66 66 66 77 77 77 72 72 72 70 70 70 77 77 77 22 26 27 22 26 27 22 26 27 22 26 27 22 26 27 22 26 27 22 26 27 22 26 27 22 26 27 96 98 91 90 92 86 97 99 92 101 103 95 107 108 100 89 92 85 108 109 100 85 87 82 93 95 88 103 105 96 101 103 95 95 97 90 93 95 88 95 97 90 22 26 27 22 26 27 22 26 27 22 26 27 22 26 27 22 26 27 22 26 27 22 26 27 22 26 27 22 26 27 22 26 27 22 26 27 22 26 27 22 26 27 22 26 27 22 26 27 22 26 27 22 26 27 22 26 27 22 26 27 22 26 27 22 26 27 22 26 27 22 26 27 22 26 27 22 26 27 22 26 27 22 26 27 22 26 27 22 26 27 22 26 27 22 26 27 22 26 27 22 26 27 22 26 27 22 26 27 22 26 27 22 26 27 22 26 27 22 26 27 22 26 27 22 26 27 22 26 27 22 26 27 22 26 27 22 26 27 22 26 27 22 26 27 22 26 27 22 26 27 22 26 27 22 26 27 22 26 27 22 26 27 22 26 27 22 26 27 22 26 27 22 26 27 22 26 27 22 26 27 22 26 27 22 26 27 22 26 27 22 26 27 22 26 27 22 26 27 22 26 27 22 26 27 22 26 27 22 26 27 22 26 27 22 26 27 22 26 27 22 26 27 22 26 27 22 26 27 22 26 27 22 26 27 22 26 27 22 26 27 22 26 27 22 26 27 22 26 27 22 26 27 22 26 27 22 26 27 22 26 27 22 26 27 22 26 27 22 26 27 22 26 27 22 26 27 22 26 27 22 26 27 22 26 27 22 26 27 22 26 27 22 26 27 22 26 27 22 26 27 22 26 27 22 26 27 22 26 27 22 26 27 22 26 27 22 26 27 22 26 27 22 26 27
22 26 27 22 26 27 22 26 27 92 96 96 92 96 96 78 82 82 22 26 27 73 77 77 92 96 96 91 95 95 77 81 81 22 26 27 91 95 95 75 79 79 69 73 73 91 95 95 72 72 72 75 75 75 73 73 73 60 60 60 67 67 67 63 63 63 65 65 65 72 72 72 61 61 61 62 62 62 62 62 62 65 65 65 75 75 75 64 64 64 69 69 69 66 66 66 75 75 75 78 78 78 74 74 74 77 77 77 65 65 65 69 69 69 66 66 66 77 77 77 76 76 76 73 73 73 65 65 65 68 68 68 76 76 76 72 72 72 62 62 62 63 63 63 69 69 69 78 78 78 77 77 77 74 74 74 75 75 75 73 73 73 61 61 61 63 63 63 74 74 74 78 78 78 60 60 60 65 65 65 73 73 73 60 60 60 75 75 75 78 78 78 111 78 114 72 72 72 73 73 73 63 63 63 77 77 77 73 73 73 62 62 62 70 70 70 63 63 63 102 79 117 72 72 72 62 62 62 78 78 78 73 73 73 76 76 76 75 75 75 117 78 113 75 75 75 65 65 65 61 61 61 67 67 67 75 75 75 64 64 64 64 64 64 63 63 63 64 64 64 60 60 60 77 77 77 60 60 60 75 75 75 99 80 118 66 66 66 61 61 61 69 69 69 70 70 70 78 78 78 75 75 75 74 74 74 64 64 64 67 67 67 108 79 115 71 71 71 67 67 67 77 77 77 74 74 74 77 77 77 73 73 73 68 68 68 67 67 67 67 67 67 73 73 73 73 73 73 75 75 75 66 66 66 64 64 64 66 66 66 64 64 64 62 62 62 69 69 69 67 67 67 65 65 65 22 26 27 22 26 27 22 26 27 22 26 27 22 26 27 22 26 27 22 26 27 22 26 27 22 26 27 103 105 97 104 105 97 89 91 85 99 101 94 89 92 85 104 106 97 96 97 90 88 90 84 107 108 99 82 85 80 103 105 97 91 93 86 85 88 82 99 101 94 22 26 27 22 26 27 22 26 27 22 26 27 22 26 27 22 26 27 22 26 27 22 26 27 22 26 27 22 26 27 22 26 27 22 26 27 22 26 27 22 26 27 22 26 27 22 26 27 22 26 27 22 26 27 22 26 27 22 26 27 22 26 27 22 26 27 22 26 27 22 26 27 22 26 27 22 26 27 22 26 27 22 26 27 22 26 27 22 26 27 22 26 27 22 26 27 22 26 27 22 26 27 22 26 27 22 26 27 22 26 27 22 26 27 22 26 27 22 26 27 22 26 27 22 26 27 22 26 27 22 26 27 22 26 27 22 26 27 22 26 27 22 26 27 22 26 27 22 26 27 22 26 27 22 26 27 22 26 27 22 26 27 22 26 27 22 26 27 22 26 27 22 26 27 22 26 27 22 26 27 22 26 27 22 26 27 22 26 27 22 26 27 22 26 27 22 26 27 22 26 27 22 26 27 22 26 27 22 26 27 22 26 27 22 26 27 22 26 27 22 26 27 22 26 27 22 26 27 22 26 27 22 26 27 22 26 27 22 26 27 22 26 27 22 26 27 22 26 27 22 26 27 22 26 27 22 26 27 22 26 27 22 26 27 22 26 27 22 26 27 22 26 27 22 26 27 22 26 27 22 26 27 22 26 27 22 26 27 22 26 27 22 26 27 22 26 27 22 26 27 22 26 27 22 26 27 22 26 27 22 26 27 22 26 27 22 26 27 22 26 27 22 26 27
22 26 27 22 26 27 22 26 27 76 80 80 72 76 76 91 95 95 22 26 27 70 74 74 93 97 97 83 87 87 92 96 96 22 26 27 90 94 94 79 83 83 88 92 92 72 76 76 74 74 74 72 72 72 60 60 60 74 74 74 68 68 68 72 72 72 70 70 70 67 67 67 70 70 70 72 72 72 72 72 72 76 76 76 60 60 60 68 68 68 74 74 74 75 75 75 66 66 66 74 74 74 91 78 116 58 58 58 66 66 66 68 68 68 71 71 71 60 60 60 68 68 68 62 62 62 73 73 73 65 65 65 111 75 111 74 74 74 68 68 68 60 60 60 63 63 63 67 67 67 61 61 61 74 74 74 61 61 61 68 68 68 58 58 58 60 60 60 69 69 69 58 58 58 72 72 72 66 66 66 64 64 64 68 68 68 58 58 58 74 74 74 69 69 69 65 65 65 61 61 61 64 64 64 69 69 69 71 71 71 66 66 66 75 75 75 58 58 58 69 69 69 66 66 66 102 77 113 74 74 74 59 59 59 59 59 59 75 75 75 63 63 63 64 64 64 64 64 64 73 73 73 68 68 68 74 74 74 71 71 71 75 75 75 74 74 74 62 62 62 71 71 71 58 58 58 101 77 114 71 71 71 67 67 67 68 68 68 58 58 58 74 74 74 71 71 71 71 71 71 61 61 61 105 76 113 75 75 75 69 69 69 64 64 64 73 73 73 66 66 66 63 63 63 63 63 63 66 66 66 76 76 76 68 68 68 73 73 73 74 74 74 73 73 73 75 75 75 71 71 71 74 74 74 71 71 71 61 61 61 74 74 74 68 68 68 63 63 63 73 73 73 73 73 73 22 26 27 22 26 27 22 26 27 22 26 27 22 26 27 22 26 27 22 26 27 22 26 27 22 26 27 107 108 100 83 86 81 91 93 87 80 83 78 94 96 89 98 100 92 98 100 92 85 88 82 83 86 80 91 93 87 104 106 97 91 93 87 93 95 89 90 92 86 22 26 27 22 26 27 22 26 27 22 26 27 22 26 27 22 26 27 22 26 27 22 26 27 22 26 27 22 26 27 22 26 27 22 26 27 22 26 27 22 26 27 22 26 27 22 26 27 22 26 27 22 26 27 22 26 27 22 26 27 22 26 27 22 26 27 22 26 27 22 26 27 22 26 27 22 26 27 22 26 27 22 26 27 22 26 27 22 26 27 22 26 27 22 26 27 22 26 27 22 26 27 22 26 27 22 26 27 22 26 27 22 26 27 22 26 27 22 26 27 22 26 27 22 26 27 22 26 27 22 26 27 22 26 27 22 26 27 22 26 27 22 26 27 22 26 27 22 26 27 22 26 27 22 26 27 22 26 27 22 26 27 22 26 27 22 26 27 22 26 27 22 26 27 22 26 27 22 26 27 22 26 27 22 26 27 22 26 27 22 26 27 22 26 27 22 26 27 22 26 27 22 26 27 22 26 27 22 26 27 22 26 27 22 26 27 22 26 27 22 26 27 22 26 27 22 26 27 22 26 27 22 26 27 22 26 27 22 26 27 22 26 27 22 26 27 22 26 27 22 26 27 22 26 27 22 26 27 22 26 27 22 26 27 22 26 27 22 26 27 22 26 27 22 26 27 22 26 27 22 26 27 22 26 27 22 26 27 22 26 27 22 26 27 22 26 27 22 26 27 22 26 27 22 26 27 22 26 27 22 26 27 22 26 27 22 26 27 22 26 27 22 26 27
22 26 27 22 26 27 22 26 27 84 88 88 74 78 78 87 91 91 22 26 27 91 95 95 77 81 81 87 91 91 89 93 93 22 26 27 76 80 80 82 86 86 87 91 91 91 95 95 66 66 66 58 58 58 72 72 72 72 72 72 58 58 58 66 66 66 62 62 62 56 56 56 73 73 73 71 71 71 62 62 62 61 61 61 66 66 66 66 66 66 60 60 60 68 68 68 57 57 57 73 73 73 71 71 71 69 69 69 63 63 63 56 56 56 71 71 71 72 72 72 58 58 58 66 66 66 72 72 72 59 59 59 56 56 56 87 74 112 61 61 61 69 69 69 71 71 71 57 57 57 72 72 72 55 55 55 64 64 64 62 62 62 69 69 69 56 56 56 60 60 60 71 71 71 58 58 58 65 65 65 56 56 56 71 71 71 68 68 68 96 72 109 58 58 58 63 63 63 68 68 68 56 56 56 56 56 56 69 69 69 69 69 69 105 71 107 59 59 59 60 60 60 72 72 72 69 69 69 72 72 72 89 73 111 70 70 70 73 73 73 90 73 111 62 62 62 67 67 67 55 55 55 55 55 55 68 68 68 58 58 58 70 70 70 61 61 61 66 66 66 72 72 72 71 71 71 55 55 55 61 61 61 61 61 61 69 69 69 97 72 109 70 70 70 55 55 55 67 67 67 55 55 55 60 60 60 71 71 71 67 67 67 60 60 60 69 69 69 57 57 57 64 64 64 99 72 108 56 56 56 71 71 71 72 72 72 57 57 57 73 73 73 57 57 57 71 71 71 63 63 63 62 62 62 58 58 58 71 71 71 57 57 57 68 68 68 57 57 57 61 61 61 62 62 62 22 26 27 22 26 27 22 26 27 22 26 27 22 26 27 22 26 27 22 26 27 22 26 27 22 26 27 80 83 78 101 103 95 108 109 100 86 89 83 109 110 101 87 90 84 108 109 100 86 88 82 99 100 93 83 86 80 92 94 87 97 99 92 97 99 92 88 90 84 22 26 27 22 26 27 22 26 27 22 26 27 22 26 27 22 26 27 22 26 27 22 26 27 22 26 27 22 26 27 22 26 27 22 26 27 22 26 27 22 26 27 22 26 27 22 26 27 22 26 27 22 26 27 22 26 27 22 26 27 22 26 27 22 26 27 22 26 27 22 26 27 22 26 27 22 26 27 22 26 27 22 26 27 22 26 27 22 26 27 22 26 27 22 26 27 22 26 27 22 26 27 22 26 27 22 26 27 22 26 27 22 26 27 22 26 27 22 26 27 22 26 27 22 26 27 22 26 27 22 26 27 22 26 27 22 26 27 22 26 27 22 26 27 22 26 27 22 26 27 22 26 27 22 26 27 22 26 27 22 26 27 22 26 27 22 26 27 22 26 27 22 26 27 22 26 27 22 26 27 22 26 27 22 26 27 22 26 27 22 26 27 22 26 27 22 26 27 22 26 27 22 26 27 22 26 27 22 26 27 22 26 27 22 26 27 22 26 27 22 26 27 22 26 27 22 26 27 22 26 27 22 26 27 22 26 27 22 26 27 22 26 27 22 26 27 22 26 27 22 26 27 22 26 27 22 26 27 22 26 27 22 26 27 22 26 27 22 26 27 22 26 27 22 26 27 22 26 27 22 26 27 22 26 27 22 26 27 22 26 27 22 26 27 22 26 27 22 26 27 22 26 27 22 26 27 22 26 27 22 26 27 22 26 27 22 26 27 22 26 27 22 26 27
22 26 27 22 26 27 22 26 27 87 91 91 92 96 96 79 83 83 22 26 27 74 78 78 81 85 85 78 82 82 80 84 84 22 26 27 90 94 94 75 79 79 90 94 94 91 95 95 53 53 53 64 64 64 58 58 58 55 55 55 65 65 65 51 51 51 54 54 54 60 60 60 63 63 63 68 68 68 62 62 62 60 60 60 68 68 68 67 67 67 57 57 57 67 67 67 59 59 59 53 53 53 84 67 104 60 60 60 56 56 56 60 60 60 66 66 66 64 64 64 62 62 62 67 67 67 66 66 66 57 57 57 60 60 60 54 54 54 62 62 62 57 57 57 58 58 58 65 65 65 102 65 99 62 62 62 51 51 51 64 64 64 62 62 62 86 67 104 64 64 64 57 57 57 69 69 69 58 58 58 60 60 60 54 54 54 64 64 64 65 65 65 52 52 52 63 63 63 55 55 55 64 64 64 53 53 53 57 57 57 55 55 55 64 64 64 55 55 55 61 61 61 52 52 52 60 60 60 57 57 57 55 55 55 56 56 56 65 65 65 64 64 64 57 57 57 61 61 61 67 67 67 65 65 65 65 65 65 68 68 68 86 67 104 67 67 67 94 66 102 84 67 104 57 57 57 64 64 64 66 66 66 64 64 64 67 67 67 56 56 56 54 54 54 56 56 56 58 58 58 63 63 63 60 60 60 53 53 53 59 59 59 61 61 61 87 67 104 52 52 52 61 61 61 65 65 65 55 55 55 64 64 64 54 54 54 66 66 66 56 56 56 64 64 64 63 63 63 58 58 58 68 68 68 64 64 64 64 64 64 64 64 64 62 62 62 66 66 66 65 65 65 102 65 99 22 26 27 22 26 27 22 26 27 22 26 27 22 26 27 22 26 27 22 26 27 22 26 27 22 26 27 92 94 87 86 88 83 93 95 88 96 98 91 95 97 90 84 86 81 100 101 94 102 103 95 108 109 100 86 89 83 98 100 92 83 86 80 81 84 79 92 94 88 22 26 27 22 26 27 22 26 27 22 26 27 22 26 27 22 26 27 22 26 27 22 26 27 22 26 27 22 26 27 22 26 27 22 26 27 22 26 27 22 26 27 22 26 27 22 26 27 22 26 27 22 26 27 22 26 27 22 26 27 22 26 27 22 26 27 22 26 27 22 26 27 22 26 27 22 26 27 22 26 27 22 26 27 22 26 27 22 26 27 22 26 27 22 26 27 22 26 27 22 26 27 22 26 27 22 26 27 22 26 27 22 26 27 22 26 27 22 26 27 22 26 27 22 26 27 22 26 27 22 26 27 22 26 27 22 26 27 22 26 27 22 26 27 22 26 27 22 26 27 22 26 27 22 26 27 22 26 27 22 26 27 22 26 27 22 26 27 22 26 27 22 26 27 22 26 27 22 26 27 22 26 27 22 26 27 22 26 27 22 26 27 22 26 27 22 26 27 22 26 27 22 26 27 22 26 27 22 26 27 22 26 27 22 26 27 22 26 27 22 26 27 22 26 27 22 26 27 22 26 27 22 26 27 22 26 27 22 26 27 22 26 27 22 26 27 22 26 27 22 26 27 22 26 27 22 26 27 22 26 27 22 26 27 22 26 27 22 26 27 22 26 27 22 26 27 22 26 27 22 26 27 22 26 27 22 26 27 22 26 27 22 26 27 22 26 27 22 26 27 22 26 27 22 26 27 22 26 27 22 26 27 22 26 27 22 26 27 22 26 27 22 26 27
22 26 27 22 26 27 22 26 27 75 79 79 81 85 85 75 79 79 22 26 27 89 93 93 77 81 81 89 93 93 77 81 81 22 26 27 73 77 77 87 91 91 70 74 74 76 80 80 58 58 58 64 64 64 60 60 60 49 49 49 54 54 54 46 46 46 62 62 62 49 49 49 58 58 58 64 64 64 52 52 52 53 53 53 50 50 50 61 61 61 49 49 49 62 62 62 61 61 61 55 55 55 51 51 51 48 48 48 48 48 48 99 59 93 56 56 56 83 61 97 58 58 58 60 60 60 100 59 93 63 63 63 50 50 50 57 57 57 63 63 63 62 62 62 55 55 55 64 64 64 63 63 63 58 58 58 58 58 58 62 62 62 50 50 50 54 54 54 54 54 54 51 51 51 52 52 52 61 61 61 56 56 56 64 64 64 63 63 63 59 59 59 50 50 50 62 62 62 63 63 63 52 52 52 57 57 57 85 61 97 62 62 62 53 53 53 72 62 100 49 49 49 50 50 50 64 64 64 50 50 50 53 53 53 54 54 54 62 62 62 60 60 60 58 58 58 63 63 63 56 56 56 63 63 63 54 54 54 54 54 54 59 59 59 62 62 62 63 63 63 46 46 46 93 60 94 62 62 62 62 62 62 81 61 98 49 49 49 53 53 53 53 53 53 59 59 59 56 56 56 62 62 62 59 59 59 57 57 57 60 60 60 64 64 64 63 63 63 52 52 52 62 62 62 52 52 52 49 49 49 58 58 58 79 62 98 64 64 64 50 50 50 53 53 53 56 56 56 57 57 57 54 54 54 61 61 61 58 58 58 49 49 49 63 63 63 61 61 61 64 64 64 54 54 54 22 26 27 22 26 27 22 26 27 22 26 27 22 26 27 22 26 27 22 26 27 22 26 27 22 26 27 108 109 100 86 89 83 85 88 82 99 100 93 94 96 89 98 100 92 86 89 83 100 102 94 83 86 80 100 102 94 94 96 89 81 84 78 97 99 92 109 110 101 22 26 27 22 26 27 22 26 27 22 26 27 22 26 27 22 26 27 22 26 27 22 26 27 22 26 27 22 26 27 22 26 27 22 26 27 22 26 27 22 26 27 22 26 27 22 26 27 22 26 27 22 26 27 22 26 27 22 26 27 22 26 27 22 26 27 22 26 27 22 26 27 22 26 27 22 26 27 22 26 27 22 26 27 22 26 27 22 26 27 22 26 27 22 26 27 22 26 27 22 26 27 22 26 27 22 26 27 22 26 27 22 26 27 22 26 27 22 26 27 22 26 27 22 26 27 22 26 27 22 26 27 22 26 27 22 26 27 22 26 27 22 26 27 22 26 27 22 26 27 22 26 27 22 26 27 22 26 27 22 26 27 22 26 27 22 26 27 22 26 27 22 26 27 22 26 27 22 26 27 22 26 27 22 26 27 22 26 27 22 26 27 22 26 27 22 26 27 22 26 27 22 26 27 22 26 27 22 26 27 22 26 27 22 26 27 22 26 27 22 26 27 22 26 27 22 26 27 22 26 27 22 26 27 22 26 27 22 26 27 22 26 27 22 26 27 22 26 27 22 26 27 22 26 27 22 26 27 22 26 27 22 26 27 22 26 27 22 26 27 22 26 27 22 26 27 22 26 27 22 26 27 22 26 27 22 26 27 22 26 27 22 26 27 22 26 27 22 26 27 22 26 27 22 26 27 22 26 27 22 26 27 22 26 27 22 26 27 22 26 27 22 26 27
22 26 27 22 26 27 22 26 27 82 86 86 83 87 87 73 77 77 22 26 27 71 75 75 69 73 73 75 79 79 74 78 78 22 26 27 90 94 94 87 91 91 77 81 81 80 84 84 49 49 49 56 56 56 62 62 62 84 58 94 55 55 55 48 48 48 58 58 58 52 52 52 62 62 62 47 47 47 45 45 45 57 57 57 53 53 53 54 54 54 44 44 44 89 57 92 58 58 58 54 54 54 62 62 62 54 54 54 47 47 47 46 46 46 51 51 51 58 58 58 45 45 45 57 57 57 49 49 49 55 55 55 55 55 55 45 45 45 48 48 48 61 61 61 46 46 46 95 57 90 56 56 56 86 58 93 52 52 52 61 61 61 56 56 56 59 59 59 62 62 62 59 59 59 56 56 56 52 52 52 60 60 60 60 60 60 48 48 48 51 51 51 54 54 54 62 62 62 80 59 95 47 47 47 48 48 48 58 58 58 45 45 45 54 54 54 58 58 58 61 61 61 60 60 60 50 50 50 53 53 53 46 46 46 56 56 56 51 51 51 48 48 48 45 45 45 44 44 44 44 44 44 45 45 45 61 61 61 56 56 56 56 56 56 70 60 97 82 58 94 57 57 57 49 49 49 57 57 57 53 53 53 86 58 93 82 58 94 58 58 58 57 57 57 61 61 61 54 54 54 58 58 58 58 58 58 61 61 61 55 55 55 49 49 49 52 52 52 50 50 50 62 62 62 46 46 46 48 48 48 58 58 58 50 50 50 60 60 60 51 51 51 60 60 60 56 56 56 48 48 48 58 58 58 51 51 51 60 60 60 49 49 49 55 55 55 46 46 46 58 58 58 61 61 61 22 26 27 22 26 27 22 26 27 22 26 27 22 26 27 22 26 27 22 26 27 22 26 27 22 26 27 89 91 85 101 103 95 105 106 98 97 99 92 105 107 98 82 85 79 84 87 82 87 89 83 90 92 86 89 91 85 82 85 80 87 90 84 87 90 84 95 97 90 22 26 27 22 26 27 22 26 27 22 26 27 22 26 27 22 26 27 22 26 27 22 26 27 22 26 27 22 26 27 22 26 27 22 26 27 22 26 27 22 26 27 22 26 27 22 26 27 22 26 27 22 26 27 22 26 27 22 26 27 22 26 27 22 26 27 22 26 27 22 26 27 22 26 27 22 26 27 22 26 27 22 26 27 22 26 27 22 26 27 22 26 27 22 26 27 22 26 27 22 26 27 22 26 27 22 26 27 22 26 27 22 26 27 22 26 27 22 26 27 22 26 27 22 26 27 22 26 27 22 26 27 22 26 27 22 26 27 22 26 27 22 26 27 22 26 27 22 26 27 22 26 27 22 26 27 22 26 27 22 26 27 22 26 27 22 26 27 22 26 27 22 26 27 22 26 27 22 26 27 22 26 27 22 26 27 22 26 27 22 26 27 22 26 27 22 26 27 22 26 27 22 26 27 22 26 27 22 26 27 22 26 27 22 26 27 22 26 27 22 26 27 22 26 27 22 26 27 22 26 27 22 26 27 22 26 27 22 26 27 22 26 27 22 26 27 22 26 27 22 26 27 22 26 27 22 26 27 22 26 27 22 26 27 22 26 27 22 26 27 22 26 27 22 26 27 22 26 27 22 26 27 22 26 27 22 26 27 22 26 27 22 26 27 22 26 27 22 26 27 22 26 27 22 26 27 22 26 27 22 26 27 22 26 27 22 26 27 22 26 27 22 26 27
22 26 27 22 26 27 22 26 27 85 89 89 86 90 90 86 90 90 22 26 27 85 89 89 78 82 82 80 84 84 86 90 90 22 26 27 81 85 85 92 96 96 90 94 94 88 92 92 96 58 92 61 61 61 62 62 62 62 62 62 53 53 53 61 61 61 60 60 60 62 62 62 52 52 52 55 55 55 58 58 58 52 52 52 58 58 58 59 59 59 54 54 54 57 57 57 57 57 57 50 50 50 60 60 60 76 61 98 62 62 62 58 58 58 60 60 60 63 63 63 59 59 59 53 53 53 58 58 58 62 62 62 47 47 47 46 46 46 64 64 64 54 54 54 61 61 61 60 60 60 58 58 58 89 59 94 60 60 60 46 46 46 54 54 54 60 60 60 52 52 52 54 54 54 57 57 57 60 60 60 77 61 98 58 58 58 54 54 54 59 59 59 57 57 57 63 63 63 50 50 50 60 60 60 49 49 49 56 56 56 50 50 50 58 58 58 56 56 56 46 46 46 47 47 47 46 46 46 48 48 48 56 56 56 63 63 63 63 63 63 53 53 53 48 48 48 46 46 46 49 49 49 63 63 63 60 60 60 83 60 96 51 51 51 52 52 52 60 60 60 63 63 63 56 56 56 62 62 62 98 58 92 63 63 63 61 61 61 63 63 63 62 62 62 56 56 56 63 63 63 45 45 45 50 50 50 60 60 60 50 50 50 51 51 51 56 56 56 55 55 55 51 51 51 52 52 52 57 57 57 64 64 64 48 48 48 46 46 46 62 62 62 52 52 52 62 62 62 60 60 60 58 58 58 56 56 56 87 60 95 57 57 57 63 63 63 47 47 47 63 63 63 48 48 48 22 26 27 22 26 27 22 26 27 22 26 27 22 26 27 22 26 27 22 26 27 22 26 27 22 26 27 84 87 81 81 84 79 109 110 101 95 97 90 85 87 82 98 100 92 87 90 84 107 108 100 100 101 94 86 88 83 87 89 83 91 93 86 98 100 92 91 93 87 22 26 27 22 26 27 22 26 27 22 26 27 22 26 27 22 26 27 22 26 27 22 26 27 22 26 27 22 26 27 22 26 27 22 26 27 22 26 27 22 26 27 22 26 27 22 26 27 22 26 27 22 26 27 22 26 27 22 26 27 22 26 27 22 26 27 22 26 27 22 26 27 22 26 27 22 26 27 22 26 27 22 26 27 22 26 27 22 26 27 22 26 27 22 26 27 22 26 27 22 26 27 22 26 27 22 26 27 22 26 27 22 26 27 22 26 27 22 26 27 22 26 27 22 26 27 22 26 27 22 26 27 22 26 27 22 26 27 22 26 27 22 26 27 22 26 27 22 26 27 22 26 27 22 26 27 22 26 27 22 26 27 22 26 27 22 26 27 22 26 27 22 26 27 22 26 27 22 26 27 22 26 27 22 26 27 22 26 27 22 26 27 22 26 27 22 26 27 22 26 27 22 26 27 22 26 27 22 26 27 22 26 27 22 26 27 22 26 27 22 26 27 22 26 27 22 26 27 22 26 27 22 26 27 22 26 27 22 26 27 22 26 27 22 26 27 22 26 27 22 26 27 22 26 27 22 26 27 22 26 27 22 26 27 22 26 27 22 26 27 22 26 27 22 26 27 22 26 27 22 26 27 22 26 27 22 26 27 22 26 27 22 26 27 22 26 27 22 26 27 22 26 27 22 26 27 22 26 27 22 26 27 22 26 27 22 26 27 22 26 27 22 26 27
22 26 27 22 26 27 22 26 27 71 75 75 88 92 92 73 77 77 22 26 27 78 82 82 89 93 93 85 89 89 77 81 81 22 26 27 79 83 83 90 94 94 69 73 73 75 79 79 60 60 60 67 67 67 54 54 54 86 66 102 65 65 65 60 60 60 61 61 61 65 65 65 59 59 59 59 59 59 63 63 63 51 51 51 67 67 67 51 51 51 51 51 51 49 49 49 68 68 68 51 51 51 89 65 101 56 56 56 60 60 60 58 58 58 53 53 53 50 50 50 51 51 51 65 65 65 64 64 64 56 56 56 58 58 58 60 60 60 61 61 61 59 59 59 57 57 57 58 58 58 63 63 63 98 64 99 68 68 68 51 51 51 58 58 58 58 58 58 62 62 62 61 61 61 64 64 64 56 56 56 58 58 58 53 53 53 60 60 60 63 63 63 66 66 66 61 61 61 64 64 64 56 56 56 50 50 50 66 66 66 60 60 60 51 51 51 57 57 57 56 56 56 50 50 50 66 66 66 66 66 66 62 62 62 63 63 63 57 57 57 65 65 65 56 56 56 54 54 54 81 66 104 58 58 58 64 64 64 55 55 55 99 64 99 56 56 56 53 53 53 62 62 62 66 66 66 55 55 55 49 49 49 64 64 64 53 53 53 52 52 52 67 67 67 62 62 62 52 52 52 84 66 103 78 67 105 52 52 52 67 67 67 55 55 55 65 65 65 63 63 63 65 65 65 65 65 65 63 63 63 67 67 67 62 62 62 65 65 65 57 57 57 66 66 66 63 63 63 90 65 101 66 66 66 52 52 52 63 63 63 92 65 101 67 67 67 67 67 67 63 63 63 64 64 64 22 26 27 22 26 27 22 26 27 22 26 27 22 26 27 22 26 27 22 26 27 22 26 27 22 26 27 82 85 80 86 89 83 94 96 89 95 97 90 87 90 84 93 95 88 107 109 100 87 89 83 81 84 79 104 105 97 88 90 84 96 98 91 102 104 96 84 87 81 22 26 27 22 26 27 22 26 27 22 26 27 22 26 27 22 26 27 22 26 27 22 26 27 22 26 27 22 26 27 22 26 27 22 26 27 22 26 27 22 26 27 22 26 27 22 26 27 22 26 27 22 26 27 22 26 27 22 26 27 22 26 27 22 26 27 22 26 27 22 26 27 22 26 27 22 26 27 22 26 27 22 26 27 22 26 27 22 26 27 22 26 27 22 26 27 22 26 27 22 26 27 22 26 27 22 26 27 22 26 27 22 26 27 22 26 27 22 26 27 22 26 27 22 26 27 22 26 27 22 26 27 22 26 27 22 26 27 22 26 27 22 26 27 22 26 27 22 26 27 22 26 27 22 26 27 22 26 27 22 26 27 22 26 27 22 26 27 22 26 27 22 26 27 22 26 27 22 26 27 22 26 27 22 26 27 22 26 27 22 26 27 22 26 27 22 26 27 22 26 27 22 26 27 22 26 27 22 26 27 22 26 27 22 26 27 22 26 27 22 26 27 22 26 27 22 26 27 22 26 27 22 26 27 22 26 27 22 26 27 22 26 27 22 26 27 22 26 27 22 26 27 22 26 27 22 26 27 22 26 27 22 26 27 22 26 27 22 26 27 22 26 27 22 26 27 22 26 27 22 26 27 22 26 27 22 26 27 22 26 27 22 26 27 22 26 27 22 26 27 22 26 27 22 26 27 22 26 27 22 26 27 22 26 27 22 26 27 22 26 27 22 26 27
22 26 27 22 26 27 22 26 27 72 76 76 82 86 86 83 87 87 22 26 27 72 76 76 81 85 85 73 77 77 75 79 79 22 26 27 87 91 91 88 92 92 79 83 83 82 86 86 58 58 58 61 61 61 110 69 104 57 57 57 65 65 65 71 71 71 71 71 71 63 63 63 59 59 59 55 55 55 55 55 55 84 73 111 68 68 68 62 62 62 54 54 54 55 55 55 64 64 64 66 66 66 61 61 61 71 71 71 60 60 60 60 60 60 68 68 68 61 61 61 66 66 66 60 60 60 62 62 62 71 71 71 88 72 110 61 61 61 104 70 106 68 68 68 57 57 57 54 54 54 70 70 70 67 67 67 68 68 68 60 60 60 69 69 69 70 70 70 57 57 57 66 66 66 59 59 59 71 71 71 62 62 62 63 63 63 59 59 59 63 63 63 68 68 68 61 61 61 68 68 68 72 72 72 66 66 66 66 66 66 68 68 68 69 69 69 55 55 55 68 68 68 69 69 69 71 71 71 69 69 69 63 63 63 68 68 68 69 69 69 64 64 64 83 73 111 71 71 71 63 63 63 69 69 69 56 56 56 97 71 107 72 72 72 61 61 61 54 54 54 96 71 108 57 57 57 70 70 70 71 71 71 100 71 106 60 60 60 55 55 55 61 61 61 55 55 55 54 54 54 72 72 72 67 67 67 67 67 67 63 63 63 60 60 60 69 69 69 67 67 67 60 60 60 66 66 66 59 59 59 70 70 70 58 58 58 67 67 67 57 57 57 66 66 66 61 61 61 61 61 61 69 69 69 69 69 69 55 55 55 72 72 72 72 72 72 69 69 69 59 59 59 71 71 71 22 26 27 22 26 27 22 26 27 22 26 27 22 26 27 22 26 27 22 26 27 22 26 27 22 26 27 107 108 99 108 109 100 109 110 101 103 105 97 84 87 81 100 102 94 87 89 83 83 85 80 87 90 84 94 96 89 105 106 98 85 88 82 88 91 85 95 97 90 22 26 27 22 26 27 22 26 27 22 26 27 22 26 27 22 26 27 22 26 27 22 26 27 22 26 27 22 26 27 22 26 27 22 26 27 22 26 27 22 26 27 22 26 27 22 26 27 22 26 27 22 26 27 22 26 27 22 26 27 22 26 27 22 26 27 22 26 27 22 26 27 22 26 27 22 26 27 22 26 27 22 26 27 22 26 27 22 26 27 22 26 27 22 26 27 22 26 27 22 26 27 22 26 27 22 26 27 22 26 27 22 26 27 22 26 27 22 26 27 22 26 27 22 26 27 22 26 27 22 26 27 22 26 27 22 26 27 22 26 27 22 26 27 22 26 27 22 26 27 22 26 27 22 26 27 22 26 27 22 26 27 22 26 27 22 26 27 22 26 27 22 26 27 22 26 27 22 26 27 22 26 27 22 26 27 22 26 27 22 26 27 22 26 27 22 26 27 22 26 27 22 26 27 22 26 27 22 26 27 22 26 27 22 26 27 22 26 27 22 26 27 22 26 27 22 26 27 22 26 27 22 26 27 22 26 27 22 26 27 22 26 27 22 26 27 22 26 27 22 26 27 22 26 27 22 26 27 22 26 27 22 26 27 22 26 27 22 26 27 22 26 27 22 26 27 22 26 27 22 26 27 22 26 27 22 26 27 22 26 27 22 26 27 22 26 27 22 26 27 22 26 27 22 26 27 22 26 27 22 26 27 22 26 27 22 26 27 22 26 27 22 26 27
22 26 27 22 26 27 22 26 27 77 81 81 78 82 82 71 75 75 22 26 27 71 75 75 79 83 83 73 77 77 85 89 89 22 26 27 74 78 78 78 82 82 79 83 83 89 93 93 61 61 61 65 65 65 63 63 63 74 74 74 74 74 74 62 62 62 68 68 68 72 72 72 69 69 69 115 74 109 71 71 71 63 63 63 74 74 74 71 71 71 64 64 64 102 76 113 59 59 59 68 68 68 63 63 63 75 75 75 61 61 61 62 62 62 72 72 72 71 71 71 70 70 70 69 69 69 73 73 73 67 67 67 69 69 69 64 64 64 59 59 59 64 64 64 59 59 59 64 64 64 68 68 68 72 72 72 113 74 109 69 69 69 66 66 66 64 64 64 73 73 73 68 68 68 71 71 71 64 64 64 68 68 68 75 75 75 73 73 73 61 61 61 100 76 113 67 67 67 71 71 71 76 76 76 57 57 57 74 74 74 63 63 63 66 66 66 68 68 68 66 66 66 64 64 64 61 61 61 116 74 109 60 60 60 71 71 71 62 62 62 71 71 71 70 70 70 58 58 58 72 72 72 68 68 68 64 64 64 65 65 65 73 73 73 74 74 74 59 59 59 73 73 73 69 69 69 74 74 74 64 64 64 75 75 75 68 68 68 74 74 74 61 61 61 74 74 74 71 71 71 68 68 68 64 64 64 69 69 69 58 58 58 75 75 75 74 74 74 66 66 66 70 70 70 62 62 62 58 58 58 73 73 73 74 74 74 74 74 74 93 77 115 72 72 72 76 76 76 75 75 75 71 71 71 71 71 71 69 69 69 75 75 75 89 77 116 59 59 59 69 69 69 65 65 65 22 26 27 22 26 27 22 26 27 22 26 27 22 26 27 22 26 27 22 26 27 22 26 27 22 26 27 102 104 96 106 107 99 85 87 82 91 93 86 99 101 93 108 109 101 83 86 80 99 100 93 102 103 95 82 85 80 107 108 99 86 88 83 81 84 79 108 109 100 22 26 27 22 26 27 22 26 27 22 26 27 22 26 27 22 26 27 22 26 27 22 26 27 22 26 27 22 26 27 22 26 27 22 26 27 22 26 27 22 26 27 22 26 27 22 26 27 22 26 27 22 26 27 22 26 27 22 26 27 22 26 27 22 26 27 22 26 27 22 26 27 22 26 27 22 26 27 22 26 27 22 26 27 22 26 27 22 26 27 22 26 27 22 26 27 22 26 27 22 26 27 22 26 27 22 26 27 22 26 27 22 26 27 22 26 27 22 26 27 22 26 27 22 26 27 22 26 27 22 26 27 22 26 27 22 26 27 22 26 27 22 26 27 22 26 27 22 26 27 22 26 27 22 26 27 22 26 27 22 26 27 22 26 27 22 26 27 22 26 27 22 26 27 22 26 27 22 26 27 22 26 27 22 26 27 22 26 27 22 26 27 22 26 27 22 26 27 22 26 27 22 26 27 22 26 27 22 26 27 22 26 27 22 26 27 22 26 27 22 26 27 22 26 27 22 26 27 22 26 27 22 26 27 22 26 27 22 26 27 22 26 27 22 26 27 22 26 27 22 26 27 22 26 27 22 26 27 22 26 27 22 26 27 22 26 27 22 26 27 22 26 27 22 26 27 22 26 27 22 26 27 22 26 27 22 26 27 22 26 27 22 26 27 22 26 27 22 26 27 22 26 27 22 26 27 22 26 27 22 26 27 22 26 27 22 26 27 22 26 27 22 26 27
22 26 27 22 26 27 22 26 27 78 82 82 88 92 92 74 78 78 22 26 27 80 84 84 70 74 74 76 80 80 88 92 92 22 26 27 89 93 93 70 74 74 75 79 79 72 76 76 76 76 76 66 66 66 76 76 76 66 66 66 75 75 75 69 69 69 118 77 112 63 63 63 67 67 67 70 70 70 72 72 72 102 79 116 118 77 112 60 60 60 73 73 73 60 60 60 69 69 69 63 63 63 60 60 60 69 69 69 68 68 68 77 77 77 69 69 69 66 66 66 65 65 65 76 76 76 73 73 73 62 62 62 75 75 75 63 63 63 77 77 77 75 75 75 100 79 117 78 78 78 65 65 65 72 72 72 68 68 68 70 70 70 77 77 77 73 73 73 75 75 75 62 62 62 60 60 60 68 68 68 70 70 70 67 67 67 66 66 66 74 74 74 69 69 69 70 70 70 61 61 61 77 77 77 60 60 60 65 65 65 107 78 115 74 74 74 70 70 70 74 74 74 61 61 61 76 76 76 94 80 118 73 73 73 73 73 73 73 73 73 60 60 60 76 76 76 77 77 77 71 71 71 111 78 114 78 78 78 60 60 60 75 75 75 75 75 75 69 69 69 77 77 77 60 60 60 64 64 64 68 68 68 73 73 73 61 61 61 62 62 62 61 61 61 72 72 72 77 77 77 72 72 72 73 73 73 72 72 72 77 77 77 69 69 69 69 69 69 74 74 74 61 61 61 70 70 70 69 69 69 62 62 62 91 80 119 74 74 74 75 75 75 64 64 64 112 78 114 77 77 77 75 75 75 76 76 76 69 69 69 63 63 63 77 77 77 73 73 73 63 63 63 69 69 69 22 26 27 22 26 27 22 26 27 22 26 27 22 26 27 22 26 27 22 26 27 22 26 27 22 26 27 96 98 91 82 85 80 101 103 95 89 91 85 109 110 101 99 100 93 96 98 91 107 108 99 105 106 98 98 100 93 102 103 95 94 96 89 95 97 90 108 109 100 22 26 27 22 26 27 22 26 27 22 26 27 22 26 27 22 26 27 22 26 27 22 26 27 22 26 27 22 26 27 22 26 27 22 26 27 22 26 27 22 26 27 22 26 27 22 26 27 22 26 27 22 26 27 22 26 27 22 26 27 22 26 27 22 26 27 22 26 27 22 26 27 22 26 27 22 26 27 22 26 27 22 26 27 22 26 27 22 26 27 22 26 27 22 26 27 22 26 27 22 26 27 22 26 27 22 26 27 22 26 27 22 26 27 22 26 27 22 26 27 22 26 27 22 26 27 22 26 27 22 26 27 22 26 27 22 26 27 22 26 27 22 26 27 22 26 27 22 26 27 22 26 27 22 26 27 22 26 27 22 26 27 22 26 27 22 26 27 22 26 27 22 26 27 22 26 27 22 26 27 22 26 27 22 26 27 22 26 27 22 26 27 22 26 27 22 26 27 22 26 27 22 26 27 22 26 27 22 26 27 22 26 27 22 26 27 22 26 27 22 26 27 22 26 27 22 26 27 22 26 27 22 26 27 22 26 27 22 26 27 22 26 27 22 26 27 22 26 27 22 26 27 22 26 27 22 26 27 22 26 27 22 26 27 22 26 27 22 26 27 22 26 27 22 26 27 22 26 27 22 26 27 22 26 27 22 26 27 22 26 27 22 26 27 22 26 27 22 26 27 22 26 27 22 26 27 22 26 27 22 26 27 22 26 27 22 26 27 22 26 27 22 26 27
22 26 27 22 26 27 22 26 27 84 88 88 70 74 74 75 79 79 22 26 27 71 75 75 82 86 86 80 84 84 91 95 95 22 26 27 71 75 75 80 84 84 70 74 74 90 94 94 113 80 116 77 77 77 63 63 63 64 64 64 77 77 77 70 70 70 71 71 71 70 70 70 62 62 62 63 63 63 65 65 65 73 73 73 115 79 115 67 67 67 70 70 70 70 70 70 75 75 75 98 82 120 77 77 77 63 63 63 66 66 66 73 73 73 71 71 71 66 66 66 72 72 72 79 79 79 63 63 63 78 78 78 62 62 62 75 75 75 72 72 72 61 61 61 99 82 120 68 68 68 77 77 77 74 74 74 79 79 79 97 82 120 78 78 78 68 68 68 79 79 79 73 73 73 72 72 72 63 63 63 78 78 78 66 66 66 108 80 117 102 81 119 75 75 75 74 74 74 97 82 120 68 68 68 61 61 61 74 74 74 67 67 67 62 62 62 79 79 79 117 79 115 68 68 68 74 74 74 68 68 68 62 62 62 73 73 73 68 68 68 72 72 72 73 73 73 77 77 77 68 68 68 67 67 67 76 76 76 68 68 68 64 64 64 78 78 78 120 79 114 63 63 63 70 70 70 72 72 72 117 79 115 74 74 74 71 71 71 78 78 78 102 81 119 75 75 75 78 78 78 73 73 73 73 73 73 75 75 75 109 80 117 75 75 75 75 75 75 62 62 62 73 73 73 66 66 66 92 82 122 68 68 68 77 77 77 106 81 118 64 64 64 61 61 61 66 66 66 78 78 78 69 69 69 76 76 76 61 61 61 62 62 62 74 74 74 70 70 70 69 69 69 73 73 73 22 26 27 22 26 27 22 26 27 22 26 27 22 26 27 22 26 27 22 26 27 22 26 27 22 26 27 103 104 96 83 86 81 107 108 100 110 111 102 104 106 97 82 85 80 84 87 81 93 95 88 103 104 96 103 104 96 85 88 82 84 86 81 108 109 100 105 106 98 22 26 27 22 26 27 22 26 27 22 26 27 22 26 27 22 26 27 22 26 27 22 26 27 22 26 27 22 26 27 22 26 27 22 26 27 22 26 27 22 26 27 22 26 27 22 26 27 22 26 27 22 26 27 22 26 27 22 26 27 22 26 27 22 26 27 22 26 27 22 26 27 22 26 27 22 26 27 22 26 27 22 26 27 22 26 27 22 26 27 22 26 27 22 26 27 22 26 27 22 26 27 22 26 27 22 26 27 22 26 27 22 26 27 22 26 27 22 26 27 22 26 27 22 26 27 22 26 27 22 26 27 22 26 27 22 26 27 22 26 27 22 26 27 22 26 27 22 26 27 22 26 27 22 26 27 22 26 27 22 26 27 22 26 27 22 26 27 22 26 27 22 26 27 22 26 27 22 26 27 22 26 27 22 26 27 22 26 27 22 26 27 22 26 27 22 26 27 22 26 27 22 26 27 22 26 27 22 26 27 22 26 27 22 26 27 22 26 27 22 26 27 22 26 27 22 26 27 22 26 27 22 26 27 22 26 27 22 26 27 22 26 27 22 26 27 22 26 27 22 26 27 22 26 27 22 26 27 22 26 27 22 26 27 22 26 27 22 26 27 22 26 27 22 26 27 22 26 27 22 26 27 22 26 27 22 26 27 22 26 27 22 26 27 22 26 27 22 26 27 22 26 27 22 26 27 22 26 27 22 26 27 22 26 27 22 26 27 22 26 27 22 26 27
22 26 27 22 26 27 22 26 27 72 76 76 78 82 82 72 76 76 22 26 27 79 83 83 85 89 89 83 87 87 86 90 90 22 26 27 89 93 93 86 90 90 70 74 74 86 90 90 67 67 67 77 77 77 65 65 65 63 63 63 80 80 80 79 79 79 74 74 74 73 73 73 73 73 73 74 74 74 64 64 64 74 74 74 68 68 68 71 71 71 69 69 69 72 72 72 96 84 124 71 71 71 65 65 65 80 80 80 73 73 73 77 77 77 73 73 73 77 77 77 72 72 72 72 72 72 65 65 65 67 67 67 77 77 77 80 80 80 78 78 78 74 74 74 69 69 69 79 79 79 81 81 81 78 78 78 65 65 65 77 77 77 70 70 70 80 80 80 68 68 68 67 67 67 80 80 80 80 80 80 72 72 72 79 79 79 71 71 71 74 74 74 71 71 71 65 65 65 75 75 75 72 72 72 71 71 71 73 73 73 63 63 63 64 64 64 72 72 72 77 77 77 112 82 119 65 65 65 108 83 120 77 77 77 80 80 80 68 68 68 67 67 67 79 79 79 73 73 73 78 78 78 68 68 68 74 74 74 69 69 69 81 81 81 71 71 71 65 65 65 67 67 67 64 64 64 78 78 78 81 81 81 81 81 81 66 66 66 79 79 79 73 73 73 75 75 75 77 77 77 112 82 119 63 63 63 67 67 67 63 63 63 71 71 71 74 74 74 63 63 63 77 77 77 66 66 66 72 72 72 69 69 69 78 78 78 78 78 78 72 72 72 104 83 121 81 81 81 104 83 121 73 73 73 64 64 64 70 70 70 63 63 63 68 68 68 122 81 116 74 74 74 65 65 65 22 26 27 22 26 27 22 26 27 22 26 27 22 26 27 22 26 27 22 26 27 22 26 27 22 26 27 87 90 84 93 95 88 109 110 101 97 99 92 82 85 80 94 96 89 85 87 82 82 85 80 107 108 99 86 88 82 97 99 91 108 109 101 92 94 88 107 108 99 22 26 27 22 26 27 22 26 27 22 26 27 22 26 27 22 26 27 22 26 27 22 26 27 22 26 27 22 26 27 22 26 27 22 26 27 22 26 27 22 26 27 22 26 27 22 26 27 22 26 27 22 26 27 22 26 27 22 26 27 22 26 27 22 26 27 22 26 27 22 26 27 22 26 27 22 26 27 22 26 27 22 26 27 22 26 27 22 26 27 22 26 27 22 26 27 22 26 27 22 26 27 22 26 27 22 26 27 22 26 27 22 26 27 22 26 27 22 26 27 22 26 27 22 26 27 22 26 27 22 26 27 22 26 27 22 26 27 22 26 27 22 26 27 22 26 27 22 26 27 22 26 27 22 26 27 22 26 27 22 26 27 22 26 27 22 26 27 22 26 27 22 26 27 22 26 27 22 26 27 22 26 27 22 26 27 22 26 27 22 26 27 22 26 27 22 26 27 22 26 27 22 26 27 22 26 27 22 26 27 22 26 27 22 26 27 22 26 27 22 26 27 22 26 27 22 26 27 22 26 27 22 26 27 22 26 27 22 26 27 22 26 27 22 26 27 22 26 27 22 26 27 22 26 27 22 26 27 22 26 27 22 26 27 22 26 27 22 26 27 22 26 27 22 26 27 22 26 27 22 26 27 22 26 27 22 26 27 22 26 27 22 26 27 22 26 27 22 26 27 22 26 27 22 26 27 22 26 27 22 26 27 22 26 27 22 26 27 22 26 27 22 26 27
22 26 27 22 26 27 22 26 27 86 90 90 70 74 74 88 92 92 22 26 27 85 89 89 85 89 89 91 95 95 78 82 82 22 26 27 83 87 87 91 95 95 78 82 82 77 81 81 73 73 73 113 86 124 105 87 126 110 86 125 81 81 81 76 76 76 72 72 72 79 79 79 78 78 78 66 66 66 82 82 82 77 77 77 83 83 83 71 71 71 111 86 124 83 83 83 75 75 75 111 86 124 82 82 82 71 71 71 72 72 72 74 74 74 71 71 71 76 76 76 67 67 67 77 77 77 71 71 71 83 83 83 74 74 74 83 83 83 113 86 124 78 78 78 82 82 82 74 74 74 111 86 124 67 67 67 78 78 78 81 81 81 80 80 80 81 81 81 74 74 74 67 67 67 79 79 79 76 76 76 81 81 81 71 71 71 74 74 74 79 79 79 80 80 80 77 77 77 67 67 67 73 73 73 82 82 82 69 69 69 71 71 71 78 78 78 78 78 78 75 75 75 71 71 71 72 72 72 70 70 70 69 69 69 80 80 80 79 79 79 79 79 79 76 76 76 80 80 80 75 75 75 80 80 80 66 66 66 67 67 67 78 78 78 82 82 82 69 69 69 81 81 81 108 87 125 73 73 73 71 71 71 82 82 82 73 73 73 76 76 76 66 66 66 74 74 74 69 69 69 83 83 83 65 65 65 79 79 79 65 65 65 66 66 66 77 77 77 71 71 71 74 74 74 78 78 78 71 71 71 78 78 78 71 71 71 66 66 66 76 76 76 66 66 66 82 82 82 68 68 68 66 66 66 66 66 66 125 84 120 80 80 80 82 82 82 79 79 79 72 72 72 113 86 124 22 26 27 22 26 27 22 26 27 22 26 27 22 26 27 22 26 27 22 26 27 22 26 27 22 26 27 95 97 90 82 85 80 96 98 90 99 101 93 99 100 93 98 100 92 96 98 91 106 107 98 81 84 79 84 86 81 103 105 97 83 86 80 102 104 96 95 97 90 22 26 27 22 26 27 22 26 27 22 26 27 22 26 27 22 26 27 22 26 27 22 26 27 22 26 27 22 26 27 22 26 27 22 26 27 22 26 27 22 26 27 22 26 27 22 26 27 22 26 27 22 26 27 22 26 27 22 26 27 22 26 27 22 26 27 22 26 27 22 26 27 22 26 27 22 26 27 22 26 27 22 26 27 22 26 27 22 26 27 22 26 27 22 26 27 22 26 27 22 26 27 22 26 27 22 26 27 22 26 27 22 26 27 22 26 27 22 26 27 22 26 27 22 26 27 22 26 27 22 26 27 22 26 27 22 26 27 22 26 27 22 26 27 22 26 27 22 26 27 22 26 27 22 26 27 22 26 27 22 26 27 22 26 27 22 26 27 22 26 27 22 26 27 22 26 27 22 26 27 22 26 27 22 26 27 22 26 27 22 26 27 22 26 27 22 26 27 22 26 27 22 26 27 22 26 27 22 26 27 22 26 27 22 26 27 22 26 27 22 26 27 22 26 27 22 26 27 22 26 27 22 26 27 22 26 27 22 26 27 22 26 27 22 26 27 22 26 27 22 26 27 22 26 27 22 26 27 22 26 27 22 26 27 22 26 27 22 26 27 22 26 27 22 26 27 22 26 27 22 26 27 22 26 27 22 26 27 22 26 27 22 26 27 22 26 27 22 26 27 22 26 27 22 26 27 22 26 27 22 26 27 22 26 27 22 26 27 22 26 27 22 26 27
22 26 27 22 26 27 22 26 27 87 91 91 90 94 94 82 86 86 22 26 27 76 80 80 90 94 94 84 88 88 88 92 92 22 26 27 86 90 90 89 93 93 86 90 90 84 88 88 75 75 75 121 91 129 115 92 130 87 87 87 83 83 83 81 81 81 70 70 70 85 85 85 80 80 80 86 86 86 86 86 86 86 86 86 78 78 78 72 72 72 112 92 131 85 85 85 117 91 130 84 84 84 84 84 84 77 77 77 82 82 82 71 71 71 106 93 133 130 90 126 73 73 73 87 87 87 104 93 133 74 74 74 85 85 85 82 82 82 78 78 78 82 82 82 85 85 85 129 90 126 75 75 75 80 80 80 86 86 86 82 82 82 84 84 84 76 76 76 76 76 76 81 81 81 78 78 78 82 82 82 72 72 72 85 85 85 84 84 84 72 72 72 71 71 71 83 83 83 72 72 72 71 71 71 79 79 79 77 77 77 72 72 72 69 69 69 86 86 86 79 79 79 72 72 72 84 84 84 84 84 84 84 84 84 73 73 73 81 81 81 81 81 81 109 92 132 74 74 74 70 70 70 78 78 78 83 83 83 77 77 77 69 69 69 69 69 69 86 86 86 77 77 77 71 71 71 83 83 83 83 83 83 73 73 73 84 84 84 74 74 74 80 80 80 78 78 78 79 79 79 85 85 85 87 87 87 84 84 84 75 75 75 124 90 128 71 71 71 79 79 79 81 81 81 82 82 82 84 84 84 78 78 78 84 84 84 86 86 86 77 77 77 82 82 82 106 93 133 80 80 80 72 72 72 71 71 71 83 83 83 79 79 79 69 69 69 79 79 79 115 92 130 79 79 79 22 26 27 22 26 27 22 26 27 22 26 27 22 26 27 22 26 27 22 26 27 22 26 27 22 26 27 85 88 82 81 84 78 106 108 99 91 94 87 109 110 101 104 105 97 84 87 81 88 90 84 87 90 84 100 101 94 109 110 101 84 87 82 95 97 90 86 89 83 22 26 27 22 26 27 22 26 27 22 26 27 22 26 27 22 26 27 22 26 27 22 26 27 22 26 27 22 26 27 22 26 27 22 26 27 22 26 27 22 26 27 22 26 27 22 26 27 22 26 27 22 26 27 22 26 27 22 26 27 22 26 27 22 26 27 22 26 27 22 26 27 22 26 27 22 26 27 22 26 27 22 26 27 22 26 27 22 26 27 22 26 27 22 26 27 22 26 27 22 26 27 22 26 27 22 26 27 22 26 27 22 26 27 22 26 27 22 26 27 22 26 27 22 26 27 22 26 27 22 26 27 22 26 27 22 26 27 22 26 27 22 26 27 22 26 27 22 26 27 22 26 27 22 26 27 22 26 27 22 26 27 22 26 27 22 26 27 22 26 27 22 26 27 22 26 27 22 26 27 22 26 27 22 26 27 22 26 27 22 26 27 22 26 27 22 26 27 22 26 27 22 26 27 22 26 27 22 26 27 22 26 27 22 26 27 22 26 27 22 26 27 22 26 27 22 26 27 22 26 27 22 26 27 22 26 27 22 26 27 22 26 27 22 26 27 22 26 27 22 26 27 22 26 27 22 26 27 22 26 27 22 26 27 22 26 27 22 26 27 22 26 27 22 26 27 22 26 27 22 26 27 22 26 27 22 26 27 22 26 27 22 26 27 22 26 27 22 26 27 22 26 27 22 26 27 22 26 27 22 26 27 22 26 27 22 26 27 22 26 27 22 26 27
22 26 27 22 26 27 22 26 27 81 85 85 86 90 90 74 78 78 22 26 27 75 79 79 92 96 96 75 79 79 72 76 76 22 26 27 85 89 89 76 80 80 84 88 88 78 82 82 80 80 80 90 90 90 85 85 85 75 75 75 88 88 88 113 99 140 75 75 75 89 89 89 91 91 91 80 80 80 88 88 88 84 84 84 91 91 91 90 90 90 134 96 134 88 88 88 90 90 90 89 89 89 135 96 134 74 74 74 75 75 75 78 78 78 84 84 84 83 83 83 76 76 76 81 81 81 75 75 75 89 89 89 89 89 89 89 89 89 91 91 91 84 84 84 82 82 82 75 75 75 86 86 86 87 87 87 88 88 88 86 86 86 89 89 89 76 76 76 91 91 91 78 78 78 75 75 75 78 78 78 136 96 133 75 75 75 75 75 75 91 91 91 79 79 79 91 91 91 86 86 86 83 83 83 77 77 77 89 89 89 78 78 78 88 88 88 79 79 79 74 74 74 89 89 89 79 79 79 91 91 91 82 82 82 91 91 91 76 76 76 83 83 83 91 91 91 81 81 81 84 84 84 88 88 88 91 91 91 85 85 85 76 76 76 91 91 91 75 75 75 91 91 91 91 91 91 77 77 77 128 97 136 88 88 88 76 76 76 80 80 80 85 85 85 84 84 84 83 83 83 85 85 85 91 91 91 83 83 83 89 89 89 84 84 84 91 91 91 90 90 90 77 77 77 77 77 77 88 88 88 85 85 85 83 83 83 79 79 79 78 78 78 85 85 85 133 96 134 82 82 82 90 90 90 76 76 76 91 91 91 80 80 80 83 83 83 84 84 84 88 88 88 83 83 83 22 26 27 22 26 27 22 26 27 22 26 27 22 26 27 22 26 27 22 26 27 22 26 27 22 26 27 102 104 96 83 86 80 109 110 101 101 103 95 104 106 98 81 84 79 90 93 86 88 90 84 85 88 82 107 108 100 106 107 99 105 106 98 82 85 80 82 85 80 22 26 27 22 26 27 22 26 27 22 26 27 22 26 27 22 26 27 22 26 27 22 26 27 22 26 27 22 26 27 22 26 27 22 26 27 22 26 27 22 26 27 22 26 27 22 26 27 22 26 27 22 26 27 22 26 27 22 26 27 22 26 27 22 26 27 22 26 27 22 26 27 22 26 27 22 26 27 22 26 27 22 26 27 22 26 27 22 26 27 22 26 27 22 26 27 22 26 27 22 26 27 22 26 27 22 26 27 22 26 27 22 26 27 22 26 27 22 26 27 22 26 27 22 26 27 22 26 27 22 26 27 22 26 27 22 26 27 22 26 27 22 26 27 22 26 27 22 26 27 22 26 27 22 26 27 22 26 27 22 26 27 22 26 27 22 26 27 22 26 27 22 26 27 22 26 27 22 26 27 22 26 27 22 26 27 22 26 27 22 26 27 22 26 27 22 26 27 22 26 27 22 26 27 22 26 27 22 26 27 22 26 27 22 26 27 22 26 27 22 26 27 22 26 27 22 26 27 22 26 27 22 26 27 22 26 27 22 26 27 22 26 27 22 26 27 22 26 27 22 26 27 22 26 27 22 26 27 22 26 27 22 26 27 22 26 27 22 26 27 22 26 27 22 26 27 22 26 27 22 26 27 22 26 27 22 26 27 22 26 27 22 26 27 22 26 27 22 26 27 22 26 27 22 26 27 22 26 27 22 26 27 22 26 27 22 26 27 22 26 27 22 26 27
22 26 27 22 26 27 22 26 27 92 96 96 85 89 89 76 80 80 22 26 27 84 88 88 74 78 78 72 76 76 71 75 75 22 26 27 91 95 95 73 77 77 91 95 95 77 81 81 88 88 88 90 90 90 93 93 93 86 86 86 88 88 88 92 92 92 91 91 91 91 91 91 93 93 93 91 91 91 92 92 92 90 90 90 91 91 91 89 89 89 79 79 79 86 86 86 86 86 86 82 82 82 89 89 89 88 88 88 90 90 90 82 82 82 135 103 142 91 91 91 90 90 90 92 92 92 91 91 91 92 92 92 86 86 86 133 103 143 92 92 92 119 105 147 85 85 85 92 92 92 80 80 80 93 93 93 89 89 89 82 82 82 91 91 91 79 79 79 90 90 90 91 91 91 92 92 92 92 92 92 83 83 83 91 91 91 91 91 91 91 91 91 82 82 82 91 91 91 92 92 92 82 82 82 89 89 89 82 82 82 90 90 90 88 88 88 92 92 92 92 92 92 91 91 91 86 86 86 93 93 93 91 91 91 89 89 89 83 83 83 86 86 86 86 86 86 93 93 93 85 85 85 92 92 92 127 104 144 88 88 88 92 92 92 92 92 92 92 92 92 93 93 93 83 83 83 91 91 91 82 82 82 90 90 90 91 91 91 89 89 89 132 103 143 141 102 141 81 81 81 79 79 79 90 90 90 88 88 88 88 88 88 91 91 91 91 91 91 93 93 93 92 92 92 84 84 84 90 90 90 90 90 90 81 81 81 92 92 92 84 84 84 93 93 93 89 89 89 82 82 82 82 82 82 91 91 91 91 91 91 91 91 91 90 90 90 92 92 92 120 105 146 92 92 92 22 26 27 22 26 27 22 26 27 22 26 27 22 26 27 22 26 27 22 26 27 22 26 27 22 26 27 83 86 80 96 98 91 92 94 87 107 108 99 98 100 92 92 95 88 93 95 88 109 110 101 100 102 94 80 83 78 83 86 81 94 96 89 88 90 84 83 86 80 22 26 27 22 26 27 22 26 27 22 26 27 22 26 27 22 26 27 22 26 27 22 26 27 22 26 27 22 26 27 22 26 27 22 26 27 22 26 27 22 26 27 22 26 27 22 26 27 22 26 27 22 26 27 22 26 27 22 26 27 22 26 27 22 26 27 22 26 27 22 26 27 22 26 27 22 26 27 22 26 27 22 26 27 22 26 27 22 26 27 22 26 27 22 26 27 22 26 27 22 26 27 22 26 27 22 26 27 22 26 27 22 26 27 22 26 27 22 26 27 22 26 27 22 26 27 22 26 27 22 26 27 22 26 27 22 26 27 22 26 27 22 26 27 22 26 27 22 26 27 22 26 27 22 26 27 22 26 27 22 26 27 22 26 27 22 26 27 22 26 27 22 26 27 22 26 27 22 26 27 22 26 27 22 26 27 22 26 27 22 26 27 22 26 27 22 26 27 22 26 27 22 26 27 22 26 27 22 26 27 22 26 27 22 26 27 22 26 27 22 26 27 22 26 27 22 26 27 22 26 27 22 26 27 22 26 27 22 26 27 22 26 27 22 26 27 22 26 27 22 26 27 22 26 27 22 26 27 22 26 27 22 26 27 22 26 27 22 26 27 22 26 27 22 26 27 22 26 27 22 26 27 22 26 27 22 26 27 22 26 27 22 26 27 22 26 27 22 26 27 22 26 27 22 26 27 22 26 27 22 26 27 22 26 27 22 26 27 22 26 27 22 26 27
22 26 27 22 26 27 22 26 27 89 93 93 73 77 77 78 82 82 22 26 27 74 78 78 89 93 93 91 95 95 74 78 78 22 26 27 79 83 83 86 90 90 89 93 93 89 93 93 90 90 90 83 83 83 93 93 93 92 92 92 83 83 83 92 92 92 90 90 90 83 83 83 93 93 93 92 92 92 93 93 93 85 85 85 92 92 92 92 92 92 90 90 90 94 94 94 92 92 92 92 92 92 125 109 151 91 91 91 93 93 93 87 87 87 92 92 92 93 93 93 92 92 92 93 93 93 82 82 82 93 93 93 87 87 87 92 92 92 93 93 93 93 93 93 92 92 92 90 90 90 130 109 150 92 92 92 93 93 93 89 89 89 86 86 86 93 93 93 93 93 93 92 92 92 92 92 92 85 85 85 91 91 91 93 93 93 91 91 91 92 92 92 91 91 91 87 87 87 94 94 94 93 93 93 93 93 93 88 88 88 85 85 85 84 84 84 93 93 93 85 85 85 90 90 90 90 90 90 93 93 93 92 92 92 94 94 94 84 84 84 94 94 94 85 85 85 89 89 89 93 93 93 140 107 147 88 88 88 94 94 94 134 108 149 92 92 92 84 84 84 91 91 91 91 91 91 85 85 85 93 93 93 126 109 151 92 92 92 85 85 85 89 89 89 92 92 92 93 93 93 88 88 88 89 89 89 88 88 88 92 92 92 91 91 91 92 92 92 92 92 92 91 91 91 130 109 150 85 85 85 93 93 93 91 91 91 84 84 84 84 84 84 88 88 88 85 85 85 83 83 83 85 85 85 88 88 88 91 91 91 92 92 92 93 93 93 92 92 92 90 90 90 86 86 86 22 26 27 22 26 27 22 26 27 22 26 27 22 26 27 22 26 27 22 26 27 22 26 27 22 26 27 97 99 91 83 86 81 94 96 90 108 110 101 84 86 81 83 86 81 106 107 99 107 109 100 93 95 89 107 108 99 92 94 87 98 100 93 80 83 78 100 102 94 22 26 27 22 26 27 22 26 27 22 26 27 22 26 27 22 26 27 22 26 27 22 26 27 22 26 27 22 26 27 22 26 27 22 26 27 22 26 27 22 26 27 22 26 27 22 26 27 22 26 27 22 26 27 22 26 27 22 26 27 22 26 27 22 26 27 22 26 27 22 26 27 22 26 27 22 26 27 22 26 27 22 26 27 22 26 27 22 26 27 22 26 27 22 26 27 22 26 27 22 26 27 22 26 27 22 26 27 22 26 27 22 26 27 22 26 27 22 26 27 22 26 27 22 26 27 22 26 27 22 26 27 22 26 27 22 26 27 22 26 27 22 26 27 22 26 27 22 26 27 22 26 27 22 26 27 22 26 27 22 26 27 22 26 27 22 26 27 22 26 27 22 26 27 22 26 27 22 26 27 22 26 27 22 26 27 22 26 27 22 26 27 22 26 27 22 26 27 22 26 27 22 26 27 22 26 27 22 26 27 22 26 27 22 26 27 22 26 27 22 26 27 22 26 27 22 26 27 22 26 27 22 26 27 22 26 27 22 26 27 22 26 27 22 26 27 22 26 27 22 26 27 22 26 27 22 26 27 22 26 27 22 26 27 22 26 27 22 26 27 22 26 27 22 26 27 22 26 27 22 26 27 22 26 27 22 26 27 22 26 27 22 26 27 22 26 27 22 26 27 22 26 27 22 26 27 22 26 27 22 26 27 22 26 27 22 26 27 22 26 27 22 26 27
22 26 27 22 26 27 22 26 27 78 82 82 91 95 95 74 78 78 22 26 27 85 89 89 77 81 81 91 95 95 91 95 95 22 26 27 86 90 90 78 82 82 72 76 76 77 81 81 93 93 93 92 92 92 94 94 94 94 94 94 84 84 84 94 94 94 89 89 89 93 93 93 86 86 86 93 93 93 92 92 92 89 89 89 90 90 90 92 92 92 88 88 88 93 93 93 94 94 94 84 84 84 93 93 93 87 87 87 92 92 92 90 90 90 94 94 94 91 91 91 93 93 93 145 108 148 91 91 91 93 93 93 145 108 148 84 84 84 91 91 91 89 89 89 86 86 86 91 91 91 94 94 94 88 88 88 91 91 91 85 85 85 91 91 91 93 93 93 93 93 93 89 89 89 90 90 90 91 91 91 93 93 93 94 94 94 85 85 85 93 93 93 91 91 91 94 94 94 87 87 87 92 92 92 92 92 92 93 93 93 93 93 93 89 89 89 143 109 148 92 92 92 85 85 85 92 92 92 94 94 94 88 88 88 93 93 93 91 91 91 91 91 91 94 94 94 85 85 85 126 111 153 93 93 93 93 93 93 92 92 92 91 91 91 91 91 91 92 92 92 93 93 93 93 93 93 84 84 84 92 92 92 93 93 93 85 85 85 93 93 93 92 92 92 93 93 93 86 86 86 93 93 93 85 85 85 84 84 84 92 92 92 85 85 85 93 93 93 125 111 153 88 88 88 84 84 84 93 93 93 90 90 90 92 92 92 94 94 94 86 86 86 94 94 94 94 94 94 91 91 91 92 92 92 86 86 86 92 92 92 94 94 94 90 90 90 92 92 92 90 90 90 92 92 92 22 26 27 22 26 27 22 26 27 22 26 27 22 26 27 22 26 27 22 26 27 22 26 27 22 26 27 86 89 83 93 95 88 95 97 90 80 83 78 86 88 82 86 88 83 93 95 88 83 86 81 108 109 100 89 91 85 107 108 99 86 88 83 83 86 80 95 97 90 22 26 27 22 26 27 22 26 27 22 26 27 22 26 27 22 26 27 22 26 27 22 26 27 22 26 27 22 26 27 22 26 27 22 26 27 22 26 27 22 26 27 22 26 27 22 26 27 22 26 27 22 26 27 22 26 27 22 26 27 22 26 27 22 26 27 22 26 27 22 26 27 22 26 27 22 26 27 22 26 27 22 26 27 22 26 27 22 26 27 22 26 27 22 26 27 22 26 27 22 26 27 22 26 27 22 26 27 22 26 27 22 26 27 22 26 27 22 26 27 22 26 27 22 26 27 22 26 27 22 26 27 22 26 27 22 26 27 22 26 27 22 26 27 22 26 27 22 26 27 22 26 27 22 26 27 22 26 27 22 26 27 22 26 27 22 26 27 22 26 27 22 26 27 22 26 27 22 26 27 22 26 27 22 26 27 22 26 27 22 26 27 22 26 27 22 26 27 22 26 27 22 26 27 22 26 27 22 26 27 22 26 27 22 26 27 22 26 27 22 26 27 22 26 27 22 26 27 22 26 27 22 26 27 22 26 27 22 26 27 22 26 27 22 26 27 22 26 27 22 26 27 22 26 27 22 26 27 22 26 27 22 26 27 22 26 27 22 26 27 22 26 27 22 26 27 22 26 27 22 26 27 22 26 27 22 26 27 22 26 27 22 26 27 22 26 27 22 26 27 22 26 27 22 26 27 22 26 27 22 26 27 22 26 27 22 26 27 22 26 27 22 26 27
22 26 27 22 26 27 22 26 27 80 84 84 69 73 73 87 91 91 22 26 27 77 81 81 74 78 78 69 73 73 71 75 75 22 26 27 71 75 75 92 96 96 85 89 89 77 81 81 91 91 91 94 94 94 94 94 94 92 92 92 84 84 84 90 90 90 92 92 92 92 92 92 88 88 88 92 92 92 92 92 92 94 94 94 92 92 92 91 91 91 85 85 85 90 90 90 82 82 82 93 93 93 92 92 92 84 84 84 92 92 92 82 82 82 85 85 85 93 93 93 93 93 93 83 83 83 85 85 85 85 85 85 141 107 146 91 91 91 93 93 93 127 108 150 93 93 93 89 89 89 84 84 84 83 83 83 91 91 91 88 88 88 93 93 93 90 90 90 93 93 93 92 92 92 94 94 94 93 93 93 89 89 89 92 92 92 84 84 84 86 86 86 85 85 85 88 88 88 128 108 149 90 90 90 93 93 93 93 93 93 92 92 92 82 82 82 91 91 91 85 85 85 91 91 91 91 91 91 94 94 94 93 93 93 90 90 90 85 85 85 91 91 91 93 93 93 86 86 86 89 89 89 93 93 93 94 94 94 92 92 92 139 107 147 91 91 91 87 87 87 82 82 82 93 93 93 88 88 88 89 89 89 86 86 86 144 106 145 92 92 92 89 89 89 93 93 93 91 91 91 82 82 82 93 93 93 84 84 84 84 84 84 93 93 93 92 92 92 82 82 82 91 91 91 93 93 93 92 92 92 91 91 91 92 92 92 93 93 93 142 106 146 91 91 91 94 94 94 83 83 83 83 83 83 89 89 89 93 93 93 89 89 89 143 106 145 91 91 91 92 92 92 93 93 93 22 26 27 22 26 27 22 26 27 22 26 27 22 26 27 22 26 27 22 26 27 22 26 27 22 26 27 91 93 87 108 110 101 96 98 91 103 105 97 86 89 83 102 103 95 102 104 96 94 96 90 104 105 97 94 97 90 99 101 93 107 108 100 87 90 84 108 110 101 22 26 27 22 26 27 22 26 27 22 26 27 22 26 27 22 26 27 22 26 27 22 26 27 22 26 27 22 26 27 22 26 27 22 26 27 22 26 27 22 26 27 22 26 27 22 26 27 22 26 27 22 26 27 22 26 27 22 26 27 22 26 27 22 26 27 22 26 27 22 26 27 22 26 27 22 26 27 22 26 27 22 26 27 22 26 27 22 26 27 22 26 27 22 26 27 22 26 27 22 26 27 22 26 27 22 26 27 22 26 27 22 26 27 22 26 27 22 26 27 22 26 27 22 26 27 22 26 27 22 26 27 22 26 27 22 26 27 22 26 27 22 26 27 22 26 27 22 26 27 22 26 27 22 26 27 22 26 27 22 26 27 22 26 27 22 26 27 22 26 27 22 26 27 22 26 27 22 26 27 22 26 27 22 26 27 22 26 27 22 26 27 22 26 27 22 26 27 22 26 27 22 26 27 22 26 27 22 26 27 22 26 27 22 26 27 22 26 27 22 26 27 22 26 27 22 26 27 22 26 27 22 26 27 22 26 27 22 26 27 22 26 27 22 26 27 22 26 27 22 26 27 22 26 27 22 26 27 22 26 27 22 26 27 22 26 27 22 26 27 22 26 27 22 26 27 22 26 27 22 26 27 22 26 27 22 26 27 22 26 27 22 26 27 22 26 27 22 26 27 22 26 27 22 26 27 22 26 27 22 26 27 22 26 27 22 26 27 22 26 27 22 26 27
22 26 27 22 26 27 22 26 27 71 75 75 81 85 85 79 83 83 22 26 27 73 77 77 93 97 97 77 81 81 76 80 80 22 26 27 76 80 80 76 80 80 81 85 85 74 78 78 91 91 91 92 92 92 90 90 90 91 91 91 86 86 86 91 91 91 80 80 80 90 90 90 82 82 82 92 92 92 132 102 142 83 83 83 80 80 80 90 90 90 91 91 91 91 91 91 91 91 91 86 86 86 86 86 86 83 83 83 91 91 91 84 84 84 89 89 89 79 79 79 86 86 86 78 78 78 80 80 80 82 82 82 84 84 84 88 88 88 83 83 83 86 86 86 83 83 83 88 88 88 85 85 85 91 91 91 88 88 88 89 89 89 83 83 83 78 78 78 81 81 81 90 90 90 91 91 91 83 83 83 81 81 81 88 88 88 91 91 91 83 83 83 91 91 91 91 91 91 91 91 91 92 92 92 84 84 84 83 83 83 79 79 79 89 89 89 91 91 91 92 92 92 91 91 91 81 81 81 92 92 92 92 92 92 92 92 92 86 86 86 83 83 83 93 93 93 93 93 93 85 85 85 86 86 86 92 92 92 81 81 81 92 92 92 90 90 90 78 78 78 88 88 88 78 78 78 131 102 142 80 80 80 86 86 86 91 91 91 92 92 92 93 93 93 81 81 81 91 91 91 84 84 84 92 92 92 90 90 90 80 80 80 87 87 87 92 92 92 78 78 78 83 83 83 81 81 81 92 92 92 86 86 86 93 93 93 92 92 92 87 87 87 91 91 91 86 86 86 89 89 89 92 92 92 85 85 85 91 91 91 92 92 92 90 90 90 125 103 143 91 91 91 118 104 145 22 26 27 22 26 27 22 26 27 22 26 27 22 26 27 22 26 27 22 26 27 22 26 27 22 26 27 81 84 78 93 95 88 101 103 95 90 92 86 90 92 86 99 101 93 100 101 94 88 90 84 89 91 85 81 84 79 84 87 81 100 102 94 87 90 84 105 106 98 22 26 27 22 26 27 22 26 27 22 26 27 22 26 27 22 26 27 22 26 27 22 26 27 22 26 27 22 26 27 22 26 27 22 26 27 22 26 27 22 26 27 22 26 27 22 26 27 22 26 27 22 26 27 22 26 27 22 26 27 22 26 27 22 26 27 22 26 27 22 26 27 22 26 27 22 26 27 22 26 27 22 26 27 22 26 27 22 26 27 22 26 27 22 26 27 22 26 27 22 26 27 22 26 27 22 26 27 22 26 27 22 26 27 22 26 27 22 26 27 22 26 27 22 26 27 22 26 27 22 26 27 22 26 27 22 26 27 22 26 27 22 26 27 22 26 27 22 26 27 22 26 27 22 26 27 22 26 27 22 26 27 22 26 27 22 26 27 22 26 27 22 26 27 22 26 27 22 26 27 22 26 27 22 26 27 22 26 27 22 26 27 22 26 27 22 26 27 22 26 27 22 26 27 22 26 27 22 26 27 22 26 27 22 26 27 22 26 27 22 26 27 22 26 27 22 26 27 22 26 27 22 26 27 22 26 27 22 26 27 22 26 27 22 26 27 22 26 27 22 26 27 22 26 27 22 26 27 22 26 27 22 26 27 22 26 27 22 26 27 22 26 27 22 26 27 22 26 27 22 26 27 22 26 27 22 26 27 22 26 27 22 26 27 22 26 27 22 26 27 22 26 27 22 26 27 22 26 27 22 26 27 22 26 27 22 26 27 22 26 27 22 26 27
22 26 27 22 26 27 22 26 27 74 78 78 72 76 76 88 92 92 22 26 27 87 91 91 84 88 88 73 77 77 86 90 90 22 26 27 83 87 87 91 95 95 73 77 77 89 93 93 79 79 79 82 82 82 79 79 79 85 85 85 82 82 82 84 84 84 89 89 89 82 82 82 80 80 80 82 82 82 86 86 86 74 74 74 75 75 75 91 91 91 75 75 75 74 74 74 79 79 79 88 88 88 87 87 87 91 91 91 83 83 83 87 87 87 79 79 79 87 87 87 90 90 90 88 88 88 85 85 85 91 91 91 84 84 84 89 89 89 120 97 136 89 89 89 80 80 80 77 77 77 87 87 87 90 90 90 73 73 73 75 75 75 89 89 89 74 74 74 75 75 75 119 97 136 80 80 80 89 89 89 79 79 79 80 80 80 75 75 75 86 86 86 82 82 82 89 89 89 88 88 88 90 90 90 87 87 87 91 91 91 84 84 84 78 78 78 83 83 83 75 75 75 91 91 91 125 96 135 89 89 89 81 81 81 83 83 83 80 80 80 77 77 77 89 89 89 84 84 84 76 76 76 83 83 83 86 86 86 89 89 89 79 79 79 74 74 74 84 84 84 90 90 90 77 77 77 87 87 87 123 96 135 77 77 77 85 85 85 74 74 74 82 82 82 84 84 84 89 89 89 91 91 91 76 76 76 89 89 89 87 87 87 86 86 86 74 74 74 79 79 79 76 76 76 86 86 86 79 79 79 77 77 77 76 76 76 85 85 85 75 75 75 88 88 88 76 76 76 89 89 89 90 90 90 79 79 79 90 90 90 90 90 90 90 90 90 86 86 86 84 84 84 81 81 81 22 26 27 22 26 27 22 26 27 22 26 27 22 26 27 22 26 27 22 26 27 22 26 27 22 26 27 107 109 100 105 106 98 83 86 80 96 98 91 96 98 91 92 95 88 106 108 99 81 84 79 85 88 82 89 91 85 83 86 80 87 89 84 87 90 84 98 100 93 22 26 27 22 26 27 22 26 27 22 26 27 22 26 27 22 26 27 22 26 27 22 26 27 22 26 27 22 26 27 22 26 27 22 26 27 22 26 27 22 26 27 22 26 27 22 26 27 22 26 27 22 26 27 22 26 27 22 26 27 22 26 27 22 26 27 22 26 27 22 26 27 22 26 27 22 26 27 22 26 27 22 26 27 22 26 27 22 26 27 22 26 27 22 26 27 22 26 27 22 26 27 22 26 27 22 26 27 22 26 27 22 26 27 22 26 27 22 26 27 22 26 27 22 26 27 22 26 27 22 26 27 22 26 27 22 26 27 22 26 27 22 26 27 22 26 27 22 26 27 22 26 27 22 26 27 22 26 27 22 26 27 22 26 27 22 26 27 22 26 27 22 26 27 22 26 27 22 26 27 22 26 27 22 26 27 22 26 27 22 26 27 22 26 27 22 26 27 22 26 27 22 26 27 22 26 27 22 26 27 22 26 27 22 26 27 22 26 27 22 26 27 22 26 27 22 26 27 22 26 27 22 26 27 22 26 27 22 26 27 22 26 27 22 26 27 22 26 27 22 26 27 22 26 27 22 26 27 22 26 27 22 26 27 22 26 27 22 26 27 22 26 27 22 26 27 22 26 27 22 26 27 22 26 27 22 26 27 22 26 27 22 26 27 22 26 27 22 26 27 22 26 27 22 26 27 22 26 27 22 26 27 22 26 27 22 26 27 22 26 27 22 26 27
22 26 27 22 26 27 22 26 27 81 85 85 89 93 93 80 84 84 22 26 27 91 95 95 71 75 75 78 82 82 91 95 95 22 26 27 84 88 88 93 97 97 72 76 76 83 87 87 72 72 72 68 68 68 72 72 72 73 73 73 75 75 75 82 82 82 86 86 86 82 82 82 85 85 85 79 79 79 80 80 80 84 84 84 71 71 71 73 73 73 69 69 69 78 78 78 74 74 74 86 86 86 73 73 73 85 85 85 71 71 71 78 78 78 123 89 127 71 71 71 80 80 80 75 75 75 82 82 82 83 83 83 69 69 69 129 89 125 68 68 68 69 69 69 68 68 68 71 71 71 78 78 78 69 69 69 70 70 70 78 78 78 77 77 77 81 81 81 72 72 72 125 89 126 83 83 83 82 82 82 80 80 80 72 72 72 79 79 79 82 82 82 81 81 81 69 69 69 129 88 125 72 72 72 81 81 81 84 84 84 70 70 70 86 86 86 74 74 74 76 76 76 75 75 75 84 84 84 80 80 80 74 74 74 81 81 81 69 69 69 80 80 80 82 82 82 80 80 80 81 81 81 80 80 80 85 85 85 83 83 83 79 79 79 72 72 72 83 83 83 73 73 73 74 74 74 84 84 84 86 86 86 82 82 82 113 90 129 81 81 81 69 69 69 84 84 84 122 89 127 75 75 75 75 75 75 85 85 85 79 79 79 72 72 72 82 82 82 81 81 81 78 78 78 85 85 85 78 78 78 122 89 127 85 85 85 71 71 71 83 83 83 73 73 73 80 80 80 77 77 77 77 77 77 80 80 80 76 76 76 77 77 77 110 91 130 84 84 84 75 75 75 82 82 82 22 26 27 22 26 27 22 26 27 22 26 27 22 26 27 22 26 27 22 26 27 22 26 27 22 26 27 85 88 82 87 90 84 101 103 95 106 107 99 87 90 84 94 96 89 103 104 96 91 93 87 101 102 95 89 92 85 83 86 81 91 93 87 88 90 84 92 94 87 22 26 27 22 26 27 22 26 27 22 26 27 22 26 27 22 26 27 22 26 27 22 26 27 22 26 27 22 26 27 22 26 27 22 26 27 22 26 27 22 26 27 22 26 27 22 26 27 22 26 27 22 26 27 22 26 27 22 26 27 22 26 27 22 26 27 22 26 27 22 26 27 22 26 27 22 26 27 22 26 27 22 26 27 22 26 27 22 26 27 22 26 27 22 26 27 22 26 27 22 26 27 22 26 27 22 26 27 22 26 27 22 26 27 22 26 27 22 26 27 22 26 27 22 26 27 22 26 27 22 26 27 22 26 27 22 26 27 22 26 27 22 26 27 22 26 27 22 26 27 22 26 27 22 26 27 22 26 27 22 26 27 22 26 27 22 26 27 22 26 27 22 26 27 22 26 27 22 26 27 22 26 27 22 26 27 22 26 27 22 26 27 22 26 27 22 26 27 22 26 27 22 26 27 22 26 27 22 26 27 22 26 27 22 26 27 22 26 27 22 26 27 22 26 27 22 26 27 22 26 27 22 26 27 22 26 27 22 26 27 22 26 27 22 26 27 22 26 27 22 26 27 22 26 27 22 26 27 22 26 27 22 26 27 22 26 27 22 26 27 22 26 27 22 26 27 22 26 27 22 26 27 22 26 27 22 26 27 22 26 27 22 26 27 22 26 27 22 26 27 22 26 27 22 26 27 22 26 27 22 26 27 22 26 27 22 26 27 22 26 27 22 26 27
22 26 27 22 26 27 22 26 27 71 75 75 90 94 94 71 75 75 22 26 27 76 80 80 93 97 97 70 74 74 78 82 82 22 26 27 91 95 95 88 92 92 72 76 76 73 77 77 75 75 75 71 71 71 73 73 73 69 69 69 80 80 80 65 65 65 77 77 77 74 74 74 66 66 66 69 69 69 74 74 74 107 86 124 77 77 77 104 86 125 79 79 79 73 73 73 82 82 82 75 75 75 78 78 78 78 78 78 78 78 78 74 74 74 72 72 72 74 74 74 81 81 81 77 77 77 79 79 79 77 77 77 69 69 69 78 78 78 110 86 123 71 71 71 67 67 67 71 71 71 65 65 65 82 82 82 78 78 78 69 69 69 69 69 69 82 82 82 67 67 67 82 82 82 72 72 72 67 67 67 78 78 78 77 77 77 67 67 67 79 79 79 115 85 122 66 66 66 77 77 77 69 69 69 80 80 80 76 76 76 79 79 79 74 74 74 72 72 72 67 67 67 79 79 79 78 78 78 72 72 72 77 77 77 79 79 79 70 70 70 70 70 70 75 75 75 79 79 79 68 68 68 69 69 69 69 69 69 82 82 82 69 69 69 73 73 73 77 77 77 81 81 81 80 80 80 77 77 77 67 67 67 78 78 78 68 68 68 75 75 75 66 66 66 80 80 80 66 66 66 74 74 74 125 84 119 67 67 67 125 84 119 82 82 82 69 69 69 74 74 74 67 67 67 82 82 82 83 83 83 78 78 78 73 73 73 78 78 78 73 73 73 77 77 77 71 71 71 76 76 76 82 82 82 82 82 82 69 69 69 79 79 79 77 77 77 73 73 73 71 71 71 74 74 74 22 26 27 22 26 27 22 26 27 22 26 27 22 26 27 22 26 27 22 26 27 22 26 27 22 26 27 96 98 91 105 106 98 92 95 88 98 100 93 87 89 83 94 96 89 99 101 93 105 107 98 82 85 79 89 91 85 104 106 97 98 100 92 107 108 99 97 99 91 22 26 27 22 26 27 22 26 27 22 26 27 22 26 27 22 26 27 22 26 27 22 26 27 22 26 27 22 26 27 22 26 27 22 26 27 22 26 27 22 26 27 22 26 27 22 26 27 22 26 27 22 26 27 22 26 27 22 26 27 22 26 27 22 26 27 22 26 27 22 26 27 22 26 27 22 26 27 22 26 27 22 26 27 22 26 27 22 26 27 22 26 27 22 26 27 22 26 27 22 26 27 22 26 27 22 26 27 22 26 27 22 26 27 22 26 27 22 26 27 22 26 27 22 26 27 22 26 27 22 26 27 22 26 27 22 26 27 22 26 27 22 26 27 22 26 27 22 26 27 22 26 27 22 26 27 22 26 27 22 26 27 22 26 27 22 26 27 22 26 27 22 26 27 22 26 27 22 26 27 22 26 27 22 26 27 22 26 27 22 26 27 22 26 27 22 26 27 22 26 27 22 26 27 22 26 27 22 26 27 22 26 27 22 26 27 22 26 27 22 26 27 22 26 27 22 26 27 22 26 27 22 26 27 22 26 27 22 26 27 22 26 27 22 26 27 22 26 27 22 26 27 22 26 27 22 26 27 22 26 27 22 26 27 22 26 27 22 26 27 22 26 27 22 26 27 22 26 27 22 26 27 22 26 27 22 26 27 22 26 27 22 26 27 22 26 27 22 26 27 22 26 27 22 26 27 22 26 27 22 26 27 22 26 27 22 26 27 22 26 27 22 26 27
22 26 27 22 26 27 22 26 27 77 81 81 91 95 95 83 87 87 22 26 27 86 90 90 85 89 89 70 74 74 79 83 83 22 26 27 90 94 94 82 86 86 85 89 89 83 87 87 71 71 71 66 66 66 70 70 70 75 75 75 73 73 73 80 80 80 71 71 71 63 63 63 74 74 74 66 66 66 80 80 80 122 80 116 69 69 69 67 67 67 79 79 79 73 73 73 96 84 123 68 68 68 74 74 74 69 69 69 80 80 80 74 74 74 80 80 80 65 65 65 64 64 64 80 80 80 68 68 68 106 82 120 77 77 77 65 65 65 63 63 63 77 77 77 77 77 77 73 73 73 71 71 71 78 78 78 68 68 68 79 79 79 64 64 64 70 70 70 77 77 77 65 65 65 63 63 63 80 80 80 74 74 74 76 76 76 67 67 67 79 79 79 69 69 69 109 82 119 72 72 72 71 71 71 80 80 80 72 72 72 79 79 79 75 75 75 64 64 64 67 67 67 80 80 80 73 73 73 107 82 120 75 75 75 62 62 62 77 77 77 63 63 63 80 80 80 75 75 75 80 80 80 62 62 62 77 77 77 63 63 63 79 79 79 67 67 67 80 80 80 75 75 75 74 74 74 77 77 77 117 81 117 67 67 67 66 66 66 77 77 77 65 65 65 80 80 80 77 77 77 79 79 79 62 62 62 63 63 63 72 72 72 80 80 80 75 75 75 79 79 79 72 72 72 75 75 75 74 74 74 62 62 62 67 67 67 77 77 77 75 75 75 75 75 75 78 78 78 74 74 74 77 77 77 80 80 80 69 69 69 67 67 67 69 69 69 78 78 78 65 65 65 80 80 80 22 26 27 22 26 27 22 26 27 22 26 27 22 26 27 22 26 27 22 26 27 22 26 27 22 26 27 106 107 99 90 92 86 82 84 79 81 84 79 88 90 84 83 86 81 97 99 91 86 89 83 100 102 94 91 94 87 94 96 89 90 92 86 100 101 94 95 97 90 22 26 27 22 26 27 22 26 27 22 26 27 22 26 27 22 26 27 22 26 27 22 26 27 22 26 27 22 26 27 22 26 27 22 26 27 22 26 27 22 26 27 22 26 27 22 26 27 22 26 27 22 26 27 22 26 27 22 26 27 22 26 27 22 26 27 22 26 27 22 26 27 22 26 27 22 26 27 22 26 27 22 26 27 22 26 27 22 26 27 22 26 27 22 26 27 22 26 27 22 26 27 22 26 27 22 26 27 22 26 27 22 26 27 22 26 27 22 26 27 22 26 27 22 26 27 22 26 27 22 26 27 22 26 27 22 26 27 22 26 27 22 26 27 22 26 27 22 26 27 22 26 27 22 26 27 22 26 27 22 26 27 22 26 27 22 26 27 22 26 27 22 26 27 22 26 27 22 26 27 22 26 27 22 26 27 22 26 27 22 26 27 22 26 27 22 26 27 22 26 27 22 26 27 22 26 27 22 26 27 22 26 27 22 26 27 22 26 27 22 26 27 22 26 27 22 26 27 22 26 27 22 26 27 22 26 27 22 26 27 22 26 27 22 26 27 22 26 27 22 26 27 22 26 27 22 26 27 22 26 27 22 26 27 22 26 27 22 26 27 22 26 27 22 26 27 22 26 27 22 26 27 22 26 27 22 26 27 22 26 27 22 26 27 22 26 27 22 26 27 22 26 27 22 26 27 22 26 27 22 26 27 22 26 27 22 26 27 22 26 27 22 26 27
22 26 27 22 26 27 22 26 27 86 90 90 81 85 85 79 83 83 22 26 27 77 81 81 82 86 86 81 85 85 90 94 94 22 26 27 93 97 97 86 90 90 85 89 89 69 73 73 64 64 64 64 64 64 108 80 117 67 67 67 74 74 74 119 79 114 75 75 75 72 72 72 74 74 74 78 78 78 118 79 114 61 61 61 77 77 77 75 75 75 77 77 77 72 72 72 67 67 67 72 72 72 72 72 72 63 63 63 79 79 79 66 66 66 79 79 79 62 62 62 62 62 62 61 61 61 73 73 73 63 63 63 75 75 75 72 72 72 70 70 70 68 68 68 77 77 77 63 63 63 63 63 63 67 67 67 63 63 63 72 72 72 70 70 70 73 73 73 65 65 65 75 75 75 77 77 77 77 77 77 70 70 70 79 79 79 63 63 63 73 73 73 74 74 74 67 67 67 72 72 72 72 72 72 63 63 63 62 62 62 75 75 75 72 72 72 71 71 71 72 72 72 73 73 73 65 65 65 68 68 68 75 75 75 63 63 63 74 74 74 61 61 61 76 76 76 69 69 69 64 64 64 77 77 77 65 65 65 63 63 63 76 76 76 78 78 78 68 68 68 63 63 63 61 61 61 69 69 69 64 64 64 66 66 66 62 62 62 77 77 77 78 78 78 70 70 70 73 73 73 71 71 71 67 67 67 73 73 73 63 63 63 71 71 71 64 64 64 97 81 120 70 70 70 68 68 68 71 71 71 61 61 61 61 61 61 69 69 69 75 75 75 78 78 78 77 77 77 79 79 79 75 75 75 60 60 60 73 73 73 75 75 75 68 68 68 61 61 61 63 63 63 71 71 71 22 26 27 22 26 27 22 26 27 22 26 27 22 26 27 22 26 27 22 26 27 22 26 27 22 26 27 104 106 97 86 89 83 98 100 93 95 97 90 93 95 88 100 101 94 98 99 92 105 106 98 107 108 99 98 100 92 105 106 98 90 92 86 97 99 92 91 93 87 22 26 27 22 26 27 22 26 27 22 26 27 22 26 27 22 26 27 22 26 27 22 26 27 22 26 27 22 26 27 22 26 27 22 26 27 22 26 27 22 26 27 22 26 27 22 26 27 22 26 27 22 26 27 22 26 27 22 26 27 22 26 27 22 26 27 22 26 27 22 26 27 22 26 27 22 26 27 22 26 27 22 26 27 22 26 27 22 26 27 22 26 27 22 26 27 22 26 27 22 26 27 22 26 27 22 26 27 22 26 27 22 26 27 22 26 27 22 26 27 22 26 27 22 26 27 22 26 27 22 26 27 22 26 27 22 26 27 22 26 27 22 26 27 22 26 27 22 26 27 22 26 27 22 26 27 22 26 27 22 26 27 22 26 27 22 26 27 22 26 27 22 26 27 22 26 27 22 26 27 22 26 27 22 26 27 22 26 27 22 26 27 22 26 27 22 26 27 22 26 27 22 26 27 22 26 27 22 26 27 22 26 27 22 26 27 22 26 27 22 26 27 22 26 27 22 26 27 22 26 27 22 26 27 22 26 27 22 26 27 22 26 27 22 26 27 22 26 27 22 26 27 22 26 27 22 26 27 22 26 27 22 26 27 22 26 27 22 26 27 22 26 27 22 26 27 22 26 27 22 26 27 22 26 27 22 26 27 22 26 27 22 26 27 22 26 27 22 26 27 22 26 27 22 26 27 22 26 27 22 26 27 22 26 27 22 26 27 22 26 27 22 26 27
22 26 27 22 26 27 22 26 27 89 93 93 86 90 90 90 94 94 22 26 27 84 88 88 85 89 89 76 80 80 85 89 89 22 26 27 87 91 91 82 86 86 73 77 77 70 74 74 77 77 77 77 77 77 112 77 113 75 75 75 74 74 74 68 68 68 64 64 64 73 73 73 68 68 68 64 64 64 69 69 69 65 65 65 62 62 62 76 76 76 69 69 69 74 74 74 72 72 72 72 72 72 73 73 73 77 77 77 61 61 61 72 72 72 75 75 75 63 63 63 62 62 62 59 59 59 78 78 78 74 74 74 72 72 72 69 69 69 60 60 60 75 75 75 71 71 71 68 68 68 71 71 71 73 73 73 62 62 62 67 67 67 66 66 66 98 79 117 94 80 118 72 72 72 71 71 71 76 76 76 72 72 72 68 68 68 74 74 74 63 63 63 75 75 75 76 76 76 77 77 77 68 68 68 76 76 76 74 74 74 75 75 75 72 72 72 68 68 68 77 77 77 77 77 77 63 63 63 62 62 62 110 77 114 75 75 75 65 65 65 69 69 69 75 75 75 77 77 77 71 71 71 72 72 72 60 60 60 68 68 68 73 73 73 74 74 74 73 73 73 62 62 62 61 61 61 68 68 68 72 72 72 63 63 63 99 79 117 76 76 76 90 80 119 78 78 78 61 61 61 64 64 64 63 63 63 70 70 70 67 67 67 66 66 66 68 68 68 62 62 62 77 77 77 67 67 67 78 78 78 73 73 73 76 76 76 77 77 77 73 73 73 66 66 66 109 78 114 73 73 73 73 73 73 59 59 59 72 72 72 63 63 63 73 73 73 77 77 77 72 72 72 69 69 69 22 26 27 22 26 27 22 26 27 22 26 27 22 26 27 22 26 27 22 26 27 22 26 27 22 26 27 102 103 95 92 94 88 110 111 102 105 106 98 89 92 86 82 85 79 99 100 93 95 97 90 94 96 89 90 92 86 80 83 78 83 86 80 110 111 102 98 100 92 22 26 27 22 26 27 22 26 27 22 26 27 22 26 27 22 26 27 22 26 27 22 26 27 22 26 27 22 26 27 22 26 27 22 26 27 22 26 27 22 26 27 22 26 27 22 26 27 22 26 27 22 26 27 22 26 27 22 26 27 22 26 27 22 26 27 22 26 27 22 26 27 22 26 27 22 26 27 22 26 27 22 26 27 22 26 27 22 26 27 22 26 27 22 26 27 22 26 27 22 26 27 22 26 27 22 26 27 22 26 27 22 26 27 22 26 27 22 26 27 22 26 27 22 26 27 22 26 27 22 26 27 22 26 27 22 26 27 22 26 27 22 26 27 22 26 27 22 26 27 22 26 27 22 26 27 22 26 27 22 26 27 22 26 27 22 26 27 22 26 27 22 26 27 22 26 27 22 26 27 22 26 27 22 26 27 22 26 27 22 26 27 22 26 27 22 26 27 22 26 27 22 26 27 22 26 27 22 26 27 22 26 27 22 26 27 22 26 27 22 26 27 22 26 27 22 26 27 22 26 27 22 26 27 22 26 27 22 26 27 22 26 27 22 26 27 22 26 27 22 26 27 22 26 27 22 26 27 22 26 27 22 26 27 22 26 27 22 26 27 22 26 27 22 26 27 22 26 27 22 26 27 22 26 27 22 26 27 22 26 27 22 26 27 22 26 27 22 26 27 22 26 27 22 26 27 22 26 27 22 26 27 22 26 27 22 26 27 22 26 27 22 26 27
22 26 27 22 26 27 22 26 27 84 88 88 91 95 95 93 97 97 22 26 27 88 92 92 92 96 96 75 79 79 92 96 96 22 26 27 90 94 94 69 73 73 85 89 89 83 87 87 73 73 73 61 61 61 70 70 70 59 59 59 57 57 57 61 61 61 75 75 75 60 60 60 60 60 60 72 72 72 75 75 75 71 71 71 66 66 66 66 66 66 69 69 69 74 74 74 98 75 112 74 74 74 57 57 57 100 75 112 66 66 66 73 73 73 71 71 71 63 63 63 63 63 63 58 58 58 67 67 67 73 73 73 74 74 74 70 70 70 57 57 57 74 74 74 62 62 62 69 69 69 64 64 64 72 72 72 63 63 63 73 73 73 57 57 57 68 68 68 62 62 62 108 74 110 73 73 73 71 71 71 64 64 64 70 70 70 108 74 110 59 59 59 72 72 72 65 65 65 69 69 69 75 75 75 69 69 69 61 61 61 73 73 73 64 64 64 57 57 57 64 64 64 60 60 60 60 60 60 70 70 70 71 71 71 68 68 68 60 60 60 69 69 69 62 62 62 74 74 74 60 60 60 72 72 72 114 73 108 70 70 70 72 72 72 62 62 62 73 73 73 72 72 72 58 58 58 74 74 74 73 73 73 68 68 68 69 69 69 70 70 70 61 61 61 73 73 73 64 64 64 66 66 66 96 76 113 72 72 72 73 73 73 57 57 57 73 73 73 63 63 63 75 75 75 60 60 60 73 73 73 72 72 72 67 67 67 70 70 70 69 69 69 71 71 71 57 57 57 62 62 62 57 57 57 65 65 65 74 74 74 68 68 68 73 73 73 105 74 111 59 59 59 74 74 74 22 26 27 22 26 27 22 26 27 22 26 27 22 26 27 22 26 27 22 26 27 22 26 27 22 26 27 83 86 80 87 89 83 85 88 82 99 100 93 92 94 88 92 94 87 88 90 84 81 84 79 89 92 86 105 107 98 86 89 83 91 93 87 88 91 85 94 96 89 22 26 27 22 26 27 22 26 27 22 26 27 22 26 27 22 26 27 22 26 27 22 26 27 22 26 27 22 26 27 22 26 27 22 26 27 22 26 27 22 26 27 22 26 27 22 26 27 22 26 27 22 26 27 22 26 27 22 26 27 22 26 27 22 26 27 22 26 27 22 26 27 22 26 27 22 26 27 22 26 27 22 26 27 22 26 27 22 26 27 22 26 27 22 26 27 22 26 27 22 26 27 22 26 27 22 26 27 22 26 27 22 26 27 22 26 27 22 26 27 22 26 27 22 26 27 22 26 27 22 26 27 22 26 27 22 26 27 22 26 27 22 26 27 22 26 27 22 26 27 22 26 27 22 26 27 22 26 27 22 26 27 22 26 27 22 26 27 22 26 27 22 26 27 22 26 27 22 26 27 22 26 27 22 26 27 22 26 27 22 26 27 22 26 27 22 26 27 22 26 27 22 26 27 22 26 27 22 26 27 22 26 27 22 26 27 22 26 27 22 26 27 22 26 27 22 26 27 22 26 27 22 26 27 22 26 27 22 26 27 22 26 27 22 26 27 22 26 27 22 26 27 22 26 27 22 26 27 22 26 27 22 26 27 22 26 27 22 26 27 22 26 27 22 26 27 22 26 27 22 26 27 22 26 27 22 26 27 22 26 27 22 26 27 22 26 27 22 26 27 22 26 27 22 26 27 22 26 27 22 26 27 22 26 27 22 26 27 22 26 27 22 26 27
22 26 27 22 26 27 22 26 27 70 74 74 82 86 86 71 75 75 22 26 27 75 79 79 77 81 81 87 91 91 93 97 97 22 26 27 71 75 75 82 86 86 82 86 86 91 95 95 55 55 55 56 56 56 60 60 60 89 71 108 60 60 60 58 58 58 54 54 54 65 65 65 90 71 108 61 61 61 61 61 61 61 61 61 56 56 56 67 67 67 66 66 66 58 58 58 54 54 54 64 64 64 68 68 68 56 56 56 68 68 68 70 70 70 61 61 61 57 57 57 71 71 71 62 62 62 57 57 57 70 70 70 65 65 65 67 67 67 56 56 56 69 69 69 65 65 65 64 64 64 58 58 58 58 58 58 63 63 63 62 62 62 61 61 61 65 65 65 60 60 60 69 69 69 66 66 66 69 69 69 54 54 54 56 56 56 68 68 68 60 60 60 54 54 54 58 58 58 64 64 64 56 56 56 71 71 71 67 67 67 54 54 54 65 65 65 56 56 56 56 56 56 65 65 65 58 58 58 57 57 57 55 55 55 65 65 65 57 57 57 65 65 65 71 71 71 69 69 69 58 58 58 66 66 66 92 70 107 62 62 62 55 55 55 54 54 54 70 70 70 55 55 55 71 71 71 64 64 64 58 58 58 62 62 62 57 57 57 56 56 56 59 59 59 67 67 67 59 59 59 61 61 61 64 64 64 61 61 61 68 68 68 70 70 70 53 53 53 68 68 68 58 58 58 60 60 60 59 59 59 58 58 58 64 64 64 68 68 68 100 69 105 65 65 65 67 67 67 67 67 67 64 64 64 63 63 63 71 71 71 56 56 56 101 69 105 66 66 66 69 69 69 56 56 56 22 26 27 22 26 27 22 26 27 22 26 27 22 26 27 22 26 27 22 26 27 22 26 27 22 26 27 95 97 90 104 105 97 81 84 79 102 103 95 80 83 78 80 83 78 87 90 84 99 100 93 104 106 98 80 83 78 107 108 100 105 106 98 91 93 87 91 94 87 22 26 27 22 26 27 22 26 27 22 26 27 22 26 27 22 26 27 22 26 27 22 26 27 22 26 27 22 26 27 22 26 27 22 26 27 22 26 27 22 26 27 22 26 27 22 26 27 22 26 27 22 26 27 22 26 27 22 26 27 22 26 27 22 26 27 22 26 27 22 26 27 22 26 27 22 26 27 22 26 27 22 26 27 22 26 27 22 26 27 22 26 27 22 26 27 22 26 27 22 26 27 22 26 27 22 26 27 22 26 27 22 26 27 22 26 27 22 26 27 22 26 27 22 26 27 22 26 27 22 26 27 22 26 27 22 26 27 22 26 27 22 26 27 22 26 27 22 26 27 22 26 27 22 26 27 22 26 27 22 26 27 22 26 27 22 26 27 22 26 27 22 26 27 22 26 27 22 26 27 22 26 27 22 26 27 22 26 27 22 26 27 22 26 27 22 26 27 22 26 27 22 26 27 22 26 27 22 26 27 22 26 27 22 26 27 22 26 27 22 26 27 22 26 27 22 26 27 22 26 27 22 26 27 22 26 27 22 26 27 22 26 27 22 26 27 22 26 27 22 26 27 22 26 27 22 26 27 22 26 27 22 26 27 22 26 27 22 26 27 22 26 27 22 26 27 22 26 27 22 26 27 22 26 27 22 26 27 22 26 27 22 26 27 22 26 27 22 26 27 22 26 27 22 26 27 22 26 27 22 26 27 22 26 27 22 26 27 22 26 27 22 26 27
22 26 27 22 26 27 22 26 27 79 83 83 76 80 80 70 74 74 22 26 27 91 95 95 91 95 95 81 85 85 72 76 76 22 26 27 69 73 73 71 75 75 85 89 89 78 82 82 62 62 62 59 59 59 59 59 59 66 66 66 50 50 50 64 64 64 52 52 52 97 63 98 66 66 66 66 66 66 56 56 56 64 64 64 64 64 64 63 63 63 77 65 103 62 62 62 66 66 66 56 56 56 64 64 64 57 57 57 49 49 49 64 64 64 51 51 51 63 63 63 62 62 62 62 62 62 61 61 61 59 59 59 60 60 60 57 57 57 65 65 65 54 54 54 60 60 60 54 54 54 66 66 66 64 64 64 62 62 62 54 54 54 49 49 49 54 54 54 66 66 66 65 65 65 49 49 49 60 60 60 59 59 59 98 63 97 57 57 57 57 57 57 55 55 55 66 66 66 49 49 49 57 57 57 52 52 52 56 56 56 64 64 64 64 64 64 49 49 49 61 61 61 49 49 49 76 66 103 56 56 56 52 52 52 64 64 64 58 58 58 66 66 66 60 60 60 64 64 64 64 64 64 63 63 63 60 60 60 61 61 61 55 55 55 64 64 64 63 63 63 63 63 63 95 63 98 58 58 58 54 54 54 64 64 64 65 65 65 87 64 100 56 56 56 61 61 61 61 61 61 64 64 64 61 61 61 65 65 65 49 49 49 57 57 57 60 60 60 52 52 52 56 56 56 64 64 64 62 62 62 49 49 49 65 65 65 56 56 56 60 60 60 62 62 62 52 52 52 51 51 51 52 52 52 52 52 52 56 56 56 50 50 50 50 50 50 63 63 63 55 55 55 52 52 52 22 26 27 22 26 27 22 26 27 22 26 27 22 26 27 22 26 27 22 26 27 22 26 27 22 26 27 107 109 100 99 101 93 101 102 95 97 99 91 88 90 84 102 103 95 104 105 97 101 103 95 104 105 97 81 84 79 101 102 95 82 85 80 107 108 99 85 88 82 22 26 27 22 26 27 22 26 27 22 26 27 22 26 27 22 26 27 22 26 27 22 26 27 22 26 27 22 26 27 22 26 27 22 26 27 22 26 27 22 26 27 22 26 27 22 26 27 22 26 27 22 26 27 22 26 27 22 26 27 22 26 27 22 26 27 22 26 27 22 26 27 22 26 27 22 26 27 22 26 27 22 26 27 22 26 27 22 26 27 22 26 27 22 26 27 22 26 27 22 26 27 22 26 27 22 26 27 22 26 27 22 26 27 22 26 27 22 26 27 22 26 27 22 26 27 22 26 27 22 26 27 22 26 27 22 26 27 22 26 27 22 26 27 22 26 27 22 26 27 22 26 27 22 26 27 22 26 27 22 26 27 22 26 27 22 26 27 22 26 27 22 26 27 22 26 27 22 26 27 22 26 27 22 26 27 22 26 27 22 26 27 22 26 27 22 26 27 22 26 27 22 26 27 22 26 27 22 26 27 22 26 27 22 26 27 22 26 27 22 26 27 22 26 27 22 26 27 22 26 27 22 26 27 22 26 27 22 26 27 22 26 27 22 26 27 22 26 27 22 26 27 22 26 27 22 26 27 22 26 27 22 26 27 22 26 27 22 26 27 22 26 27 22 26 27 22 26 27 22 26 27 22 26 27 22 26 27 22 26 27 22 26 27 22 26 27 22 26 27 22 26 27 22 26 27 22 26 27 22 26 27 22 26 27 22 26 27 22 26 27 22 26 27
22 26 27 22 26 27 22 26 27 89 93 93 87 91 91 89 93 93 22 26 27 77 81 81 90 94 94 88 92 92 92 96 96 22 26 27 69 73 73 91 95 95 72 76 76 77 81 81 53 53 53 77 60 97 62 62 62 54 54 54 58 58 58 50 50 50 62 62 62 61 61 61 86 59 94 52 52 52 60 60 60 46 46 46 52 52 52 88 59 94 62 62 62 47 47 47 48 48 48 60 60 60 52 52 52 62 62 62 61 61 61 55 55 55 57 57 57 50 50 50 99 57 91 51 51 51 50 50 50 60 60 60 62 62 62 54 54 54 62 62 62 50 50 50 54 54 54 63 63 63 57 57 57 50 50 50 50 50 50 56 56 56 54 54 54 62 62 62 85 59 95 63 63 63 49 49 49 57 57 57 56 56 56 60 60 60 49 49 49 60 60 60 55 55 55 45 45 45 55 55 55 61 61 61 49 49 49 55 55 55 88 59 94 56 56 56 45 45 45 97 58 91 54 54 54 60 60 60 62 62 62 51 51 51 50 50 50 60 60 60 54 54 54 57 57 57 62 62 62 50 50 50 51 51 51 54 54 54 57 57 57 60 60 60 46 46 46 48 48 48 63 63 63 63 63 63 46 46 46 57 57 57 55 55 55 61 61 61 46 46 46 55 55 55 50 50 50 48 48 48 49 49 49 49 49 49 62 62 62 59 59 59 56 56 56 52 52 52 51 51 51 52 52 52 51 51 51 62 62 62 50 50 50 48 48 48 54 54 54 61 61 61 48 48 48 57 57 57 54 54 54 55 55 55 57 57 57 51 51 51 55 55 55 87 59 94 84 59 95 54 54 54 77 60 97 22 26 27 22 26 27 22 26 27 22 26 27 22 26 27 22 26 27 22 26 27 22 26 27 22 26 27 104 106 98 97 99 92 101 102 94 106 107 98 102 103 95 92 95 88 93 95 88 82 85 79 82 85 80 106 107 99 93 95 88 91 93 86 102 103 95 85 87 82 22 26 27 22 26 27 22 26 27 22 26 27 22 26 27 22 26 27 22 26 27 22 26 27 22 26 27 22 26 27 22 26 27 22 26 27 22 26 27 22 26 27 22 26 27 22 26 27 22 26 27 22 26 27 22 26 27 22 26 27 22 26 27 22 26 27 22 26 27 22 26 27 22 26 27 22 26 27 22 26 27 22 26 27 22 26 27 22 26 27 22 26 27 22 26 27 22 26 27 22 26 27 22 26 27 22 26 27 22 26 27 22 26 27 22 26 27 22 26 27 22 26 27 22 26 27 22 26 27 22 26 27 22 26 27 22 26 27 22 26 27 22 26 27 22 26 27 22 26 27 22 26 27 22 26 27 22 26 27 22 26 27 22 26 27 22 26 27 22 26 27 22 26 27 22 26 27 22 26 27 22 26 27 22 26 27 22 26 27 22 26 27 22 26 27 22 26 27 22 26 27 22 26 27 22 26 27 22 26 27 22 26 27 22 26 27 22 26 27 22 26 27 22 26 27 22 26 27 22 26 27 22 26 27 22 26 27 22 26 27 22 26 27 22 26 27 22 26 27 22 26 27 22 26 27 22 26 27 22 26 27 22 26 27 22 26 27 22 26 27 22 26 27 22 26 27 22 26 27 22 26 27 22 26 27 22 26 27 22 26 27 22 26 27 22 26 27 22 26 27 22 26 27 22 26 27 22 26 27 22 26 27 22 26 27 22 26 27 22 26 27 22 26 27
22 26 27 22 26 27 22 26 27 79 83 83 89 93 93 85 89 89 22 26 27 75 79 79 76 80 80 85 89 89 79 83 83 22 26 27 72 76 76 78 82 82 71 75 75 87 91 91 79 59 95 45 45 45 54 54 54 61 61 61 49 49 49 58 58 58 57 57 57 47 47 47 58 58 58 48 48 48 60 60 60 51 51 51 57 57 57 50 50 50 57 57 57 56 56 56 45 45 45 58 58 58 57 57 57 48 48 48 49 49 49 58 58 58 46 46 46 45 45 45 58 58 58 54 54 54 56 56 56 99 56 90 47 47 47 52 52 52 58 58 58 52 52 52 55 55 55 69 60 98 88 58 92 52 52 52 47 47 47 50 50 50 52 52 52 60 60 60 52 52 52 91 57 92 62 62 62 61 61 61 53 53 53 57 57 57 57 57 57 78 59 95 54 54 54 51 51 51 59 59 59 54 54 54 60 60 60 59 59 59 45 45 45 54 54 54 48 48 48 61 61 61 46 46 46 46 46 46 58 58 58 86 58 93 51 51 51 49 49 49 46 46 46 56 56 56 62 62 62 48 48 48 50 50 50 51 51 51 49 49 49 46 46 46 55 55 55 55 55 55 60 60 60 53 53 53 44 44 44 53 53 53 60 60 60 63 63 63 60 60 60 62 62 62 53 53 53 51 51 51 50 50 50 58 58 58 55 55 55 55 55 55 47 47 47 46 46 46 48 48 48 53 53 53 46 46 46 45 45 45 58 58 58 59 59 59 46 46 46 61 61 61 49 49 49 46 46 46 58 58 58 68 60 98 50 50 50 45 45 45 47 47 47 62 62 62 47 47 47 59 59 59 57 57 57 22 26 27 22 26 27 22 26 27 22 26 27 22 26 27 22 26 27 22 26 27 22 26 27 22 26 27 96 98 91 83 86 80 88 90 84 106 107 99 87 89 83 106 107 99 103 104 96 88 91 85 85 88 82 99 100 93 106 108 99 99 101 93 96 98 91 82 85 80 22 26 27 22 26 27 22 26 27 22 26 27 22 26 27 22 26 27 22 26 27 22 26 27 22 26 27 22 26 27 22 26 27 22 26 27 22 26 27 22 26 27 22 26 27 22 26 27 22 26 27 22 26 27 22 26 27 22 26 27 22 26 27 22 26 27 22 26 27 22 26 27 22 26 27 22 26 27 22 26 27 22 26 27 22 26 27 22 26 27 22 26 27 22 26 27 22 26 27 22 26 27 22 26 27 22 26 27 22 26 27 22 26 27 22 26 27 22 26 27 22 26 27 22 26 27 22 26 27 22 26 27 22 26 27 22 26 27 22 26 27 22 26 27 22 26 27 22 26 27 22 26 27 22 26 27 22 26 27 22 26 27 22 26 27 22 26 27 22 26 27 22 26 27 22 26 27 22 26 27 22 26 27 22 26 27 22 26 27 22 26 27 22 26 27 22 26 27 22 26 27 22 26 27 22 26 27 22 26 27 22 26 27 22 26 27 22 26 27 22 26 27 22 26 27 22 26 27 22 26 27 22 26 27 22 26 27 22 26 27 22 26 27 22 26 27 22 26 27 22 26 27 22 26 27 22 26 27 22 26 27 22 26 27 22 26 27 22 26 27 22 26 27 22 26 27 22 26 27 22 26 27 22 26 27 22 26 27 22 26 27 22 26 27 22 26 27 22 26 27 22 26 27 22 26 27 22 26 27 22 26 27 22 26 27 22 26 27 22 26 27 22 26 27
22 26 27 22 26 27 22 26 27 92 96 96 71 75 75 73 77 77 22 26 27 80 84 84 89 93 93 80 84 84 85 89 89 22 26 27 77 81 81 84 88 88 73 77 77 92 96 96 60 60 60 59 59 59 60 60 60 72 64 101 63 63 63 55 55 55 49 49 49 56 56 56 49 49 49 53 53 53 47 47 47 62 62 62 55 55 55 54 54 54 49 49 49 60 60 60 55 55 55 100 60 94 65 65 65 91 61 96 50 50 50 65 65 65 60 60 60 59 59 59 65 65 65 47 47 47 61 61 61 49 49 49 62 62 62 49 49 49 95 61 95 62 62 62 56 56 56 64 64 64 65 65 65 58 58 58 54 54 54 47 47 47 55 55 55 60 60 60 78 63 100 61 61 61 62 62 62 61 61 61 49 49 49 55 55 55 48 48 48 60 60 60 58 58 58 57 57 57 77 63 100 52 52 52 61 61 61 54 54 54 73 63 101 49 49 49 63 63 63 59 59 59 53 53 53 56 56 56 61 61 61 62 62 62 62 62 62 47 47 47 54 54 54 52 52 52 61 61 61 53 53 53 98 60 94 53 53 53 49 49 49 89 61 97 55 55 55 52 52 52 57 57 57 52 52 52 47 47 47 65 65 65 64 64 64 62 62 62 56 56 56 64 64 64 52 52 52 56 56 56 60 60 60 60 60 60 61 61 61 52 52 52 49 49 49 63 63 63 64 64 64 85 62 98 58 58 58 64 64 64 58 58 58 80 63 99 53 53 53 58 58 58 65 65 65 57 57 57 52 52 52 64 64 64 49 49 49 64 64 64 49 49 49 49 49 49 57 57 57 52 52 52 55 55 55 22 26 27 22 26 27 22 26 27 22 26 27 22 26 27 22 26 27 22 26 27 22 26 27 22 26 27 102 103 95 102 104 96 82 85 80 97 99 91 102 104 96 106 107 99 84 87 81 110 111 102 106 107 99 87 90 84 88 90 84 89 91 85 83 86 81 82 85 80 22 26 27 22 26 27 22 26 27 22 26 27 22 26 27 22 26 27 22 26 27 22 26 27 22 26 27 22 26 27 22 26 27 22 26 27 22 26 27 22 26 27 22 26 27 22 26 27 22 26 27 22 26 27 22 26 27 22 26 27 22 26 27 22 26 27 22 26 27 22 26 27 22 26 27 22 26 27 22 26 27 22 26 27 22 26 27 22 26 27 22 26 27 22 26 27 22 26 27 22 26 27 22 26 27 22 26 27 22 26 27 22 26 27 22 26 27 22 26 27 22 26 27 22 26 27 22 26 27 22 26 27 22 26 27 22 26 27 22 26 27 22 26 27 22 26 27 22 26 27 22 26 27 22 26 27 22 26 27 22 26 27 22 26 27 22 26 27 22 26 27 22 26 27 22 26 27 22 26 27 22 26 27 22 26 27 22 26 27 22 26 27 22 26 27 22 26 27 22 26 27 22 26 27 22 26 27 22 26 27 22 26 27 22 26 27 22 26 27 22 26 27 22 26 27 22 26 27 22 26 27 22 26 27 22 26 27 22 26 27 22 26 27 22 26 27 22 26 27 22 26 27 22 26 27 22 26 27 22 26 27 22 26 27 22 26 27 22 26 27 22 26 27 22 26 27 22 26 27 22 26 27 22 26 27 22 26 27 22 26 27 22 26 27 22 26 27 22 26 27 22 26 27 22 26 27 22 26 27 22 26 27 22 26 27 22 26 27 22 26 27 22 26 27
22 26 27 22 26 27 22 26 27 77 81 81 78 82 82 83 87 87 22 26 27 87 91 91 71 75 75 89 93 93 72 76 76 22 26 27 85 89 89 84 88 88 73 77 77 90 94 94 64 64 64 56 56 56 64 64 64 55 55 55 51 51 51 66 66 66 68 68 68 62 62 62 63 63 63 52 52 52 62 62 62 64 64 64 107 66 100 51 51 51 63 63 63 83 69 106 86 68 106 52 52 52 56 56 56 58 58 58 92 68 104 63 63 63 65 65 65 64 64 64 67 67 67 63 63 63 69 69 69 63 63 63 67 67 67 52 52 52 59 59 59 67 67 67 64 64 64 64 64 64 67 67 67 58 58 58 100 67 102 63 63 63 64 64 64 101 66 101 92 68 104 60 60 60 67 67 67 66 66 66 65 65 65 51 51 51 68 68 68 60 60 60 105 66 100 55 55 55 61 61 61 58 58 58 51 51 51 65 65 65 53 53 53 68 68 68 59 59 59 55 55 55 57 57 57 58 58 58 68 68 68 64 64 64 65 65 65 58 58 58 62 62 62 82 69 107 55 55 55 69 69 69 59 59 59 68 68 68 69 69 69 66 66 66 65 65 65 65 65 65 60 60 60 54 54 54 68 68 68 66 66 66 55 55 55 64 64 64 63 63 63 66 66 66 68 68 68 52 52 52 62 62 62 67 67 67 52 52 52 94 67 104 102 66 101 56 56 56 63 63 63 55 55 55 68 68 68 67 67 67 67 67 67 67 67 67 58 58 58 51 51 51 65 65 65 68 68 68 53 53 53 66 66 66 63 63 63 55 55 55 56 56 56 51 51 51 52 52 52 60 60 60 64 64 64 22 26 27 22 26 27 22 26 27 22 26 27 22 26 27 22 26 27 22 26 27 22 26 27 22 26 27 91 93 86 102 103 96 98 100 92 87 90 84 97 99 92 91 93 87 100 101 94 102 103 95 80 83 78 83 85 80 97 99 91 83 86 80 100 102 94 105 106 98 22 26 27 22 26 27 22 26 27 22 26 27 22 26 27 22 26 27 22 26 27 22 26 27 22 26 27 22 26 27 22 26 27 22 26 27 22 26 27 22 26 27 22 26 27 22 26 27 22 26 27 22 26 27 22 26 27 22 26 27 22 26 27 22 26 27 22 26 27 22 26 27 22 26 27 22 26 27 22 26 27 22 26 27 22 26 27 22 26 27 22 26 27 22 26 27 22 26 27 22 26 27 22 26 27 22 26 27 22 26 27 22 26 27 22 26 27 22 26 27 22 26 27 22 26 27 22 26 27 22 26 27 22 26 27 22 26 27 22 26 27 22 26 27 22 26 27 22 26 27 22 26 27 22 26 27 22 26 27 22 26 27 22 26 27 22 26 27 22 26 27 22 26 27 22 26 27 22 26 27 22 26 27 22 26 27 22 26 27 22 26 27 22 26 27 22 26 27 22 26 27 22 26 27 22 26 27 22 26 27 22 26 27 22 26 27 22 26 27 22 26 27 22 26 27 22 26 27 22 26 27 22 26 27 22 26 27 22 26 27 22 26 27 22 26 27 22 26 27 22 26 27 22 26 27 22 26 27 22 26 27 22 26 27 22 26 27 22 26 27 22 26 27 22 26 27 22 26 27 22 26 27 22 26 27 22 26 27 22 26 27 22 26 27 22 26 27 22 26 27 22 26 27 22 26 27 22 26 27 22 26 27 22 26 27 22 26 27 22 26 27 22 26 27
22 26 27 22 26 27 22 26 27 91 95 95 91 95 95 75 79 79 22 26 27 82 86 86 84 88 88 80 84 84 92 96 96 22 26 27 91 95 95 88 92 92 89 93 93 87 91 91 56 56 56 61 61 61 73 73 73 58 58 58 67 67 67 69 69 69 96 74 111 61 61 61 62 62 62 58 58 58 58 58 58 56 56 56 65 65 65 58 58 58 63 63 63 71 71 71 67 67 67 73 73 73 56 56 56 62 62 62 66 66 66 66 66 66 73 73 73 63 63 63 68 68 68 65 65 65 66 66 66 69 69 69 57 57 57 58 58 58 64 64 64 71 71 71 86 75 113 57 57 57 59 59 59 64 64 64 65 65 65 65 65 65 72 72 72 63 63 63 73 73 73 99 73 110 64 64 64 73 73 73 68 68 68 63 63 63 61 61 61 59 59 59 58 58 58 68 68 68 70 70 70 73 73 73 64 64 64 71 71 71 89 74 112 71 71 71 62 62 62 73 73 73 59 59 59 73 73 73 71 71 71 72 72 72 61 61 61 73 73 73 70 70 70 59 59 59 61 61 61 73 73 73 57 57 57 64 64 64 68 68 68 71 71 71 65 65 65 61 61 61 61 61 61 73 73 73 71 71 71 69 69 69 72 72 72 59 59 59 62 62 62 64 64 64 61 61 61 63 63 63 71 71 71 73 73 73 71 71 71 62 62 62 70 70 70 64 64 64 67 67 67 64 64 64 109 72 107 65 65 65 59 59 59 61 61 61 60 60 60 61 61 61 59 59 59 63 63 63 60 60 60 62 62 62 63 63 63 69 69 69 58 58 58 72 72 72 74 74 74 69 69 69 65 65 65 22 26 27 22 26 27 22 26 27 22 26 27 22 26 27 22 26 27 22 26 27 22 26 27 22 26 27 87 89 83 84 87 81 109 110 101 96 98 91 104 106 98 85 87 82 89 91 85 100 102 94 84 86 81 97 99 92 109 110 101 102 104 96 101 102 95 93 95 88 22 26 27 22 26 27 22 26 27 22 26 27 22 26 27 22 26 27 22 26 27 22 26 27 22 26 27 22 26 27 22 26 27 22 26 27 22 26 27 22 26 27 22 26 27 22 26 27 22 26 27 22 26 27 22 26 27 22 26 27 22 26 27 22 26 27 22 26 27 22 26 27 22 26 27 22 26 27 22 26 27 22 26 27 22 26 27 22 26 27 22 26 27 22 26 27 22 26 27 22 26 27 22 26 27 22 26 27 22 26 27 22 26 27 22 26 27 22 26 27 22 26 27 22 26 27 22 26 27 22 26 27 22 26 27 22 26 27 22 26 27 22 26 27 22 26 27 22 26 27 22 26 27 22 26 27 22 26 27 22 26 27 22 26 27 22 26 27 22 26 27 22 26 27 22 26 27 22 26 27 22 26 27 22 26 27 22 26 27 22 26 27 22 26 27 22 26 27 22 26 27 22 26 27 22 26 27 22 26 27 22 26 27 22 26 27 22 26 27 22 26 27 22 26 27 22 26 27 22 26 27 22 26 27 22 26 27 22 26 27 22 26 27 22 26 27 22 26 27 22 26 27 22 26 27 22 26 27 22 26 27 22 26 27 22 26 27 22 26 27 22 26 27 22 26 27 22 26 27 22 26 27 22 26 27 22 26 27 22 26 27 22 26 27 22 26 27 22 26 27 22 26 27 22 26 27 22 26 27 22 26 27 22 26 27 22 26 27 22 26 27 22 26 27
22 26 27 22 26 27 22 26 27 90 94 94 75 79 79 89 93 93 22 26 27 73 77 77 93 97 97 77 81 81 91 95 95 22 26 27 70 74 74 86 90 90 90 94 94 89 93 93 67 67 67 62 62 62 73 73 73 60 60 60 62 62 62 69 69 69 117 75 110 73 73 73 73 73 73 77 77 77 59 59 59 67 67 67 77 77 77 70 70 70 98 78 115 74 74 74 63 63 63 64 64 64 72 72 72 96 78 116 68 68 68 60 60 60 76 76 76 93 78 117 62 62 62 68 68 68 63 63 63 75 75 75 68 68 68 73 73 73 71 71 71 75 75 75 77 77 77 70 70 70 75 75 75 67 67 67 68 68 68 66 66 66 71 71 71 62 62 62 59 59 59 68 68 68 72 72 72 64 64 64 74 74 74 76 76 76 75 75 75 62 62 62 73 73 73 70 70 70 75 75 75 63 63 63 60 60 60 62 62 62 70 70 70 63 63 63 75 75 75 60 60 60 67 67 67 67 67 67 64 64 64 63 63 63 60 60 60 59 59 59 76 76 76 68 68 68 61 61 61 61 61 61 61 61 61 68 68 68 69 69 69 63 63 63 69 69 69 67 67 67 107 77 113 72 72 72 76 76 76 61 61 61 69 69 69 61 61 61 70 70 70 64 64 64 65 65 65 62 62 62 67 67 67 73 73 73 72 72 72 92 79 117 71 71 71 77 77 77 59 59 59 74 74 74 63 63 63 74 74 74 68 68 68 74 74 74 66 66 66 61 61 61 77 77 77 75 75 75 72 72 72 73 73 73 70 70 70 69 69 69 76 76 76 94 78 117 66 66 66 68 68 68 107 77 113 22 26 27 22 26 27 22 26 27 22 26 27 22 26 27 22 26 27 22 26 27 22 26 27 22 26 27 87 89 83 95 97 90 98 100 93 84 87 81 81 84 79 110 111 102 108 109 100 92 94 88 94 96 89 105 106 98 91 93 87 96 98 91 98 100 92 98 100 92 22 26 27 22 26 27 22 26 27 22 26 27 22 26 27 22 26 27 22 26 27 22 26 27 22 26 27 22 26 27 22 26 27 22 26 27 22 26 27 22 26 27 22 26 27 22 26 27 22 26 27 22 26 27 22 26 27 22 26 27 22 26 27 22 26 27 22 26 27 22 26 27 22 26 27 22 26 27 22 26 27 22 26 27 22 26 27 22 26 27 22 26 27 22 26 27 22 26 27 22 26 27 22 26 27 22 26 27 22 26 27 22 26 27 22 26 27 22 26 27 22 26 27 22 26 27 22 26 27 22 26 27 22 26 27 22 26 27 22 26 27 22 26 27 22 26 27 22 26 27 22 26 27 22 26 27 22 26 27 22 26 27 22 26 27 22 26 27 22 26 27 22 26 27 22 26 27 22 26 27 22 26 27 22 26 27 22 26 27 22 26 27 22 26 27 22 26 27 22 26 27 22 26 27 22 26 27 22 26 27 22 26 27 22 26 27 22 26 27 22 26 27 22 26 27 22 26 27 22 26 27 22 26 27 22 26 27 22 26 27 22 26 27 22 26 27 22 26 27 22 26 27 22 26 27 22 26 27 22 26 27 22 26 27 22 26 27 22 26 27 22 26 27 22 26 27 22 26 27 22 26 27 22 26 27 22 26 27 22 26 27 22 26 27 22 26 27 22 26 27 22 26 27 22 26 27 22 26 27 22 26 27 22 26 27 22 26 27 22 26 27 22 26 27
22 26 27 22 26 27 22 26 27 73 77 77 92 96 96 85 89 89 22 26 27 76 80 80 82 86 86 91 95 95 82 86 86 22 26 27 88 92 92 89 93 93 87 91 91 83 87 87 68 68 68 119 78 113 63 63 63 64 64 64 72 72 72 78 78 78 67 67 67 73 73 73 60 60 60 77 77 77 61 61 61 98 80 119 68 68 68 61 61 61 69 69 69 70 70 70 70 70 70 74 74 74 77 77 77 63 63 63 75 75 75 75 75 75 91 81 121 64 64 64 74 74 74 67 67 67 66 66 66 65 65 65 75 75 75 66 66 66 73 73 73 68 68 68 77 77 77 65 65 65 64 64 64 62 62 62 67 67 67 63 63 63 76 76 76 75 75 75 95 81 119 76 76 76 78 78 78 68 68 68 67 67 67 65 65 65 68 68 68 78 78 78 67 67 67 65 65 65 67 67 67 64 64 64 74 74 74 68 68 68 67 67 67 65 65 65 60 60 60 76 76 76 74 74 74 62 62 62 71 71 71 65 65 65 69 69 69 72 72 72 74 74 74 106 79 116 70 70 70 73 73 73 64 64 64 72 72 72 62 62 62 71 71 71 77 77 77 74 74 74 69 69 69 76 76 76 70 70 70 65 65 65 64 64 64 63 63 63 68 68 68 75 75 75 77 77 77 60 60 60 77 77 77 65 65 65 68 68 68 64 64 64 61 61 61 77 77 77 62 62 62 64 64 64 61 61 61 78 78 78 73 73 73 105 79 117 75 75 75 96 81 119 78 78 78 73 73 73 67 67 67 69 69 69 71 71 71 77 77 77 78 78 78 70 70 70 65 65 65 113 79 115 72 72 72 22 26 27 22 26 27 22 26 27 22 26 27 22 26 27 22 26 27 22 26 27 22 26 27 22 26 27 104 106 98 91 93 86 107 108 100 84 86 81 82 85 80 92 94 87 97 99 91 106 107 99 90 92 86 91 93 87 99 100 93 107 108 99 97 99 91 89 91 85 22 26 27 22 26 27 22 26 27 22 26 27 22 26 27 22 26 27 22 26 27 22 26 27 22 26 27 22 26 27 22 26 27 22 26 27 22 26 27 22 26 27 22 26 27 22 26 27 22 26 27 22 26 27 22 26 27 22 26 27 22 26 27 22 26 27 22 26 27 22 26 27 22 26 27 22 26 27 22 26 27 22 26 27 22 26 27 22 26 27 22 26 27 22 26 27 22 26 27 22 26 27 22 26 27 22 26 27 22 26 27 22 26 27 22 26 27 22 26 27 22 26 27 22 26 27 22 26 27 22 26 27 22 26 27 22 26 27 22 26 27 22 26 27 22 26 27 22 26 27 22 26 27 22 26 27 22 26 27 22 26 27 22 26 27 22 26 27 22 26 27 22 26 27 22 26 27 22 26 27 22 26 27 22 26 27 22 26 27 22 26 27 22 26 27 22 26 27 22 26 27 22 26 27 22 26 27 22 26 27 22 26 27 22 26 27 22 26 27 22 26 27 22 26 27 22 26 27 22 26 27 22 26 27 22 26 27 22 26 27 22 26 27 22 26 27 22 26 27 22 26 27 22 26 27 22 26 27 22 26 27 22 26 27 22 26 27 22 26 27 22 26 27 22 26 27 22 26 27 22 26 27 22 26 27 22 26 27 22 26 27 22 26 27 22 26 27 22 26 27 22 26 27 22 26 27 22 26 27 22 26 27 22 26 27 22 26 27 22 26 27 22 26 27
22 26 27 22 26 27 22 26 27 76 80 80 80 84 84 76 80 80 22 26 27 85 89 89 70 74 74 80 84 84 78 82 82 22 26 27 87 91 91 92 96 96 79 83 83 86 90 90 73 73 73 80 80 80 76 76 76 71 71 71 73 73 73 66 66 66 77 77 77 68 68 68 68 68 68 78 78 78 78 78 78 76 76 76 79 79 79 118 80 116 68 68 68 63 63 63 63 63 63 105 82 119 71 71 71 69 69 69 63 63 63 80 80 80 63 63 63 65 65 65 79 79 79 76 76 76 79 79 79 67 67 67 68 68 68 66 66 66 64 64 64 111 81 118 73 73 73 72 72 72 104 82 119 67 67 67 75 75 75 74 74 74 67 67 67 74 74 74 66 66 66 70 70 70 68 68 68 74 74 74 77 77 77 121 80 115 73 73 73 76 76 76 80 80 80 79 79 79 77 77 77 80 80 80 62 62 62 72 72 72 109 81 118 63 63 63 78 78 78 72 72 72 69 69 69 62 62 62 62 62 62 75 75 75 63 63 63 71 71 71 72 72 72 64 64 64 63 63 63 66 66 66 80 80 80 67 67 67 66 66 66 68 68 68 75 75 75 66 66 66 77 77 77 75 75 75 77 77 77 72 72 72 69 69 69 67 67 67 76 76 76 72 72 72 68 68 68 72 72 72 74 74 74 111 81 118 74 74 74 74 74 74 80 80 80 80 80 80 63 63 63 71 71 71 70 70 70 65 65 65 71 71 71 74 74 74 75 75 75 63 63 63 71 71 71 68 68 68 72 72 72 66 66 66 65 65 65 106 81 119 66 66 66 72 72 72 65 65 65 74 74 74 74 74 74 22 26 27 22 26 27 22 26 27 22 26 27 22 26 27 22 26 27 22 26 27 22 26 27 22 26 27 89 92 85 83 86 80 101 103 95 108 109 100 87 90 84 99 101 94 98 100 93 93 95 88 109 110 101 108 109 101 98 100 93 85 88 82 91 93 87 98 100 92 22 26 27 22 26 27 22 26 27 22 26 27 22 26 27 22 26 27 22 26 27 22 26 27 22 26 27 22 26 27 22 26 27 22 26 27 22 26 27 22 26 27 22 26 27 22 26 27 22 26 27 22 26 27 22 26 27 22 26 27 22 26 27 22 26 27 22 26 27 22 26 27 22 26 27 22 26 27 22 26 27 22 26 27 22 26 27 22 26 27 22 26 27 22 26 27 22 26 27 22 26 27 22 26 27 22 26 27 22 26 27 22 26 27 22 26 27 22 26 27 22 26 27 22 26 27 22 26 27 22 26 27 22 26 27 22 26 27 22 26 27 22 26 27 22 26 27 22 26 27 22 26 27 22 26 27 22 26 27 22 26 27 22 26 27 22 26 27 22 26 27 22 26 27 22 26 27 22 26 27 22 26 27 22 26 27 22 26 27 22 26 27 22 26 27 22 26 27 22 26 27 22 26 27 22 26 27 22 26 27 22 26 27 22 26 27 22 26 27 22 26 27 22 26 27 22 26 27 22 26 27 22 26 27 22 26 27 22 26 27 22 26 27 22 26 27 22 26 27 22 26 27 22 26 27 22 26 27 22 26 27 22 26 27 22 26 27 22 26 27 22 26 27 22 26 27 22 26 27 22 26 27 22 26 27 22 26 27 22 26 27 22 26 27 22 26 27 22 26 27 22 26 27 22 26 27 22 26 27 22 26 27 22 26 27 22 26 27 22 26 27 22 26 27
22 26 27 22 26 27 22 26 27 76 80 80 86 90 90 91 95 95 22 26 27 90 94 94 79 83 83 83 87 87 91 95 95 22 26 27 75 79 79 91 95 95 71 75 75 82 86 86 63 63 63 65 65 65 70 70 70 108 84 122 66 66 66 63 63 63 78 78 78 77 77 77 80 80 80 65 65 65 80 80 80 77 77 77 70 70 70 71 71 71 79 79 79 79 79 79 67 67 67 71 71 71 71 71 71 75 75 75 66 66 66 78 78 78 109 84 122 78 78 78 64 64 64 80 80 80 74 74 74 66 66 66 75 75 75 71 71 71 64 64 64 82 82 82 110 84 122 81 81 81 67 67 67 80 80 80 72 72 72 76 76 76 74 74 74 73 73 73 79 79 79 80 80 80 81 81 81 81 81 81 80 80 80 77 77 77 66 66 66 71 71 71 79 79 79 64 64 64 77 77 77 72 72 72 66 66 66 69 69 69 76 76 76 75 75 75 81 81 81 98 85 125 67 67 67 69 69 69 75 75 75 117 83 120 72 72 72 81 81 81 71 71 71 76 76 76 67 67 67 74 74 74 75 75 75 82 82 82 70 70 70 71 71 71 72 72 72 79 79 79 81 81 81 66 66 66 76 76 76 63 63 63 72 72 72 64 64 64 78 78 78 80 80 80 67 67 67 74 74 74 78 78 78 72 72 72 67 67 67 82 82 82 63 63 63 76 76 76 72 72 72 82 82 82 75 75 75 66 66 66 69 69 69 77 77 77 80 80 80 74 74 74 117 83 120 75 75 75 66 66 66 66 66 66 119 83 119 71 71 71 81 81 81 69 69 69 66 66 66 122 82 118 75 75 75 22 26 27 22 26 27 22 26 27 22 26 27 22 26 27 22 26 27 22 26 27 22 26 27 22 26 27 110 111 102 84 86 81 91 93 87 84 87 81 101 103 95 90 92 86 106 107 99 106 108 99 88 90 84 95 97 90 92 94 87 107 108 100 104 105 97 97 99 92 22 26 27 22 26 27 22 26 27 22 26 27 22 26 27 22 26 27 22 26 27 22 26 27 22 26 27 22 26 27 22 26 27 22 26 27 22 26 27 22 26 27 22 26 27 22 26 27 22 26 27 22 26 27 22 26 27 22 26 27 22 26 27 22 26 27 22 26 27 22 26 27 22 26 27 22 26 27 22 26 27 22 26 27 22 26 27 22 26 27 22 26 27 22 26 27 22 26 27 22 26 27 22 26 27 22 26 27 22 26 27 22 26 27 22 26 27 22 26 27 22 26 27 22 26 27 22 26 27 22 26 27 22 26 27 22 26 27 22 26 27 22 26 27 22 26 27 22 26 27 22 26 27 22 26 27 22 26 27 22 26 27 22 26 27 22 26 27 22 26 27 22 26 27 22 26 27 22 26 27 22 26 27 22 26 27 22 26 27 22 26 27 22 26 27 22 26 27 22 26 27 22 26 27 22 26 27 22 26 27 22 26 27 22 26 27 22 26 27 22 26 27 22 26 27 22 26 27 22 26 27 22 26 27 22 26 27 22 26 27 22 26 27 22 26 27 22 26 27 22 26 27 22 26 27 22 26 27 22 26 27 22 26 27 22 26 27 22 26 27 22 26 27 22 26 27 22 26 27 22 26 27 22 26 27 22 26 27 22 26 27 22 26 27 22 26 27 22 26 27 22 26 27 22 26 27 22 26 27 22 26 27 22 26 27 22 26 27 22 26 27 22 26 27
22 26 27 22 26 27 22 26 27 93 97 97 77 81 81 73 77 77 22 26 27 91 95 95 71 75 75 72 76 76 76 80 80 22 26 27 85 89 89 81 85 85 87 91 91 82 86 86 78 78 78 72 72 72 110 88 127 82 82 82 81 81 81 83 83 83 74 74 74 82 82 82 68 68 68 81 81 81 102 90 129 82 82 82 85 85 85 76 76 76 79 79 79 68 68 68 85 85 85 77 77 77 79 79 79 74 74 74 123 87 124 82 82 82 81 81 81 67 67 67 80 80 80 70 70 70 84 84 84 125 87 123 82 82 82 77 77 77 80 80 80 78 78 78 84 84 84 77 77 77 80 80 80 78 78 78 71 71 71 82 82 82 83 83 83 83 83 83 81 81 81 73 73 73 76 76 76 112 88 127 84 84 84 78 78 78 75 75 75 74 74 74 84 84 84 80 80 80 83 83 83 79 79 79 79 79 79 67 67 67 77 77 77 72 72 72 75 75 75 76 76 76 100 90 130 80 80 80 74 74 74 67 67 67 73 73 73 84 84 84 76 76 76 78 78 78 75 75 75 81 81 81 78 78 78 68 68 68 78 78 78 103 89 129 68 68 68 85 85 85 116 88 126 77 77 77 85 85 85 68 68 68 76 76 76 81 81 81 77 77 77 106 89 128 69 69 69 83 83 83 78 78 78 85 85 85 80 80 80 84 84 84 83 83 83 84 84 84 80 80 80 80 80 80 68 68 68 80 80 80 72 72 72 72 72 72 79 79 79 81 81 81 81 81 81 71 71 71 68 68 68 76 76 76 73 73 73 84 84 84 75 75 75 69 69 69 70 70 70 83 83 83 70 70 70 22 26 27 22 26 27 22 26 27 22 26 27 22 26 27 22 26 27 22 26 27 22 26 27 22 26 27 101 102 94 92 94 87 97 99 92 84 87 82 93 95 88 103 104 96 98 100 92 100 101 94 87 90 84 105 107 98 109 110 102 94 96 89 96 98 91 83 86 81 22 26 27 22 26 27 22 26 27 22 26 27 22 26 27 22 26 27 22 26 27 22 26 27 22 26 27 22 26 27 22 26 27 22 26 27 22 26 27 22 26 27 22 26 27 22 26 27 22 26 27 22 26 27 22 26 27 22 26 27 22 26 27 22 26 27 22 26 27 22 26 27 22 26 27 22 26 27 22 26 27 22 26 27 22 26 27 22 26 27 22 26 27 22 26 27 22 26 27 22 26 27 22 26 27 22 26 27 22 26 27 22 26 27 22 26 27 22 26 27 22 26 27 22 26 27 22 26 27 22 26 27 22 26 27 22 26 27 22 26 27 22 26 27 22 26 27 22 26 27 22 26 27 22 26 27 22 26 27 22 26 27 22 26 27 22 26 27 22 26 27 22 26 27 22 26 27 22 26 27 22 26 27 22 26 27 22 26 27 22 26 27 22 26 27 22 26 27 22 26 27 22 26 27 22 26 27 22 26 27 22 26 27 22 26 27 22 26 27 22 26 27 22 26 27 22 26 27 22 26 27 22 26 27 22 26 27 22 26 27 22 26 27 22 26 27 22 26 27 22 26 27 22 26 27 22 26 27 22 26 27 22 26 27 22 26 27 22 26 27 22 26 27 22 26 27 22 26 27 22 26 27 22 26 27 22 26 27 22 26 27 22 26 27 22 26 27 22 26 27 22 26 27 22 26 27 22 26 27 22 26 27 22 26 27 22 26 27 22 26 27 22 26 27
22 26 27 22 26 27 22 26 27 77 81 81 86 90 90 92 96 96 22 26 27 83 87 87 90 94 94 72 76 76 88 92 92 22 26 27 92 96 96 80 84 84 77 81 81 71 75 75 82 82 82 85 85 85 116 94 134 72 72 72 80 80 80 86 86 86 87 87 87 87 87 87 84 84 84 88 88 88 114 94 134 82 82 82 79 79 79 86 86 86 87 87 87 88 88 88 79 79 79 82 82 82 72 72 72 88 88 88 89 89 89 77 77 77 81 81 81 82 82 82 82 82 82 126 93 131 111 95 135 79 79 79 89 89 89 80 80 80 77 77 77 78 78 78 88 88 88 78 78 78 79 79 79 85 85 85 73 73 73 130 92 130 83 83 83 87 87 87 80 80 80 76 76 76 78 78 78 89 89 89 128 93 130 89 89 89 85 85 85 84 84 84 84 84 84 131 92 129 85 85 85 84 84 84 83 83 83 83 83 83 78 78 78 84 84 84 86 86 86 88 88 88 73 73 73 89 89 89 106 95 136 71 71 71 127 93 131 85 85 85 71 71 71 73 73 73 73 73 73 83 83 83 86 86 86 72 72 72 83 83 83 82 82 82 72 72 72 73 73 73 72 72 72 86 86 86 88 88 88 85 85 85 76 76 76 77 77 77 84 84 84 85 85 85 84 84 84 86 86 86 84 84 84 83 83 83 78 78 78 73 73 73 89 89 89 88 88 88 80 80 80 88 88 88 72 72 72 73 73 73 116 94 134 80 80 80 84 84 84 122 93 132 81 81 81 81 81 81 83 83 83 81 81 81 86 86 86 83 83 83 84 84 84 78 78 78 88 88 88 89 89 89 80 80 80 22 26 27 22 26 27 22 26 27 22 26 27 22 26 27 22 26 27 22 26 27 22 26 27 22 26 27 101 103 95 95 97 90 97 99 92 109 110 101 102 103 95 98 99 92 80 83 78 105 107 98 86 88 83 92 94 88 98 99 92 85 88 82 97 99 92 93 95 88 22 26 27 22 26 27 22 26 27 22 26 27 22 26 27 22 26 27 22 26 27 22 26 27 22 26 27 22 26 27 22 26 27 22 26 27 22 26 27 22 26 27 22 26 27 22 26 27 22 26 27 22 26 27 22 26 27 22 26 27 22 26 27 22 26 27 22 26 27 22 26 27 22 26 27 22 26 27 22 26 27 22 26 27 22 26 27 22 26 27 22 26 27 22 26 27 22 26 27 22 26 27 22 26 27 22 26 27 22 26 27 22 26 27 22 26 27 22 26 27 22 26 27 22 26 27 22 26 27 22 26 27 22 26 27 22 26 27 22 26 27 22 26 27 22 26 27 22 26 27 22 26 27 22 26 27 22 26 27 22 26 27 22 26 27 22 26 27 22 26 27 22 26 27 22 26 27 22 26 27 22 26 27 22 26 27 22 26 27 22 26 27 22 26 27 22 26 27 22 26 27 22 26 27 22 26 27 22 26 27 22 26 27 22 26 27 22 26 27 22 26 27 22 26 27 22 26 27 22 26 27 22 26 27 22 26 27 22 26 27 22 26 27 22 26 27 22 26 27 22 26 27 22 26 27 22 26 27 22 26 27 22 26 27 22 26 27 22 26 27 22 26 27 22 26 27 22 26 27 22 26 27 22 26 27 22 26 27 22 26 27 22 26 27 22 26 27 22 26 27 22 26 27 22 26 27 22 26 27 22 26 27 22 26 27 22 26 27 22 26 27 22 26 27
22 26 27 22 26 27 22 26 27 71 75 75 82 86 86 70 74 74 22 26 27 73 77 77 78 82 82 88 92 92 91 95 95 22 26 27 92 96 96 87 91 91 73 77 77 82 86 86 81 81 81 134 99 138 91 91 91 88 88 88 91 91 91 76 76 76 88 88 88 81 81 81 87 87 87 91 91 91 76 76 76 78 78 78 77 77 77 83 83 83 79 79 79 88 88 88 89 89 89 87 87 87 91 91 91 88 88 88 84 84 84 77 77 77 85 85 85 124 100 140 89 89 89 82 82 82 83 83 83 85 85 85 88 88 88 89 89 89 76 76 76 77 77 77 76 76 76 79 79 79 82 82 82 83 83 83 84 84 84 85 85 85 91 91 91 89 89 89 134 99 138 77 77 77 92 92 92 91 91 91 92 92 92 91 91 91 76 76 76 83 83 83 86 86 86 79 79 79 90 90 90 91 91 91 83 83 83 91 91 91 91 91 91 115 101 143 76 76 76 77 77 77 86 86 86 92 92 92 88 88 88 91 91 91 78 78 78 80 80 80 139 98 136 84 84 84 89 89 89 131 100 139 91 91 91 81 81 81 90 90 90 91 91 91 79 79 79 83 83 83 91 91 91 91 91 91 81 81 81 88 88 88 88 88 88 79 79 79 134 99 138 77 77 77 90 90 90 84 84 84 85 85 85 88 88 88 79 79 79 88 88 88 80 80 80 76 76 76 91 91 91 80 80 80 83 83 83 80 80 80 76 76 76 78 78 78 83 83 83 79 79 79 91 91 91 80 80 80 83 83 83 80 80 80 78 78 78 83 83 83 76 76 76 132 99 138 77 77 77 91 91 91 85 85 85 22 26 27 22 26 27 22 26 27 22 26 27 22 26 27 22 26 27 22 26 27 22 26 27 22 26 27 87 89 83 84 87 81 104 106 98 108 109 100 98 100 92 103 104 96 106 107 99 93 95 88 81 84 79 107 108 99 109 110 101 92 94 88 107 108 99 96 98 91 22 26 27 22 26 27 22 26 27 22 26 27 22 26 27 22 26 27 22 26 27 22 26 27 22 26 27 22 26 27 22 26 27 22 26 27 22 26 27 22 26 27 22 26 27 22 26 27 22 26 27 22 26 27 22 26 27 22 26 27 22 26 27 22 26 27 22 26 27 22 26 27 22 26 27 22 26 27 22 26 27 22 26 27 22 26 27 22 26 27 22 26 27 22 26 27 22 26 27 22 26 27 22 26 27 22 26 27 22 26 27 22 26 27 22 26 27 22 26 27 22 26 27 22 26 27 22 26 27 22 26 27 22 26 27 22 26 27 22 26 27 22 26 27 22 26 27 22 26 27 22 26 27 22 26 27 22 26 27 22 26 27 22 26 27 22 26 27 22 26 27 22 26 27 22 26 27 22 26 27 22 26 27 22 26 27 22 26 27 22 26 27 22 26 27 22 26 27 22 26 27 22 26 27 22 26 27 22 26 27 22 26 27 22 26 27 22 26 27 22 26 27 22 26 27 22 26 27 22 26 27 22 26 27 22 26 27 22 26 27 22 26 27 22 26 27 22 26 27 22 26 27 22 26 27 22 26 27 22 26 27 22 26 27 22 26 27 22 26 27 22 26 27 22 26 27 22 26 27 22 26 27 22 26 27 22 26 27 22 26 27 22 26 27 22 26 27 22 26 27 22 26 27 22 26 27 22 26 27 22 26 27 22 26 27 22 26 27 22 26 27 22 26 27
22 26 27 22 26 27 22 26 27 89 93 93 80 84 84 80 84 84 22 26 27 79 83 83 72 76 76 79 83 83 84 88 88 22 26 27 79 83 83 82 86 86 82 86 86 71 75 75 90 90 90 93 93 93 93 93 93 89 89 89 80 80 80 135 105 145 82 82 82 82 82 82 93 93 93 137 105 145 93 93 93 144 104 143 83 83 83 92 92 92 91 91 91 88 88 88 122 107 149 93 93 93 88 88 88 85 85 85 91 91 91 93 93 93 91 91 91 93 93 93 93 93 93 83 83 83 82 82 82 91 91 91 91 91 91 93 93 93 91 91 91 83 83 83 86 86 86 92 92 92 83 83 83 88 88 88 92 92 92 93 93 93 130 106 147 92 92 92 140 105 144 80 80 80 92 92 92 93 93 93 86 86 86 91 91 91 93 93 93 91 91 91 91 91 91 93 93 93 86 86 86 88 88 88 89 89 89 91 91 91 82 82 82 92 92 92 89 89 89 88 88 88 93 93 93 91 91 91 87 87 87 93 93 93 82 82 82 93 93 93 91 91 91 81 81 81 89 89 89 91 91 91 89 89 89 88 88 88 91 91 91 90 90 90 83 83 83 90 90 90 92 92 92 90 90 90 84 84 84 91 91 91 82 82 82 87 87 87 92 92 92 88 88 88 139 105 144 84 84 84 81 81 81 92 92 92 92 92 92 92 92 92 93 93 93 84 84 84 90 90 90 126 106 148 93 93 93 82 82 82 93 93 93 92 92 92 92 92 92 93 93 93 91 91 91 123 107 148 85 85 85 92 92 92 91 91 91 93 93 93 93 93 93 87 87 87 82 82 82 90 90 90 88 88 88 22 26 27 22 26 27 22 26 27 22 26 27 22 26 27 22 26 27 22 26 27 22 26 27 22 26 27 89 91 85 106 108 99 84 87 81 98 100 92 105 106 98 103 104 96 88 90 84 88 91 85 83 85 80 99 101 93 100 102 94 82 85 79 87 90 84 89 92 86 22 26 27 22 26 27 22 26 27 22 26 27 22 26 27 22 26 27 22 26 27 22 26 27 22 26 27 22 26 27 22 26 27 22 26 27 22 26 27 22 26 27 22 26 27 22 26 27 22 26 27 22 26 27 22 26 27 22 26 27 22 26 27 22 26 27 22 26 27 22 26 27 22 26 27 22 26 27 22 26 27 22 26 27 22 26 27 22 26 27 22 26 27 22 26 27 22 26 27 22 26 27 22 26 27 22 26 27 22 26 27 22 26 27 22 26 27 22 26 27 22 26 27 22 26 27 22 26 27 22 26 27 22 26 27 22 26 27 22 26 27 22 26 27 22 26 27 22 26 27 22 26 27 22 26 27 22 26 27 22 26 27 22 26 27 22 26 27 22 26 27 22 26 27 22 26 27 22 26 27 22 26 27 22 26 27 22 26 27 22 26 27 22 26 27 22 26 27 22 26 27 22 26 27 22 26 27 22 26 27 22 26 27 22 26 27 22 26 27 22 26 27 22 26 27 22 26 27 22 26 27 22 26 27 22 26 27 22 26 27 22 26 27 22 26 27 22 26 27 22 26 27 22 26 27 22 26 27 22 26 27 22 26 27 22 26 27 22 26 27 22 26 27 22 26 27 22 26 27 22 26 27 22 26 27 22 26 27 22 26 27 22 26 27 22 26 27 22 26 27 22 26 27 22 26 27 22 26 27 22 26 27 22 26 27 22 26 27 22 26 27 22 26 27
22 26 27 22 26 27 22 26 27 83 87 87 78 82 82 89 93 93 22 26 27 80 84 84 85 89 89 71 75 75 93 97 97 22 26 27 79 83 83 73 77 77 92 96 96 81 85 85 90 90 90 88 88 88 93 93 93 93 93 93 89 89 89 93 93 93 91 91 91 94 94 94 86 86 86 90 90 90 92 92 92 93 93 93 91 91 91 90 90 90 87 87 87 93 93 93 92 92 92 84 84 84 94 94 94 91 91 91 92 92 92 93 93 93 92 92 92 83 83 83 88 88 88 93 93 93 92 92 92 90 90 90 94 94 94 126 110 153 88 88 88 135 109 150 93 93 93 92 92 92 91 91 91 93 93 93 92 92 92 91 91 91 85 85 85 92 92 92 94 94 94 94 94 94 128 110 152 87 87 87 86 86 86 90 90 90 93 93 93 92 92 92 93 93 93 93 93 93 93 93 93 85 85 85 127 110 152 92 92 92 92 92 92 92 92 92 90 90 90 85 85 85 87 87 87 139 109 149 91 91 91 93 93 93 93 93 93 92 92 92 92 92 92 92 92 92 91 91 91 123 111 153 141 108 148 94 94 94 93 93 93 89 89 89 92 92 92 93 93 93 93 93 93 93 93 93 93 93 93 94 94 94 131 110 151 93 93 93 93 93 93 94 94 94 83 83 83 93 93 93 94 94 94 124 111 153 90 90 90 91 91 91 92 92 92 87 87 87 94 94 94 92 92 92 85 85 85 91 91 91 124 110 153 91 91 91 88 88 88 94 94 94 85 85 85 91 91 91 93 93 93 85 85 85 141 108 148 86 86 86 87 87 87 144 108 147 94 94 94 87 87 87 91 91 91 22 26 27 22 26 27 22 26 27 22 26 27 22 26 27 22 26 27 22 26 27 22 26 27 22 26 27 106 107 99 103 105 97 101 102 94 105 106 98 99 101 93 92 94 88 98 100 92 110 111 102 109 110 101 105 107 98 90 93 86 109 110 101 84 87 81 95 97 90 22 26 27 22 26 27 22 26 27 22 26 27 22 26 27 22 26 27 22 26 27 22 26 27 22 26 27 22 26 27 22 26 27 22 26 27 22 26 27 22 26 27 22 26 27 22 26 27 22 26 27 22 26 27 22 26 27 22 26 27 22 26 27 22 26 27 22 26 27 22 26 27 22 26 27 22 26 27 22 26 27 22 26 27 22 26 27 22 26 27 22 26 27 22 26 27 22 26 27 22 26 27 22 26 27 22 26 27 22 26 27 22 26 27 22 26 27 22 26 27 22 26 27 22 26 27 22 26 27 22 26 27 22 26 27 22 26 27 22 26 27 22 26 27 22 26 27 22 26 27 22 26 27 22 26 27 22 26 27 22 26 27 22 26 27 22 26 27 22 26 27 22 26 27 22 26 27 22 26 27 22 26 27 22 26 27 22 26 27 22 26 27 22 26 27 22 26 27 22 26 27 22 26 27 22 26 27 22 26 27 22 26 27 22 26 27 22 26 27 22 26 27 22 26 27 22 26 27 22 26 27 22 26 27 22 26 27 22 26 27 22 26 27 22 26 27 22 26 27 22 26 27 22 26 27 22 26 27 22 26 27 22 26 27 22 26 27 22 26 27 22 26 27 22 26 27 22 26 27 22 26 27 22 26 27 22 26 27 22 26 27 22 26 27 22 26 27 22 26 27 22 26 27 22 26 27 22 26 27 22 26 27 22 26 27 22 26 27 22 26 27 22 26 27
22 26 27 22 26 27 22 26 27 87 91 91 83 87 87 82 86 86 22 26 27 83 87 87 88 92 92 71 75 75 92 96 96 22 26 27 88 92 92 76 80 80 79 83 83 80 84 84 90 90 90 93 93 93 86 86 86 88 88 88 89 89 89 94 94 94 88 88 88 92 92 92 125 110 153 93 93 93 85 85 85 86 86 86 89 89 89 85 85 85 93 93 93 86 86 86 90 90 90 92 92 92 89 89 89 91 91 91 94 94 94 89 89 89 136 109 150 141 108 148 90 90 90 93 93 93 93 93 93 91 91 91 92 92 92 92 92 92 94 94 94 91 91 91 87 87 87 91 91 91 93 93 93 84 84 84 91 91 91 88 88 88 140 109 149 85 85 85 90 90 90 85 85 85 89 89 89 86 86 86 91 91 91 92 92 92 91 91 91 87 87 87 91 91 91 93 93 93 92 92 92 84 84 84 90 90 90 85 85 85 84 84 84 90 90 90 93 93 93 92 92 92 83 83 83 86 86 86 83 83 83 89 89 89 93 93 93 92 92 92 91 91 91 92 92 92 92 92 92 87 87 87 132 110 151 87 87 87 92 92 92 90 90 90 93 93 93 91 91 91 84 84 84 92 92 92 84 84 84 89 89 89 94 94 94 91 91 91 94 94 94 89 89 89 94 94 94 94 94 94 94 94 94 84 84 84 94 94 94 84 84 84 91 91 91 88 88 88 90 90 90 93 93 93 85 85 85 89 89 89 91 91 91 92 92 92 89 89 89 91 91 91 87 87 87 91 91 91 93 93 93 93 93 93 83 83 83 90 90 90 83 83 83 91 91 91 92 92 92 138 109 149 86 86 86 22 26 27 22 26 27 22 26 27 22 26 27 22 26 27 22 26 27 22 26 27 22 26 27 22 26 27 104 105 97 82 85 80 107 108 99 93 96 89 94 96 89 91 93 86 96 98 91 90 92 86 104 106 98 88 90 84 105 106 98 99 101 94 108 109 101 83 86 81 22 26 27 22 26 27 22 26 27 22 26 27 22 26 27 22 26 27 22 26 27 22 26 27 22 26 27 22 26 27 22 26 27 22 26 27 22 26 27 22 26 27 22 26 27 22 26 27 22 26 27 22 26 27 22 26 27 22 26 27 22 26 27 22 26 27 22 26 27 22 26 27 22 26 27 22 26 27 22 26 27 22 26 27 22 26 27 22 26 27 22 26 27 22 26 27 22 26 27 22 26 27 22 26 27 22 26 27 22 26 27 22 26 27 22 26 27 22 26 27 22 26 27 22 26 27 22 26 27 22 26 27 22 26 27 22 26 27 22 26 27 22 26 27 22 26 27 22 26 27 22 26 27 22 26 27 22 26 27 22 26 27 22 26 27 22 26 27 22 26 27 22 26 27 22 26 27 22 26 27 22 26 27 22 26 27 22 26 27 22 26 27 22 26 27 22 26 27 22 26 27 22 26 27 22 26 27 22 26 27 22 26 27 22 26 27 22 26 27 22 26 27 22 26 27 22 26 27 22 26 27 22 26 27 22 26 27 22 26 27 22 26 27 22 26 27 22 26 27 22 26 27 22 26 27 22 26 27 22 26 27 22 26 27 22 26 27 22 26 27 22 26 27 22 26 27 22 26 27 22 26 27 22 26 27 22 26 27 22 26 27 22 26 27 22 26 27 22 26 27 22 26 27 22 26 27 22 26 27 22 26 27 22 26 27 22 26 27 22 26 27 22 26 27
22 26 27 22 26 27 22 26 27 78 82 82 78 82 82 76 80 80 22 26 27 70 74 74 84 88 88 86 90 90 80 84 84 22 26 27 92 96 96 81 85 85 91 95 95 86 90 90 88 88 88 82 82 82 92 92 92 92 92 92 82 82 82 89 89 89 80 80 80 90 90 90 92 92 92 88 88 88 85 85 85 93 93 93 83 83 83 129 106 147 85 85 85 93 93 93 135 105 145 85 85 85 91 91 91 92 92 92 80 80 80 83 83 83 93 93 93 130 106 147 92 92 92 85 85 85 93 93 93 92 92 92 91 91 91 90 90 90 82 82 82 92 92 92 88 88 88 90 90 90 93 93 93 92 92 92 93 93 93 90 90 90 85 85 85 93 93 93 91 91 91 87 87 87 93 93 93 91 91 91 85 85 85 91 91 91 90 90 90 85 85 85 93 93 93 91 91 91 92 92 92 82 82 82 92 92 92 93 93 93 83 83 83 86 86 86 87 87 87 82 82 82 85 85 85 92 92 92 93 93 93 88 88 88 90 90 90 86 86 86 93 93 93 92 92 92 92 92 92 82 82 82 91 91 91 93 93 93 139 105 144 81 81 81 89 89 89 91 91 91 93 93 93 93 93 93 91 91 91 82 82 82 82 82 82 93 93 93 91 91 91 93 93 93 90 90 90 90 90 90 133 106 146 92 92 92 86 86 86 85 85 85 91 91 91 91 91 91 89 89 89 86 86 86 93 93 93 93 93 93 82 82 82 138 105 144 92 92 92 92 92 92 85 85 85 89 89 89 86 86 86 84 84 84 121 107 149 89 89 89 92 92 92 85 85 85 89 89 89 92 92 92 91 91 91 22 26 27 22 26 27 22 26 27 22 26 27 22 26 27 22 26 27 22 26 27 22 26 27 22 26 27 109 110 101 96 98 91 105 107 98 94 96 89 110 111 102 89 92 86 95 97 90 99 100 93 81 84 79 106 108 99 82 85 80 102 104 96 84 87 81 94 96 89 22 26 27 22 26 27 22 26 27 22 26 27 22 26 27 22 26 27 22 26 27 22 26 27 22 26 27 22 26 27 22 26 27 22 26 27 22 26 27 22 26 27 22 26 27 22 26 27 22 26 27 22 26 27 22 26 27 22 26 27 22 26 27 22 26 27 22 26 27 22 26 27 22 26 27 22 26 27 22 26 27 22 26 27 22 26 27 22 26 27 22 26 27 22 26 27 22 26 27 22 26 27 22 26 27 22 26 27 22 26 27 22 26 27 22 26 27 22 26 27 22 26 27 22 26 27 22 26 27 22 26 27 22 26 27 22 26 27 22 26 27 22 26 27 22 26 27 22 26 27 22 26 27 22 26 27 22 26 27 22 26 27 22 26 27 22 26 27 22 26 27 22 26 27 22 26 27 22 26 27 22 26 27 22 26 27 22 26 27 22 26 27 22 26 27 22 26 27 22 26 27 22 26 27 22 26 27 22 26 27 22 26 27 22 26 27 22 26 27 22 26 27 22 26 27 22 26 27 22 26 27 22 26 27 22 26 27 22 26 27 22 26 27 22 26 27 22 26 27 22 26 27 22 26 27 22 26 27 22 26 27 22 26 27 22 26 27 22 26 27 22 26 27 22 26 27 22 26 27 22 26 27 22 26 27 22 26 27 22 26 27 22 26 27 22 26 27 22 26 27 22 26 27 22 26 27 22 26 27 22 26 27 22 26 27 22 26 27 22 26 27 22 26 27
22 26 27 22 26 27 22 26 27 92 96 96 78 82 82 79 83 83 22 26 27 71 75 75 79 83 83 86 90 90 85 89 89 22 26 27 90 94 94 91 95 95 71 75 75 79 83 83 91 91 91 83 83 83 88 88 88 92 92 92 92 92 92 85 85 85 84 84 84 86 86 86 90 90 90 78 78 78 89 89 89 79 79 79 91 91 91 89 89 89 89 89 89 77 77 77 90 90 90 91 91 91 89 89 89 90 90 90 88 88 88 86 86 86 90 90 90 79 79 79 132 99 138 79 79 79 88 88 88 85 85 85 80 80 80 91 91 91 88 88 88 79 79 79 84 84 84 83 83 83 90 90 90 76 76 76 88 88 88 83 83 83 92 92 92 84 84 84 83 83 83 76 76 76 84 84 84 78 78 78 91 91 91 78 78 78 122 101 141 79 79 79 77 77 77 92 92 92 117 101 142 77 77 77 89 89 89 86 86 86 139 99 136 91 91 91 84 84 84 91 91 91 83 83 83 91 91 91 136 99 137 89 89 89 91 91 91 76 76 76 79 79 79 132 99 138 90 90 90 76 76 76 115 102 143 89 89 89 113 102 143 92 92 92 90 90 90 90 90 90 76 76 76 80 80 80 88 88 88 90 90 90 76 76 76 80 80 80 85 85 85 87 87 87 86 86 86 91 91 91 84 84 84 89 89 89 89 89 89 86 86 86 79 79 79 80 80 80 86 86 86 91 91 91 90 90 90 91 91 91 91 91 91 87 87 87 87 87 87 84 84 84 78 78 78 88 88 88 80 80 80 82 82 82 86 86 86 80 80 80 92 92 92 88 88 88 80 80 80 88 88 88 85 85 85 22 26 27 22 26 27 22 26 27 22 26 27 22 26 27 22 26 27 22 26 27 22 26 27 22 26 27 92 94 88 102 103 95 109 110 101 98 100 93 84 87 81 108 109 100 105 106 98 87 90 84 108 109 101 89 92 85 94 96 89 82 85 80 91 93 87 82 85 80 22 26 27 22 26 27 22 26 27 22 26 27 22 26 27 22 26 27 22 26 27 22 26 27 22 26 27 22 26 27 22 26 27 22 26 27 22 26 27 22 26 27 22 26 27 22 26 27 22 26 27 22 26 27 22 26 27 22 26 27 22 26 27 22 26 27 22 26 27 22 26 27 22 26 27 22 26 27 22 26 27 22 26 27 22 26 27 22 26 27 22 26 27 22 26 27 22 26 27 22 26 27 22 26 27 22 26 27 22 26 27 22 26 27 22 26 27 22 26 27 22 26 27 22 26 27 22 26 27 22 26 27 22 26 27 22 26 27 22 26 27 22 26 27 22 26 27 22 26 27 22 26 27 22 26 27 22 26 27 22 26 27 22 26 27 22 26 27 22 26 27 22 26 27 22 26 27 22 26 27 22 26 27 22 26 27 22 26 27 22 26 27 22 26 27 22 26 27 22 26 27 22 26 27 22 26 27 22 26 27 22 26 27 22 26 27 22 26 27 22 26 27 22 26 27 22 26 27 22 26 27 22 26 27 22 26 27 22 26 27 22 26 27 22 26 27 22 26 27 22 26 27 22 26 27 22 26 27 22 26 27 22 26 27 22 26 27 22 26 27 22 26 27 22 26 27 22 26 27 22 26 27 22 26 27 22 26 27 22 26 27 22 26 27 22 26 27 22 26 27 22 26 27 22 26 27 22 26 27 22 26 27 22 26 27 22 26 27 22 26 27 22 26 27
22 26 27 22 26 27 22 26 27 92 96 96 79 83 83 91 95 95 22 26 27 81 85 85 79 83 83 72 76 76 89 93 93 22 26 27 85 89 89 87 91 91 84 88 88 74 78 78 108 95 136 73 73 73 89 89 89 75 75 75 72 72 72 84 84 84 72 72 72 80 80 80 123 93 132 117 94 133 72 72 72 86 86 86 84 84 84 78 78 78 89 89 89 72 72 72 82 82 82 83 83 83 84 84 84 85 85 85 79 79 79 80 80 80 88 88 88 72 72 72 74 74 74 83 83 83 79 79 79 84 84 84 85 85 85 119 94 133 82 82 82 72 72 72 85 85 85 74 74 74 84 84 84 73 73 73 78 78 78 83 83 83 86 86 86 80 80 80 71 71 71 81 81 81 107 95 136 80 80 80 83 83 83 72 72 72 87 87 87 75 75 75 87 87 87 89 89 89 83 83 83 80 80 80 82 82 82 86 86 86 75 75 75 88 88 88 74 74 74 81 81 81 73 73 73 75 75 75 85 85 85 84 84 84 74 74 74 86 86 86 77 77 77 88 88 88 89 89 89 123 93 132 84 84 84 77 77 77 71 71 71 81 81 81 74 74 74 89 89 89 72 72 72 74 74 74 85 85 85 86 86 86 85 85 85 73 73 73 86 86 86 82 82 82 84 84 84 85 85 85 89 89 89 83 83 83 113 95 134 115 94 134 75 75 75 77 77 77 88 88 88 79 79 79 80 80 80 86 86 86 85 85 85 89 89 89 87 87 87 82 82 82 73 73 73 74 74 74 84 84 84 118 94 133 73 73 73 81 81 81 73 73 73 84 84 84 86 86 86 83 83 83 87 87 87 22 26 27 22 26 27 22 26 27 22 26 27 22 26 27 22 26 27 22 26 27 22 26 27 22 26 27 91 93 87 109 110 101 95 97 90 95 97 90 95 97 90 82 85 80 107 108 100 83 86 81 95 97 90 108 109 100 105 106 98 99 101 94 107 108 100 85 88 82 22 26 27 22 26 27 22 26 27 22 26 27 22 26 27 22 26 27 22 26 27 22 26 27 22 26 27 22 26 27 22 26 27 22 26 27 106 107 99 81 84 79 91 93 87 89 91 85 94 96 89 102 104 96 108 109 100 110 111 102 89 91 85 80 83 78 98 99 92 109 110 101 98 100 92 106 107 99 81 84 78 97 99 91 104 106 97 105 106 98 101 102 95 94 96 89 88 91 85 108 109 100 110 111 102 98 100 93 102 103 95 92 94 87 84 87 81 91 93 87 100 101 94 104 106 98 105 106 98 105 106 98 92 94 88 82 85 80 80 83 78 104 106 97 109 110 101 103 105 97 90 93 86 108 109 101 100 102 94 109 110 101 88 90 84 93 95 88 100 101 94 86 89 83 94 96 89 22 26 27 22 26 27 22 26 27 22 26 27 22 26 27 22 26 27 22 26 27 22 26 27 22 26 27 22 26 27 22 26 27 22 26 27 22 26 27 22 26 27 22 26 27 22 26 27 22 26 27 22 26 27 22 26 27 22 26 27 22 26 27 22 26 27 22 26 27 22 26 27 22 26 27 22 26 27 22 26 27 22 26 27 22 26 27 22 26 27 22 26 27 22 26 27 22 26 27 22 26 27 22 26 27 22 26 27 22 26 27 22 26 27 22 26 27 22 26 27 22 26 27 22 26 27 22 26 27 22 26 27 22 26 27 22 26 27 22 26 27 22 26 27 22 26 27
22 26 27 22 26 27 22 26 27 74 78 78 86 90 90 87 91 91 22 26 27 83 87 87 74 78 78 92 96 96 90 94 94 22 26 27 71 75 75 84 88 88 84 88 88 79 83 83 78 78 78 73 73 73 67 67 67 83 83 83 84 84 84 111 88 127 85 85 85 72 72 72 83 83 83 128 86 122 78 78 78 69 69 69 78 78 78 77 77 77 84 84 84 77 77 77 76 76 76 85 85 85 81 81 81 76 76 76 75 75 75 67 67 67 76 76 76 103 89 129 79 79 79 77 77 77 100 90 130 84 84 84 79 79 79 79 79 79 83 83 83 84 84 84 77 77 77 80 80 80 83 83 83 83 83 83 67 67 67 84 84 84 84 84 84 83 83 83 102 90 129 76 76 76 120 87 124 77 77 77 68 68 68 82 82 82 67 67 67 73 73 73 115 88 126 83 83 83 72 72 72 80 80 80 85 85 85 71 71 71 76 76 76 67 67 67 76 76 76 81 81 81 77 77 77 74 74 74 80 80 80 78 78 78 83 83 83 81 81 81 72 72 72 73 73 73 70 70 70 76 76 76 70 70 70 75 75 75 69 69 69 73 73 73 80 80 80 70 70 70 68 68 68 71 71 71 84 84 84 75 75 75 69 69 69 79 79 79 85 85 85 69 69 69 68 68 68 67 67 67 83 83 83 77 77 77 78 78 78 79 79 79 84 84 84 69 69 69 73 73 73 117 88 125 68 68 68 68 68 68 76 76 76 82 82 82 69 69 69 68 68 68 82 82 82 73 73 73 73 73 73 76 76 76 75 75 75 73 73 73 73 73 73 79 79 79 68 68 68 79 79 79 81 81 81 22 26 27 22 26 27 22 26 27 22 26 27 22 26 27 22 26 27 22 26 27 22 26 27 22 26 27 100 102 94 109 110 101 85 88 82 95 97 90 82 85 80 82 85 80 105 106 98 92 94 87 82 85 80 110 111 102 95 97 90 85 88 82 101 103 95 99 101 93 22 26 27 22 26 27 22 26 27 22 26 27 22 26 27 22 26 27 22 26 27 22 26 27 22 26 27 22 26 27 22 26 27 22 26 27 106 107 98 86 88 83 97 99 92 96 97 90 89 91 85 88 90 84 91 93 87 82 85 80 98 100 92 92 94 88 89 91 85 109 110 101 108 109 100 84 87 81 96 98 91 80 83 78 95 97 90 105 106 98 98 99 92 97 99 92 100 102 94 95 97 90 105 107 98 92 94 88 110 111 102 89 92 85 82 85 80 91 93 87 105 107 98 100 101 94 103 104 96 83 86 80 97 99 91 96 98 91 85 88 82 108 109 100 109 110 101 87 90 84 100 102 94 81 84 79 82 85 80 90 93 86 110 111 102 105 106 98 87 90 84 88 91 85 96 98 91 22 26 27 22 26 27 22 26 27 22 26 27 22 26 27 22 26 27 22 26 27 22 26 27 22 26 27 22 26 27 22 26 27 22 26 27 22 26 27 22 26 27 22 26 27 22 26 27 22 26 27 22 26 27 22 26 27 22 26 27 22 26 27 22 26 27 22 26 27 22 26 27 22 26 27 22 26 27 22 26 27 22 26 27 22 26 27 22 26 27 22 26 27 22 26 27 22 26 27 22 26 27 22 26 27 22 26 27 22 26 27 22 26 27 22 26 27 22 26 27 22 26 27 22 26 27 22 26 27 22 26 27 22 26 27 22 26 27 22 26 27 22 26 27 22 26 27
22 26 27 22 26 27 22 26 27 78 82 82 85 89 89 73 77 77 22 26 27 88 92 92 75 79 79 72 76 76 84 88 88 22 26 27 71 75 75 86 90 90 77 81 81 86 90 90 110 84 121 81 81 81 81 81 81 66 66 66 100 85 124 65 65 65 77 77 77 82 82 82 78 78 78 78 78 78 75 75 75 71 71 71 73 73 73 79 79 79 74 74 74 66 66 66 79 79 79 65 65 65 68 68 68 75 75 75 80 80 80 67 67 67 78 78 78 75 75 75 77 77 77 71 71 71 113 83 121 78 78 78 73 73 73 67 67 67 78 78 78 67 67 67 71 71 71 72 72 72 64 64 64 75 75 75 120 83 119 105 84 123 66 66 66 73 73 73 74 74 74 78 78 78 66 66 66 64 64 64 82 82 82 65 65 65 74 74 74 82 82 82 71 71 71 70 70 70 69 69 69 80 80 80 79 79 79 117 83 119 74 74 74 79 79 79 71 71 71 77 77 77 75 75 75 79 79 79 76 76 76 78 78 78 69 69 69 71 71 71 74 74 74 79 79 79 77 77 77 68 68 68 80 80 80 69 69 69 75 75 75 75 75 75 73 73 73 76 76 76 72 72 72 71 71 71 80 80 80 76 76 76 69 69 69 79 79 79 80 80 80 80 80 80 71 71 71 67 67 67 73 73 73 82 82 82 80 80 80 67 67 67 79 79 79 78 78 78 66 66 66 68 68 68 64 64 64 72 72 72 66 66 66 71 71 71 75 75 75 74 74 74 65 65 65 65 65 65 66 66 66 78 78 78 69 69 69 77 77 77 78 78 78 71 71 71 67 67 67 69 69 69 63 63 63 22 26 27 22 26 27 22 26 27 22 26 27 22 26 27 22 26 27 22 26 27 22 26 27 22 26 27 86 89 83 104 105 97 89 92 85 95 97 90 86 88 83 106 107 99 83 86 81 101 103 95 88 91 85 89 92 85 101 103 95 88 91 85 82 85 80 83 85 80 22 26 27 22 26 27 22 26 27 22 26 27 22 26 27 22 26 27 22 26 27 22 26 27 22 26 27 22 26 27 22 26 27 22 26 27 85 87 82 90 92 86 83 86 80 97 99 91 84 87 81 88 90 84 99 101 93 101 102 95 90 93 86 86 89 83 109 110 101 107 108 100 97 99 92 109 110 101 98 100 93 96 98 91 108 109 101 92 94 87 89 91 85 106 108 99 105 107 98 107 108 99 99 100 93 109 110 101 96 98 91 85 88 82 94 96 89 105 106 98 81 84 79 108 109 100 97 99 92 92 94 88 100 102 94 91 93 87 91 93 87 81 84 79 94 96 89 101 103 95 102 104 96 99 101 93 109 110 101 85 88 82 92 94 87 96 98 91 104 106 97 109 110 101 105 106 98 22 26 27 22 26 27 22 26 27 22 26 27 22 26 27 22 26 27 22 26 27 22 26 27 22 26 27 22 26 27 22 26 27 22 26 27 22 26 27 22 26 27 22 26 27 22 26 27 22 26 27 22 26 27 22 26 27 22 26 27 22 26 27 22 26 27 22 26 27 22 26 27 22 26 27 22 26 27 22 26 27 22 26 27 22 26 27 22 26 27 22 26 27 22 26 27 22 26 27 22 26 27 22 26 27 22 26 27 22 26 27 22 26 27 22 26 27 22 26 27 22 26 27 22 26 27 22 26 27 22 26 27 22 26 27 22 26 27 22 26 27 22 26 27 22 26 27
22 26 27 22 26 27 22 26 27 88 92 92 89 93 93 91 95 95 22 26 27 78 82 82 90 94 94 79 83 83 87 91 91 22 26 27 73 77 77 74 78 78 80 84 84 93 97 97 79 79 79 73 73 73 72 72 72 66 66 66 79 79 79 71 71 71 75 75 75 63 63 63 72 72 72 75 75 75 65 65 65 63 63 63 72 72 72 62 62 62 62 62 62 73 73 73 68 68 68 67 67 67 79 79 79 65 65 65 71 71 71 77 77 77 65 65 65 72 72 72 65 65 65 65 65 65 77 77 77 78 78 78 63 63 63 72 72 72 77 77 77 66 66 66 67 67 67 74 74 74 80 80 80 74 74 74 69 69 69 77 77 77 67 67 67 98 82 121 70 70 70 67 67 67 75 75 75 106 81 119 79 79 79 63 63 63 67 67 67 67 67 67 103 82 120 79 79 79 62 62 62 70 70 70 79 79 79 72 72 72 64 64 64 79 79 79 73 73 73 79 79 79 74 74 74 65 65 65 68 68 68 76 76 76 74 74 74 77 77 77 64 64 64 73 73 73 75 75 75 77 77 77 78 78 78 69 69 69 72 72 72 72 72 72 79 79 79 75 75 75 72 72 72 71 71 71 79 79 79 75 75 75 75 75 75 78 78 78 79 79 79 76 76 76 72 72 72 78 78 78 75 75 75 72 72 72 64 64 64 98 83 121 63 63 63 78 78 78 78 78 78 79 79 79 76 76 76 68 68 68 71 71 71 66 66 66 63 63 63 69 69 69 74 74 74 98 82 121 63 63 63 78 78 78 63 63 63 79 79 79 79 79 79 75 75 75 68 68 68 63 63 63 76 76 76 22 26 27 22 26 27 22 26 27 22 26 27 22 26 27 22 26 27 22 26 27 22 26 27 22 26 27 109 110 101 91 93 87 100 102 94 95 97 90 96 98 91 101 103 95 89 91 85 85 88 82 106 108 99 106 107 99 101 103 95 97 99 92 91 93 87 102 104 96 22 26 27 22 26 27 22 26 27 22 26 27 22 26 27 22 26 27 22 26 27 22 26 27 22 26 27 22 26 27 22 26 27 22 26 27 100 102 94 104 106 97 90 92 86 83 86 80 105 106 98 105 107 98 105 106 98 104 105 97 104 105 97 104 105 97 110 111 102 85 88 82 92 94 88 87 90 84 108 109 100 98 100 92 106 108 99 106 108 99 94 96 89 109 110 101 102 103 95 102 103 96 86 89 83 87 89 84 94 96 89 87 89 83 107 108 100 99 100 93 101 103 95 108 109 100 82 85 79 92 94 88 90 92 86 107 108 100 85 87 82 109 110 101 94 96 89 80 83 78 90 92 86 87 90 84 100 101 94 82 85 80 102 104 96 102 103 95 108 109 100 107 108 100 95 97 90 22 26 27 22 26 27 22 26 27 22 26 27 22 26 27 22 26 27 22 26 27 22 26 27 22 26 27 22 26 27 22 26 27 22 26 27 22 26 27 22 26 27 22 26 27 22 26 27 22 26 27 22 26 27 22 26 27 22 26 27 22 26 27 22 26 27 22 26 27 22 26 27 22 26 27 22 26 27 22 26 27 22 26 27 22 26 27 22 26 27 22 26 27 22 26 27 22 26 27 22 26 27 22 26 27 22 26 27 22 26 27 22 26 27 22 26 27 22 26 27 22 26 27 22 26 27 22 26 27 22 26 27 22 26 27 22 26 27 22 26 27 22 26 27 22 26 27
22 26 27 22 26 27 22 26 27 83 87 87 81 85 85 81 85 85 22 26 27 85 89 89 73 77 77 84 88 88 82 86 86 22 26 27 84 88 88 82 86 86 93 97 97 76 80 80 68 68 68 71 71 71 77 77 77 76 76 76 73 73 73 72 72 72 76 76 76 60 60 60 74 74 74 69 69 69 100 80 118 71 71 71 73 73 73 77 77 77 67 67 67 63 63 63 75 75 75 76 76 76 61 61 61 74 74 74 62 62 62 77 77 77 78 78 78 65 65 65 71 71 71 73 73 73 73 73 73 78 78 78 75 75 75 75 75 75 68 68 68 60 60 60 77 77 77 114 78 114 72 72 72 77 77 77 77 77 77 72 72 72 64 64 64 73 73 73 75 75 75 64 64 64 71 71 71 70 70 70 61 61 61 71 71 71 76 76 76 71 71 71 72 72 72 67 67 67 108 79 116 69 69 69 73 73 73 75 75 75 60 60 60 95 81 119 72 72 72 63 63 63 78 78 78 75 75 75 73 73 73 61 61 61 65 65 65 75 75 75 68 68 68 74 74 74 78 78 78 78 78 78 67 67 67 73 73 73 66 66 66 66 66 66 73 73 73 75 75 75 67 67 67 75 75 75 68 68 68 76 76 76 72 72 72 78 78 78 65 65 65 75 75 75 68 68 68 76 76 76 70 70 70 67 67 67 74 74 74 75 75 75 63 63 63 63 63 63 105 80 117 60 60 60 77 77 77 69 69 69 72 72 72 73 73 73 61 61 61 72 72 72 75 75 75 77 77 77 74 74 74 65 65 65 61 61 61 64 64 64 67 67 67 66 66 66 76 76 76 64 64 64 74 74 74 22 26 27 22 26 27 22 26 27 22 26 27 22 26 27 22 26 27 22 26 27 22 26 27 22 26 27 85 88 82 85 87 82 83 86 80 82 85 80 102 104 96 90 93 86 82 85 80 90 92 86 103 104 96 102 103 96 93 95 88 89 91 85 83 86 80 110 111 102 22 26 27 22 26 27 22 26 27 22 26 27 22 26 27 22 26 27 22 26 27 22 26 27 22 26 27 22 26 27 22 26 27 22 26 27 106 107 99 81 84 79 106 107 99 110 111 102 106 107 99 108 109 100 93 95 89 91 93 87 108 109 100 99 101 93 94 96 90 97 99 92 94 96 89 86 89 83 106 107 99 107 108 99 96 98 91 99 101 94 91 93 87 92 94 88 110 111 102 93 95 88 84 87 82 93 95 89 103 105 97 98 99 92 109 110 101 88 91 85 83 86 80 94 96 89 87 90 84 90 93 86 93 95 88 81 84 79 88 90 84 82 85 80 110 111 102 98 100 92 109 110 102 89 91 85 108 109 100 88 91 85 103 105 97 109 110 101 99 101 93 106 107 99 100 102 94 22 26 27 22 26 27 22 26 27 22 26 27 22 26 27 22 26 27 22 26 27 22 26 27 22 26 27 22 26 27 22 26 27 22 26 27 22 26 27 22 26 27 22 26 27 22 26 27 22 26 27 22 26 27 22 26 27 22 26 27 22 26 27 22 26 27 22 26 27 22 26 27 22 26 27 22 26 27 22 26 27 22 26 27 22 26 27 22 26 27 22 26 27 22 26 27 22 26 27 22 26 27 22 26 27 22 26 27 22 26 27 22 26 27 22 26 27 22 26 27 22 26 27 22 26 27 22 26 27 22 26 27 22 26 27 22 26 27 22 26 27 22 26 27 22 26 27
22 26 27 22 26 27 22 26 27 82 86 86 90 94 94 92 96 96 22 26 27 89 93 93 77 81 81 79 83 83 86 90 90 22 26 27 85 89 89 80 84 84 82 86 86 77 81 81 62 62 62 63 63 63 97 78 116 62 62 62 63 63 63 75 75 75 76 76 76 77 77 77 69 69 69 60 60 60 63 63 63 71 71 71 63 63 63 63 63 63 62 62 62 63 63 63 60 60 60 64 64 64 70 70 70 75 75 75 74 74 74 74 74 74 72 72 72 71 71 71 70 70 70 72 72 72 61 61 61 71 71 71 63 63 63 61 61 61 64 64 64 73 73 73 60 60 60 72 72 72 71 71 71 73 73 73 61 61 61 60 60 60 64 64 64 64 64 64 74 74 74 69 69 69 70 70 70 113 76 111 75 75 75 73 73 73 72 72 72 74 74 74 71 71 71 71 71 71 76 76 76 62 62 62 60 60 60 70 70 70 62 62 62 65 65 65 63 63 63 68 68 68 113 76 111 73 73 73 64 64 64 62 62 62 70 70 70 73 73 73 71 71 71 73 73 73 67 67 67 74 74 74 73 73 73 60 60 60 63 63 63 58 58 58 72 72 72 62 62 62 61 61 61 73 73 73 64 64 64 73 73 73 73 73 73 60 60 60 61 61 61 77 77 77 75 75 75 94 78 117 77 77 77 74 74 74 63 63 63 61 61 61 62 62 62 61 61 61 73 73 73 72 72 72 72 72 72 75 75 75 73 73 73 66 66 66 62 62 62 66 66 66 69 69 69 60 60 60 73 73 73 62 62 62 72 72 72 68 68 68 59 59 59 62 62 62 74 74 74 68 68 68 75 75 75 22 26 27 22 26 27 22 26 27 22 26 27 22 26 27 22 26 27 22 26 27 22 26 27 22 26 27 100 102 94 99 100 93 99 101 93 85 87 82 86 88 83 90 92 86 84 87 81 94 96 89 88 91 85 103 104 96 103 104 96 84 87 81 88 91 85 106 107 99 22 26 27 22 26 27 22 26 27 22 26 27 22 26 27 22 26 27 22 26 27 22 26 27 22 26 27 22 26 27 22 26 27 22 26 27 102 104 96 94 96 89 97 99 92 95 97 90 93 95 88 102 103 95 93 95 88 103 104 96 99 100 93 94 96 89 94 97 90 82 85 80 95 97 90 83 86 80 108 109 100 105 106 98 101 102 94 81 84 79 91 94 87 103 104 96 82 85 80 81 84 79 102 104 96 90 92 86 102 104 96 83 85 80 97 99 91 81 84 79 103 104 96 97 99 91 104 105 97 85 87 82 99 101 93 83 86 80 105 106 98 95 97 90 106 107 99 93 95 88 80 83 78 109 110 101 81 84 79 103 105 97 94 96 89 105 106 98 81 84 79 105 106 98 92 94 87 22 26 27 22 26 27 22 26 27 22 26 27 22 26 27 22 26 27 22 26 27 22 26 27 22 26 27 22 26 27 22 26 27 22 26 27 22 26 27 22 26 27 22 26 27 22 26 27 22 26 27 22 26 27 22 26 27 22 26 27 22 26 27 22 26 27 22 26 27 22 26 27 22 26 27 22 26 27 22 26 27 22 26 27 22 26 27 22 26 27 22 26 27 22 26 27 22 26 27 22 26 27 22 26 27 22 26 27 22 26 27 22 26 27 22 26 27 22 26 27 22 26 27 22 26 27 22 26 27 22 26 27 22 26 27 22 26 27 22 26 27 22 26 27 22 26 27
22 26 27 22 26 27 22 26 27 92 96 96 77 81 81 72 76 76 22 26 27 70 74 74 74 78 78 79 83 83 91 95 95 22 26 27 88 92 92 92 96 96 89 93 93 76 80 80 91 74 112 74 74 74 69 69 69 71 71 71 61 61 61 58 58 58 69 69 69 69 69 69 66 66 66 73 73 73 69 69 69 66 66 66 73 73 73 73 73 73 71 71 71 58 58 58 67 67 67 65 65 65 72 72 72 68 68 68 69 69 69 63 63 63 72 72 72 73 73 73 110 72 107 66 66 66 71 71 71 58 58 58 61 61 61 63 63 63 69 69 69 67 67 67 57 57 57 65 65 65 64 64 64 71 71 71 67 67 67 63 63 63 72 72 72 57 57 57 66 66 66 74 74 74 66 66 66 62 62 62 60 60 60 73 73 73 67 67 67 61 61 61 57 57 57 100 73 109 69 69 69 73 73 73 70 70 70 72 72 72 68 68 68 73 73 73 74 74 74 68 68 68 64 64 64 57 57 57 61 61 61 69 69 69 70 70 70 68 68 68 56 56 56 69 69 69 73 73 73 70 70 70 59 59 59 61 61 61 72 72 72 74 74 74 61 61 61 57 57 57 69 69 69 69 69 69 73 73 73 73 73 73 66 66 66 93 74 111 67 67 67 70 70 70 64 64 64 66 66 66 58 58 58 56 56 56 64 64 64 71 71 71 62 62 62 72 72 72 65 65 65 65 65 65 71 71 71 101 73 109 71 71 71 55 55 55 73 73 73 63 63 63 86 75 113 68 68 68 61 61 61 67 67 67 65 65 65 74 74 74 69 69 69 105 72 108 64 64 64 89 74 113 73 73 73 22 26 27 22 26 27 22 26 27 22 26 27 22 26 27 22 26 27 22 26 27 22 26 27 22 26 27 108 109 100 108 109 100 96 98 90 107 108 100 94 96 89 99 101 93 88 91 85 103 104 96 83 86 81 90 92 86 89 92 85 82 85 79 108 109 101 83 86 80 22 26 27 22 26 27 22 26 27 22 26 27 22 26 27 22 26 27 22 26 27 22 26 27 22 26 27 22 26 27 22 26 27 22 26 27 106 107 99 100 101 94 88 91 85 95 97 90 104 106 98 103 104 96 81 84 79 108 109 101 105 106 98 90 92 86 101 103 95 98 100 92 103 104 96 104 106 98 95 97 90 103 105 97 105 106 98 102 103 95 83 85 80 101 103 95 85 87 82 82 85 80 82 85 79 88 90 84 104 106 97 84 87 81 97 99 92 88 90 84 81 84 79 100 102 94 90 93 86 82 85 80 85 88 82 103 105 97 96 98 91 97 99 91 82 85 80 88 90 84 101 103 95 104 105 97 106 108 99 100 101 94 90 93 86 82 85 80 91 93 87 103 104 96 94 97 90 22 26 27 22 26 27 22 26 27 22 26 27 22 26 27 22 26 27 22 26 27 22 26 27 22 26 27 22 26 27 22 26 27 22 26 27 22 26 27 22 26 27 22 26 27 22 26 27 22 26 27 22 26 27 22 26 27 22 26 27 22 26 27 22 26 27 22 26 27 22 26 27 22 26 27 22 26 27 22 26 27 22 26 27 22 26 27 22 26 27 22 26 27 22 26 27 22 26 27 22 26 27 22 26 27 22 26 27 22 26 27 22 26 27 22 26 27 22 26 27 22 26 27 22 26 27 22 26 27 22 26 27 22 26 27 22 26 27 22 26 27 22 26 27 22 26 27
22 26 27 22 26 27 22 26 27 81 85 85 90 94 94 69 73 73 22 26 27 78 82 82 70 74 74 72 76 76 86 90 90 22 26 27 71 75 75 88 92 92 80 84 84 90 94 94 64 64 64 60 60 60 108 66 100 61 61 61 65 65 65 69 69 69 63 63 63 51 51 51 54 54 54 61 61 61 56 56 56 52 52 52 65 65 65 68 68 68 63 63 63 64 64 64 64 64 64 62 62 62 53 53 53 61 61 61 67 67 67 63 63 63 63 63 63 64 64 64 60 60 60 58 58 58 53 53 53 62 62 62 54 54 54 55 55 55 61 61 61 68 68 68 65 65 65 65 65 65 58 58 58 61 61 61 54 54 54 60 60 60 56 56 56 65 65 65 54 54 54 61 61 61 57 57 57 59 59 59 68 68 68 61 61 61 56 56 56 69 69 69 61 61 61 69 69 69 51 51 51 57 57 57 60 60 60 52 52 52 66 66 66 63 63 63 66 66 66 67 67 67 61 61 61 66 66 66 52 52 52 69 69 69 56 56 56 51 51 51 54 54 54 61 61 61 54 54 54 55 55 55 56 56 56 53 53 53 64 64 64 57 57 57 51 51 51 64 64 64 52 52 52 68 68 68 55 55 55 60 60 60 56 56 56 55 55 55 54 54 54 64 64 64 66 66 66 54 54 54 64 64 64 64 64 64 54 54 54 57 57 57 52 52 52 66 66 66 69 69 69 69 69 69 65 65 65 63 63 63 52 52 52 51 51 51 66 66 66 63 63 63 53 53 53 64 64 64 69 69 69 60 60 60 62 62 62 64 64 64 55 55 55 69 69 69 59 59 59 56 56 56 51 51 51 22 26 27 22 26 27 22 26 27 22 26 27 22 26 27 22 26 27 22 26 27 22 26 27 22 26 27 87 89 83 92 94 88 109 110 101 89 92 85 89 91 85 91 93 87 90 93 86 110 111 102 99 101 93 107 108 100 93 95 88 87 90 84 83 86 81 87 90 84 22 26 27 22 26 27 22 26 27 22 26 27 22 26 27 22 26 27 22 26 27 22 26 27 22 26 27 22 26 27 22 26 27 22 26 27 92 94 87 84 87 81 95 97 90 85 88 82 103 104 96 95 97 90 84 87 81 100 102 94 85 88 82 96 98 91 110 111 102 83 86 80 106 108 99 81 84 79 99 101 93 104 106 97 90 93 86 104 105 97 83 86 81 109 110 101 86 88 83 109 110 102 95 97 90 86 89 83 87 89 83 92 94 88 87 89 83 102 103 95 105 106 98 104 105 97 81 84 79 89 91 85 85 87 82 105 107 98 105 106 98 82 85 79 84 87 82 98 100 92 103 104 96 100 102 94 82 85 79 106 107 99 89 91 85 87 90 84 90 92 86 108 109 100 82 84 79 22 26 27 22 26 27 22 26 27 22 26 27 109 110 101 101 103 95 83 85 80 109 110 101 101 103 95 87 89 83 100 102 94 94 96 89 89 92 85 86 89 83 102 103 95 103 104 96 97 99 92 89 91 85 82 84 79 101 102 95 96 97 90 96 98 91 91 93 87 22 26 27 22 26 27 22 26 27 22 26 27 22 26 27 22 26 27 22 26 27 22 26 27 22 26 27 22 26 27 22 26 27 22 26 27 22 26 27 22 26 27 22 26 27 22 26 27 22 26 27 22 26 27 22 26 27 22 26 27 22 26 27 22 26 27 22 26 27 22 26 27 22 26 27 22 26 27
22 26 27 22 26 27 22 26 27 71 75 75 74 78 78 88 92 92 22 26 27 75 79 79 71 75 75 79 83 83 74 78 78 22 26 27 82 86 86 91 95 95 70 74 74 89 93 93 56 56 56 89 61 97 80 63 99 64 64 64 62 62 62 62 62 62 62 62 62 52 52 52 62 62 62 57 57 57 94 61 95 60 60 60 52 52 52 65 65 65 50 50 50 60 60 60 65 65 65 61 61 61 48 48 48 52 52 52 50 50 50 56 56 56 51 51 51 57 57 57 60 60 60 56 56 56 97 60 95 58 58 58 59 59 59 62 62 62 61 61 61 53 53 53 55 55 55 57 57 57 64 64 64 58 58 58 58 58 58 63 63 63 50 50 50 52 52 52 51 51 51 55 55 55 53 53 53 48 48 48 56 56 56 61 61 61 50 50 50 88 62 97 61 61 61 55 55 55 60 60 60 63 63 63 57 57 57 60 60 60 64 64 64 60 60 60 60 60 60 59 59 59 93 61 96 62 62 62 61 61 61 57 57 57 48 48 48 61 61 61 53 53 53 65 65 65 47 47 47 54 54 54 92 61 96 59 59 59 58 58 58 55 55 55 89 61 97 63 63 63 63 63 63 59 59 59 54 54 54 57 57 57 52 52 52 49 49 49 64 64 64 61 61 61 49 49 49 59 59 59 56 56 56 56 56 56 61 61 61 56 56 56 55 55 55 51 51 51 60 60 60 65 65 65 65 65 65 63 63 63 73 63 101 52 52 52 63 63 63 72 64 101 49 49 49 52 52 52 62 62 62 61 61 61 64 64 64 51 51 51 52 52 52 57 57 57 62 62 62 51 51 51 59 59 59 22 26 27 22 26 27 22 26 27 22 26 27 22 26 27 22 26 27 22 26 27 22 26 27 22 26 27 85 88 82 107 108 100 89 91 85 85 88 82 108 109 101 100 102 94 108 109 100 85 88 82 97 99 92 101 102 95 110 111 102 82 85 79 88 91 85 99 101 93 22 26 27 22 26 27 22 26 27 22 26 27 22 26 27 22 26 27 22 26 27 22 26 27 22 26 27 22 26 27 22 26 27 22 26 27 99 101 93 87 90 84 81 84 79 93 95 89 85 88 82 88 90 84 81 84 79 81 84 79 103 105 97 109 110 101 97 98 91 92 94 88 100 102 94 104 106 97 95 97 90 94 96 89 89 92 85 105 106 98 90 92 86 91 93 87 106 107 99 95 97 90 96 98 91 88 90 84 93 95 89 98 100 93 93 95 89 86 89 83 104 105 97 83 85 80 88 91 85 96 98 91 95 97 90 107 109 100 89 91 85 94 96 89 101 102 94 86 89 83 87 89 84 104 105 97 89 92 85 103 105 97 96 98 90 109 110 101 92 94 87 94 96 89 87 89 84 22 26 27 22 26 27 22 26 27 22 26 27 100 102 94 106 107 99 96 98 91 94 96 89 87 89 83 82 85 79 104 106 98 102 103 95 81 84 79 103 105 97 106 108 99 86 88 83 107 108 100 92 94 87 89 91 85 82 85 79 108 109 101 88 91 85 98 99 92 22 26 27 22 26 27 22 26 27 22 26 27 22 26 27 22 26 27 22 26 27 22 26 27 22 26 27 22 26 27 22 26 27 22 26 27 22 26 27 22 26 27 22 26 27 22 26 27 22 26 27 22 26 27 22 26 27 22 26 27 22 26 27 22 26 27 22 26 27 22 26 27 22 26 27 22 26 27
22 26 27 22 26 27 22 26 27 83 87 87 89 93 93 90 94 94 22 26 27 73 77 77 81 85 85 71 75 75 93 97 97 22 26 27 75 79 79 85 89 89 72 76 76 72 76 76 51 51 51 50 50 50 60 60 60 57 57 57 53 53 53 45 45 45 52 52 52 54 54 54 45 45 45 57 57 57 51 51 51 47 47 47 50 50 50 79 59 95 45 45 45 45 45 45 57 57 57 91 57 92 62 62 62 62 62 62 46 46 46 60 60 60 53 53 53 55 55 55 50 50 50 49 49 49 46 46 46 46 46 46 50 50 50 47 47 47 45 45 45 55 55 55 44 44 44 95 57 91 54 54 54 62 62 62 53 53 53 57 57 57 86 58 93 60 60 60 60 60 60 54 54 54 57 57 57 49 49 49 62 62 62 58 58 58 58 58 58 61 61 61 71 60 97 45 45 45 50 50 50 57 57 57 56 56 56 57 57 57 53 53 53 54 54 54 52 52 52 61 61 61 58 58 58 58 58 58 58 58 58 55 55 55 53 53 53 62 62 62 46 46 46 59 59 59 50 50 50 49 49 49 54 54 54 62 62 62 55 55 55 55 55 55 45 45 45 55 55 55 45 45 45 55 55 55 72 60 97 50 50 50 49 49 49 58 58 58 91 57 92 58 58 58 54 54 54 57 57 57 58 58 58 62 62 62 46 46 46 53 53 53 48 48 48 44 44 44 52 52 52 62 62 62 61 61 61 58 58 58 62 62 62 55 55 55 63 63 63 52 52 52 50 50 50 46 46 46 58 58 58 61 61 61 58 58 58 54 54 54 50 50 50 44 44 44 46 46 46 62 62 62 55 55 55 22 26 27 22 26 27 22 26 27 22 26 27 22 26 27 22 26 27 22 26 27 22 26 27 22 26 27 82 85 80 107 108 100 101 103 95 105 106 98 81 84 79 82 85 79 82 84 79 93 95 88 106 107 99 90 92 86 90 92 86 80 83 78 104 105 97 88 91 84 22 26 27 22 26 27 22 26 27 22 26 27 22 26 27 22 26 27 22 26 27 22 26 27 22 26 27 22 26 27 22 26 27 22 26 27 92 94 88 95 97 90 98 100 92 105 106 98 105 107 98 99 101 93 82 85 80 102 103 95 105 106 98 84 87 81 100 102 94 89 92 85 88 91 85 98 100 93 92 94 88 108 109 101 101 103 95 81 84 78 98 100 92 102 103 95 84 87 81 97 98 91 85 88 82 102 103 95 94 96 89 93 96 89 83 85 80 100 101 94 89 91 85 102 103 96 101 102 94 96 98 91 100 101 94 105 106 98 84 87 81 101 103 95 93 95 88 82 85 80 83 86 81 85 87 82 90 92 86 89 91 85 109 110 101 94 96 89 98 100 93 82 84 79 97 99 92 22 26 27 22 26 27 22 26 27 22 26 27 95 97 90 84 87 81 101 102 95 104 106 98 101 103 95 98 100 92 91 93 87 88 91 85 94 96 89 86 88 82 80 83 78 101 102 95 88 90 84 100 101 94 88 91 85 110 111 102 88 90 84 95 97 90 96 98 91 22 26 27 22 26 27 22 26 27 22 26 27 22 26 27 22 26 27 22 26 27 22 26 27 22 26 27 22 26 27 22 26 27 22 26 27 22 26 27 22 26 27 22 26 27 22 26 27 22 26 27 22 26 27 22 26 27 22 26 27 22 26 27 22 26 27 22 26 27 22 26 27 22 26 27 22 26 27
22 26 27 22 26 27 22 26 27 89 93 93 75 79 79 91 95 95 22 26 27 80 84 84 73 77 77 92 96 96 91 95 95 22 26 27 93 97 97 82 86 86 77 81 81 93 97 97 50 50 50 50 50 50 60 60 60 58 58 58 75 60 97 56 56 56 63 63 63 62 62 62 47 47 47 50 50 50 55 55 55 53 53 53 62 62 62 58 58 58 55 55 55 61 61 61 58 58 58 26 26 24 26 26 24 26 26 24 26 26 24 26 26 24 26 26 24 26 26 24 26 26 24 26 26 24 26 26 24 26 26 24 26 26 24 26 26 24 16 18 18 16 18 18 16 18 18 26 26 24 26 26 24 26 26 24 26 26 24 26 26 24 26 26 24 26 26 24 26 26 24 26 26 24 16 18 18 16 18 18 16 18 18 26 26 24 26 26 24 26 26 24 26 26 24 26 26 24 26 26 24 26 26 24 16 18 18 16 18 18 16 18 18 26 26 24 26 26 24 26 26 24 26 26 24 26 26 24 26 26 24 26 26 24 16 18 18 16 18 18 16 18 18 26 26 24 26 26 24 26 26 24 26 26 24 26 26 24 26 26 24 26 26 24 26 26 24 26 26 24 26 26 24 26 26 24 26 26 24 26 26 24 26 26 24 26 26 24 26 26 24 26 26 24 26 26 24 26 26 24 26 26 24 26 26 24 26 26 24 26 26 24 26 26 24 26 26 24 26 26 24 26 26 24 26 26 24 26 26 24 54 54 54 57 57 57 51 51 51 53 53 53 88 59 94 55 55 55 46 46 46 50 50 50 59 59 59 60 60 60 52 52 52 58 58 58 50 50 50 50 50 50 46 46 46 22 26 27 22 26 27 22 26 27 22 26 27 22 26 27 22 26 27 22 26 27 22 26 27 22 26 27 105 106 98 103 104 96 106 107 99 91 93 86 84 87 81 92 94 88 102 104 96 108 109 100 88 90 84 85 88 82 84 87 81 83 86 81 100 102 94 102 104 96 22 26 27 22 26 27 22 26 27 22 26 27 22 26 27 22 26 27 22 26 27 22 26 27 22 26 27 22 26 27 22 26 27 22 26 27 107 108 99 98 100 92 109 111 102 107 108 99 87 90 84 96 97 90 95 97 90 110 111 102 101 102 95 99 101 93 83 86 80 104 106 97 86 89 83 96 98 91 82 85 80 97 99 92 103 104 96 87 89 83 97 99 91 91 93 87 108 109 100 106 107 99 102 103 95 106 107 99 85 88 82 108 109 100 101 102 95 97 99 92 103 105 97 83 85 80 103 105 97 99 100 93 80 83 78 101 102 95 84 87 81 101 103 95 107 108 100 85 88 82 96 98 91 84 87 81 90 93 86 103 104 96 109 110 101 91 93 87 82 84 79 80 83 78 92 94 88 22 26 27 22 26 27 22 26 27 22 26 27 102 104 96 105 106 98 82 85 79 90 92 86 85 88 82 99 101 93 82 85 80 105 106 98 109 110 101 101 103 95 103 105 97 107 108 99 108 109 100 90 92 86 90 93 86 87 90 84 103 104 96 81 84 79 103 105 97 22 26 27 22 26 27 22 26 27 22 26 27 22 26 27 22 26 27 22 26 27 22 26 27 22 26 27 22 26 27 22 26 27 22 26 27 22 26 27 22 26 27 22 26 27 22 26 27 22 26 27 22 26 27 22 26 27 22 26 27 22 26 27 22 26 27 22 26 27 22 26 27 22 26 27 22 26 27
22 26 27 22 26 27 22 26 27 80 84 84 75 79 79 79 83 83 22 26 27 70 74 74 90 94 94 92 96 96 78 82 82 22 26 27 75 79 79 77 81 81 88 92 92 89 93 93 64 64 64 56 56 56 90 64 100 49 49 49 49 49 49 53 53 53 58 58 58 59 59 59 64 64 64 66 66 66 50 50 50 60 60 60 62 62 62 56 56 56 60 60 60 64 64 64 59 59 59 26 26 24 26 26 24 26 26 24 26 26 24 26 26 24 26 26 24 26 26 24 26 26 24 26 26 24 26 26 24 26 26 24 26 26 24 26 26 24 16 18 18 16 18 18 16 18 18 26 26 24 26 26 24 26 26 24 26 26 24 26 26 24 26 26 24 26 26 24 26 26 24 26 26 24 16 18 18 16 18 18 16 18 18 26 26 24 26 26 24 26 26 24 26 26 24 26 26 24 26 26 24 26 26 24 16 18 18 16 18 18 16 18 18 26 26 24 26 26 24 26 26 24 26 26 24 26 26 24 26 26 24 26 26 24 16 18 18 16 18 18 16 18 18 26 26 24 26 26 24 26 26 24 26 26 24 26 26 24 26 26 24 26 26 24 26 26 24 26 26 24 26 26 24 26 26 24 26 26 24 26 26 24 26 26 24 26 26 24 26 26 24 26 26 24 26 26 24 26 26 24 26 26 24 26 26 24 26 26 24 26 26 24 26 26 24 26 26 24 26 26 24 26 26 24 26 26 24 26 26 24 61 61 61 55 55 55 55 55 55 52 52 52 86 64 101 61 61 61 61 61 61 53 53 53 50 50 50 49 49 49 64 64 64 59 59 59 53 53 53 55 55 55 49 49 49 22 26 27 22 26 27 22 26 27 22 26 27 22 26 27 22 26 27 22 26 27 22 26 27 22 26 27 89 91 85 91 94 87 87 90 84 101 103 95 89 92 85 97 99 91 107 108 99 88 91 85 107 108 100 82 85 80 96 98 91 100 102 94 94 96 89 87 90 84 22 26 27 22 26 27 22 26 27 22 26 27 22 26 27 22 26 27 22 26 27 22 26 27 22 26 27 22 26 27 22 26 27 22 26 27 94 96 89 82 85 80 80 83 78 98 100 92 99 100 93 81 84 79 87 89 84 87 90 84 95 97 90 106 107 99 89 91 85 110 111 102 91 93 87 110 111 102 102 104 96 94 96 89 100 101 94 96 98 91 96 98 91 106 108 99 91 93 87 82 85 79 102 104 96 109 110 101 103 104 96 93 96 89 109 110 101 88 90 84 102 104 96 89 92 85 96 98 91 94 96 90 101 103 95 107 108 99 98 100 93 104 105 97 93 95 88 105 106 98 81 84 79 86 88 83 85 87 82 110 111 102 85 87 82 103 104 96 93 95 88 110 111 102 104 106 98 22 26 27 22 26 27 22 26 27 22 26 27 93 95 89 95 97 90 104 106 98 98 100 92 90 93 86 81 83 78 100 102 94 99 101 93 105 107 98 93 95 88 92 94 87 95 97 90 89 91 85 92 94 87 90 92 86 102 103 96 102 103 95 96 98 91 91 93 87 22 26 27 22 26 27 22 26 27 22 26 27 22 26 27 22 26 27 22 26 27 22 26 27 22 26 27 22 26 27 22 26 27 22 26 27 22 26 27 22 26 27 22 26 27 22 26 27 22 26 27 22 26 27 22 26 27 22 26 27 22 26 27 22 26 27 22 26 27 22 26 27 22 26 27 22 26 27
22 26 27 22 26 27 22 26 27 73 77 77 92 96 96 79 83 83 22 26 27 93 97 97 77 81 81 88 92 92 74 78 78 22 26 27 92 96 96 89 93 93 69 73 73 72 76 76 56 56 56 69 69 69 66 66 66 104 69 104 54 54 54 57 57 57 55 55 55 58 58 58 69 69 69 53 53 53 66 66 66 62 62 62 58 58 58 55 55 55 59 59 59 60 60 60 104 69 104 26 26 24 26 26 24 26 26 24 26 26 24 26 26 24 26 26 24 26 26 24 26 26 24 26 26 24 26 26 24 26 26 24 26 26 24 26 26 24 16 18 18 16 18 18 16 18 18 26 26 24 26 26 24 26 26 24 26 26 24 26 26 24 26 26 24 26 26 24 26 26 24 26 26 24 16 18 18 16 18 18 16 18 18 26 26 24 26 26 24 26 26 24 26 26 24 26 26 24 26 26 24 26 26 24 16 18 18 16 18 18 16 18 18 26 26 24 26 26 24 26 26 24 26 26 24 26 26 24 26 26 24 26 26 24 16 18 18 16 18 18 16 18 18 26 26 24 26 26 24 26 26 24 26 26 24 26 26 24 26 26 24 26 26 24 26 26 24 26 26 24 26 26 24 26 26 24 26 26 24 26 26 24 26 26 24 26 26 24 26 26 24 26 26 24 26 26 24 26 26 24 26 26 24 26 26 24 26 26 24 26 26 24 26 26 24 26 26 24 26 26 24 26 26 24 26 26 24 26 26 24 60 60 60 56 56 56 63 63 63 54 54 54 62 62 62 70 70 70 70 70 70 67 67 67 68 68 68 59 59 59 61 61 61 67 67 67 60 60 60 110 68 102 101 69 105 22 26 27 22 26 27 22 26 27 22 26 27 22 26 27 22 26 27 22 26 27 22 26 27 22 26 27 97 99 91 83 86 80 104 105 97 93 95 88 87 90 84 96 98 91 92 94 87 94 96 89 96 98 91 81 84 79 81 84 79 100 102 94 109 110 101 108 109 100 22 26 27 22 26 27 22 26 27 22 26 27 22 26 27 22 26 27 22 26 27 22 26 27 22 26 27 22 26 27 22 26 27 22 26 27 106 108 99 81 84 79 94 96 89 102 104 96 98 99 92 109 110 101 84 86 81 106 107 99 98 100 93 87 89 83 93 95 88 91 93 87 108 109 100 91 93 87 88 91 84 98 100 92 93 95 88 82 85 79 91 93 87 98 100 92 83 86 80 93 95 88 109 110 101 84 87 81 80 83 78 97 99 91 101 102 95 105 106 98 84 87 81 98 99 92 82 85 80 84 87 81 86 89 83 107 108 99 101 103 95 83 86 80 94 96 89 92 95 88 108 109 101 101 103 95 102 103 95 88 90 84 88 91 85 110 111 102 86 89 83 95 97 90 99 100 93 22 26 27 22 26 27 22 26 27 22 26 27 106 107 99 101 103 95 109 110 101 88 90 84 86 89 83 109 110 101 106 107 99 98 100 92 110 111 102 88 91 85 99 101 93 96 97 90 104 105 97 87 90 84 103 104 96 100 102 94 89 91 85 109 110 101 85 88 82 22 26 27 22 26 27 22 26 27 22 26 27 22 26 27 22 26 27 22 26 27 22 26 27 22 26 27 22 26 27 22 26 27 22 26 27 22 26 27 22 26 27 22 26 27 22 26 27 22 26 27 22 26 27 22 26 27 22 26 27 22 26 27 22 26 27 22 26 27 22 26 27 22 26 27 22 26 27
22 26 27 22 26 27 22 26 27 70 74 74 90 94 94 90 94 94 22 26 27 72 76 76 70 74 74 87 91 91 76 80 80 22 26 27 91 95 95 81 85 85 77 81 81 86 90 90 105 74 110 64 64 64 66 66 66 58 58 58 57 57 57 64 64 64 63 63 63 61 61 61 73 73 73 62 62 62 61 61 61 61 61 61 68 68 68 57 57 57 57 57 57 60 60 60 74 74 74 26 26 24 26 26 24 26 26 24 26 26 24 210 184 48 207 185 48 213 180 48 208 177 48 215 184 48 213 178 48 209 183 48 207 185 48 207 181 48 16 18 18 16 18 18 16 18 18 213 184 48 209 176 48 209 184 48 206 184 48 209 178 48 205 184 48 207 178 48 212 181 48 214 178 48 16 18 18 16 18 18 16 18 18 213 181 48 215 178 48 211 181 48 205 180 48 208 180 48 211 177 48 206 181 48 16 18 18 16 18 18 16 18 18 210 181 48 215 176 48 205 184 48 215 180 48 207 180 48 211 178 48 209 181 48 16 18 18 16 18 18 16 18 18 206 185 48 210 176 48 210 178 48 210 181 48 212 177 48 205 180 48 215 182 48 210 177 48 211 184 48 208 182 48 211 178 48 207 183 48 205 182 48 205 180 48 208 180 48 214 177 48 205 179 48 213 179 48 211 181 48 216 181 48 213 176 48 210 184 48 205 176 48 215 184 48 205 180 48 26 26 24 26 26 24 26 26 24 26 26 24 73 73 73 73 73 73 86 77 116 74 74 74 71 71 71 61 61 61 71 71 71 66 66 66 98 75 112 59 59 59 72 72 72 65 65 65 61 61 61 71 71 71 58 58 58 22 26 27 22 26 27 22 26 27 22 26 27 22 26 27 22 26 27 22 26 27 22 26 27 22 26 27 84 87 81 81 84 79 91 93 87 90 93 86 90 92 86 107 108 100 84 87 81 85 87 82 110 111 102 85 88 82 90 92 86 96 98 91 91 93 87 91 94 87 22 26 27 22 26 27 22 26 27 22 26 27 22 26 27 22 26 27 22 26 27 22 26 27 22 26 27 22 26 27 22 26 27 22 26 27 109 110 101 87 90 84 104 105 97 107 108 100 92 94 88 100 102 94 94 96 90 93 95 88 97 99 92 92 94 87 102 103 96 100 101 94 89 92 85 99 101 93 105 106 98 94 96 89 84 87 81 106 108 99 93 95 89 84 87 81 82 85 79 90 93 86 81 84 79 83 86 80 85 88 82 88 90 84 105 106 98 97 99 92 84 87 81 100 102 94 104 106 97 106 107 98 96 98 90 92 95 88 88 90 84 81 84 79 94 96 89 107 108 99 91 94 87 97 99 91 86 89 83 108 109 100 110 111 102 87 89 83 95 97 90 84 87 81 101 103 95 22 26 27 22 26 27 22 26 27 22 26 27 88 90 84 102 104 96 102 103 95 84 87 81 96 98 91 88 90 84 82 85 80 85 88 82 95 97 90 101 102 95 105 106 98 83 86 81 87 89 83 90 92 86 93 96 89 107 108 99 96 98 91 95 97 90 85 88 82 22 26 27 22 26 27 22 26 27 22 26 27 22 26 27 22 26 27 22 26 27 22 26 27 22 26 27 22 26 27 22 26 27 22 26 27 22 26 27 22 26 27 22 26 27 22 26 27 22 26 27 22 26 27 22 26 27 22 26 27 22 26 27 22 26 27 22 26 27 22 26 27 22 26 27 22 26 27
22 26 27 22 26 27 22 26 27 75 79 79 80 84 84 77 81 81 22 26 27 93 97 97 76 80 80 82 86 86 74 78 78 22 26 27 87 91 91 70 74 74 78 82 82 83 87 87 73 73 73 72 72 72 75 75 75 70 70 70 70 70 70 75 75 75 62 62 62 69 69 69 73 73 73 62 62 62 61 61 61 104 78 115 68 68 68 66 66 66 77 77 77 109 78 114 63 63 63 26 26 24 26 26 24 26 26 24 26 26 24 216 181 48 211 180 48 214 181 48 216 181 48 212 177 48 212 184 48 213 178 48 211 177 48 205 179 48 16 18 18 16 18 18 16 18 18 213 184 48 212 183 48 213 178 48 212 177 48 211 185 48 214 182 48 211 184 48 205 184 48 206 179 48 16 18 18 16 18 18 16 18 18 215 177 48 213 181 48 215 176 48 210 180 48 216 177 48 216 181 48 208 178 48 16 18 18 16 18 18 16 18 18 211 176 48 205 181 48 211 178 48 209 183 48 216 183 48 209 184 48 214 178 48 16 18 18 16 18 18 16 18 18 215 184 48 210 178 48 216 178 48 211 177 48 205 184 48 208 178 48 210 178 48 216 177 48 212 184 48 210 182 48 213 185 48 206 178 48 209 181 48 213 185 48 214 176 48 214 179 48 213 180 48 207 182 48 211 178 48 212 177 48 211 182 48 214 180 48 207 178 48 215 181 48 214 176 48 26 26 24 26 26 24 26 26 24 26 26 24 65 65 65 77 77 77 73 73 73 116 77 112 68 68 68 73 73 73 73 73 73 70 70 70 72 72 72 93 80 118 75 75 75 104 78 115 76 76 76 66 66 66 111 77 113 22 26 27 22 26 27 22 26 27 22 26 27 22 26 27 22 26 27 22 26 27 22 26 27 22 26 27 104 106 97 96 98 91 90 92 86 89 91 85 99 101 94 107 108 99 96 98 90 107 108 100 97 99 91 100 102 94 82 85 80 99 101 94 86 89 83 99 101 93 22 26 27 22 26 27 22 26 27 22 26 27 22 26 27 22 26 27 22 26 27 22 26 27 22 26 27 22 26 27 22 26 27 22 26 27 85 88 82 99 101 93 84 87 81 90 92 86 104 105 97 82 85 80 98 99 92 100 102 94 87 90 84 87 90 84 104 106 97 81 84 78 96 98 91 99 100 93 81 84 79 86 88 83 102 103 95 87 89 83 103 105 97 83 85 80 97 99 92 92 94 88 83 86 80 92 94 88 97 99 92 83 86 80 93 95 89 93 96 89 98 100 93 94 96 89 98 100 93 104 106 97 109 110 101 110 111 102 108 109 101 109 110 101 95 97 90 98 100 93 104 106 97 101 103 95 96 98 91 87 90 84 86 88 83 89 91 85 80 83 78 101 102 95 82 85 80 22 26 27 22 26 27 22 26 27 22 26 27 87 89 83 83 85 80 86 89 83 94 96 89 86 89 83 106 107 99 92 95 88 93 95 88 89 91 85 103 105 97 94 96 89 100 102 94 85 88 82 106 108 99 108 109 100 93 95 88 109 110 102 105 106 98 106 108 99 22 26 27 22 26 27 22 26 27 22 26 27 22 26 27 22 26 27 22 26 27 22 26 27 22 26 27 22 26 27 22 26 27 22 26 27 22 26 27 22 26 27 22 26 27 22 26 27 22 26 27 22 26 27 22 26 27 22 26 27 22 26 27 22 26 27 22 26 27 22 26 27 22 26 27 22 26 27
22 26 27 22 26 27 22 26 27 74 78 78 69 73 73 83 87 87 22 26 27 71 75 75 73 77 77 72 76 76 87 91 91 22 26 27 79 83 83 81 85 85 81 85 85 72 76 76 71 71 71 66 66 66 66 66 66 72 72 72 77 77 77 74 74 74 77 77 77 72 72 72 78 78 78 77 77 77 73 73 73 78 78 78 62 62 62 64 64 64 73 73 73 68 68 68 64 64 64 26 26 24 26 26 24 26 26 24 26 26 24 209 179 48 213 183 48 209 181 48 207 180 48 207 182 48 205 178 48 214 177 48 212 181 48 211 180 48 16 18 18 16 18 18 16 18 18 209 182 48 211 184 48 208 184 48 206 185 48 208 177 48 211 183 48 208 179 48 210 185 48 213 182 48 16 18 18 16 18 18 16 18 18 213 182 48 214 185 48 211 184 48 209 184 48 206 184 48 209 178 48 211 183 48 16 18 18 16 18 18 16 18 18 214 180 48 209 177 48 212 185 48 212 185 48 213 183 48 211 181 48 205 176 48 16 18 18 16 18 18 16 18 18 207 180 48 206 177 48 213 177 48 214 177 48 210 182 48 205 184 48 210 176 48 210 177 48 206 185 48 216 177 48 213 177 48 206 183 48 214 183 48 209 184 48 215 181 48 213 182 48 211 180 48 207 185 48 208 181 48 209 178 48 210 185 48 208 179 48 211 183 48 205 185 48 213 177 48 26 26 24 26 26 24 26 26 24 26 26 24 72 72 72 68 68 68 75 75 75 74 74 74 69 69 69 64 64 64 69 69 69 79 79 79 79 79 79 64 64 64 76 76 76 68 68 68 71 71 71 79 79 79 74 74 74 22 26 27 22 26 27 22 26 27 22 26 27 22 26 27 22 26 27 22 26 27 22 26 27 22 26 27 95 97 90 109 110 102 104 105 97 91 93 87 104 106 97 92 94 88 86 89 83 94 96 89 89 92 85 104 105 97 82 85 80 85 88 82 87 90 84 94 96 89 22 26 27 22 26 27 22 26 27 22 26 27 22 26 27 22 26 27 22 26 27 22 26 27 22 26 27 22 26 27 22 26 27 22 26 27 101 102 95 92 94 88 101 103 95 92 94 88 103 105 97 96 98 91 92 94 87 106 107 99 100 102 94 86 89 83 99 101 93 110 111 102 105 106 98 91 93 87 86 88 83 100 102 94 102 104 96 102 104 96 94 96 89 98 100 93 107 108 99 87 89 84 81 84 79 107 109 100 92 94 88 87 90 84 90 93 86 103 104 96 101 102 95 87 89 83 101 102 95 100 101 94 93 95 88 90 93 86 95 97 90 107 108 100 101 103 95 91 94 87 87 90 84 80 83 78 88 90 84 92 94 88 103 105 97 86 89 83 100 102 94 85 88 82 93 95 88 22 26 27 22 26 27 22 26 27 22 26 27 88 91 84 104 105 97 96 98 91 91 93 87 87 90 84 81 84 79 82 85 80 83 86 80 90 92 86 84 87 81 92 94 87 98 100 93 90 92 86 94 96 89 96 98 91 82 85 80 102 104 96 85 87 82 96 98 91 22 26 27 22 26 27 22 26 27 22 26 27 22 26 27 22 26 27 22 26 27 22 26 27 22 26 27 22 26 27 22 26 27 22 26 27 22 26 27 22 26 27 22 26 27 22 26 27 22 26 27 22 26 27 22 26 27 22 26 27 22 26 27 22 26 27 22 26 27 22 26 27 22 26 27 22 26 27
22 26 27 22 26 27 22 26 27 82 86 86 86 90 90 77 81 81 22 26 27 81 85 85 71 75 75 77 81 81 69 73 73 22 26 27 86 90 90 71 75 75 81 85 85 90 94 94 76 76 76 75 75 75 63 63 63 67 67 67 73 73 73 69 69 69 73 73 73 70 70 70 78 78 78 77 77 77 74 74 74 79 79 79 77 77 77 68 68 68 63 63 63 67 67 67 75 75 75 26 26 24 26 26 24 26 26 24 26 26 24 206 183 48 211 180 48 208 182 48 215 181 48 208 180 48 210 178 48 206 178 48 215 182 48 207 181 48 16 18 18 16 18 18 16 18 18 216 181 48 216 184 48 214 179 48 214 180 48 213 185 48 215 180 48 213 185 48 212 182 48 207 181 48 16 18 18 16 18 18 16 18 18 207 178 48 215 178 48 216 178 48 205 179 48 212 184 48 205 181 48 210 177 48 16 18 18 16 18 18 16 18 18 215 184 48 206 182 48 209 183 48 215 181 48 214 183 48 210 179 48 208 180 48 16 18 18 16 18 18 16 18 18 208 185 48 206 183 48 215 184 48 215 177 48 205 178 48 209 183 48 207 181 48 213 178 48 205 178 48 208 179 48 209 179 48 205 179 48 215 177 48 206 176 48 207 176 48 210 176 48 206 179 48 211 185 48 210 182 48 208 181 48 212 179 48 215 182 48 209 181 48 216 183 48 211 177 48 26 26 24 26 26 24 26 26 24 26 26 24 75 75 75 115 81 118 75 75 75 74 74 74 62 62 62 78 78 78 67 67 67 75 75 75 65 65 65 63 63 63 71 71 71 71 71 71 79 79 79 77 77 77 77 77 77 22 26 27 22 26 27 22 26 27 22 26 27 22 26 27 22 26 27 22 26 27 22 26 27 22 26 27 100 102 94 101 102 95 90 93 86 96 98 91 108 109 100 88 90 84 91 93 87 84 86 81 86 88 83 80 83 78 100 102 94 105 106 98 80 83 78 90 92 86 22 26 27 22 26 27 22 26 27 22 26 27 22 26 27 22 26 27 22 26 27 22 26 27 22 26 27 22 26 27 22 26 27 22 26 27 99 101 93 99 100 93 82 85 80 102 103 95 97 99 92 85 88 82 87 89 83 87 89 83 108 110 101 102 103 95 82 85 79 96 98 91 100 102 94 86 88 83 94 96 90 101 103 95 94 96 89 109 110 102 99 101 93 92 94 87 103 104 96 92 94 88 96 98 91 93 96 89 104 106 97 98 100 92 83 85 80 87 90 84 100 102 94 83 85 80 91 93 86 101 103 95 93 95 88 107 108 100 105 107 98 90 92 86 94 97 90 93 96 89 104 106 97 84 87 81 105 106 98 89 92 85 102 104 96 110 111 102 105 106 98 86 89 83 95 97 90 22 26 27 22 26 27 22 26 27 22 26 27 90 92 86 103 104 96 87 90 84 99 101 93 107 108 100 88 91 84 93 95 89 90 93 86 99 101 93 82 85 80 97 99 92 90 92 86 107 109 100 104 106 97 104 106 98 97 99 92 102 103 95 104 106 97 91 94 87 22 26 27 22 26 27 22 26 27 22 26 27 22 26 27 22 26 27 22 26 27 22 26 27 22 26 27 22 26 27 22 26 27 22 26 27 22 26 27 22 26 27 22 26 27 22 26 27 22 26 27 22 26 27 22 26 27 22 26 27 22 26 27 22 26 27 22 26 27 22 26 27 22 26 27 22 26 27
22 26 27 22 26 27 22 26 27 84 88 88 92 96 96 80 84 84 22 26 27 78 82 82 79 83 83 70 74 74 91 95 95 22 26 27 82 86 86 75 79 79 74 78 78 79 83 83 77 77 77 79 79 79 68 68 68 72 72 72 110 85 123 115 85 122 76 76 76 81 81 81 66 66 66 74 74 74 65 65 65 70 70 70 73 73 73 79 79 79 70 70 70 72 72 72 83 83 83 26 26 24 26 26 24 26 26 24 26 26 24 212 185 48 208 185 48 210 177 48 211 178 48 211 177 48 211 181 48 206 177 48 208 179 48 215 178 48 16 18 18 16 18 18 16 18 18 209 185 48 216 176 48 205 184 48 206 182 48 211 185 48 211 183 48 208 177 48 207 179 48 207 176 48 16 18 18 16 18 18 16 18 18 207 180 48 210 178 48 210 183 48 205 182 48 207 185 48 208 179 48 215 178 48 16 18 18 16 18 18 16 18 18 215 181 48 214 178 48 213 184 48 210 179 48 211 183 48 207 182 48 207 178 48 16 18 18 16 18 18 16 18 18 206 181 48 207 183 48 207 185 48 209 179 48 209 185 48 209 179 48 207 180 48 214 183 48 207 182 48 210 185 48 213 177 48 207 182 48 206 182 48 210 183 48 213 185 48 210 176 48 210 183 48 206 177 48 209 183 48 210 180 48 215 180 48 210 183 48 209 183 48 216 185 48 210 183 48 26 26 24 26 26 24 26 26 24 26 26 24 69 69 69 71 71 71 71 71 71 66 66 66 66 66 66 67 67 67 82 82 82 79 79 79 74 74 74 68 68 68 73 73 73 79 79 79 69 69 69 64 64 64 71 71 71 22 26 27 22 26 27 22 26 27 22 26 27 22 26 27 22 26 27 22 26 27 22 26 27 22 26 27 92 94 88 94 96 89 105 107 98 108 109 100 98 100 92 105 106 98 94 96 89 103 105 96 86 89 83 110 111 102 81 84 79 86 88 83 93 95 88 96 98 91 22 26 27 22 26 27 22 26 27 22 26 27 22 26 27 22 26 27 22 26 27 22 26 27 22 26 27 22 26 27 22 26 27 22 26 27 110 111 102 105 106 98 95 97 90 96 98 91 90 92 86 108 109 101 94 96 89 88 90 84 81 84 79 94 96 89 93 95 88 100 102 94 82 85 79 109 110 101 90 92 86 84 87 81 108 109 101 96 98 91 90 92 86 108 109 100 92 94 88 108 109 100 97 99 92 110 111 102 99 101 93 81 84 79 83 86 80 99 101 93 105 107 98 83 86 81 97 99 92 94 96 89 86 89 83 80 83 78 86 88 83 109 110 101 97 99 92 103 104 96 91 93 87 86 89 83 102 104 96 105 107 98 91 93 87 98 100 92 90 93 86 108 109 100 104 105 97 22 26 27 22 26 27 22 26 27 22 26 27 85 88 82 81 84 79 82 85 80 107 109 100 106 107 98 93 95 89 107 108 99 85 88 82 94 96 90 91 93 87 93 95 89 100 102 94 83 86 81 102 104 96 88 91 85 101 103 95 90 92 86 95 97 90 92 94 88 22 26 27 22 26 27 22 26 27 22 26 27 22 26 27 22 26 27 22 26 27 22 26 27 22 26 27 22 26 27 22 26 27 22 26 27 22 26 27 22 26 27 22 26 27 22 26 27 22 26 27 22 26 27 22 26 27 22 26 27 22 26 27 22 26 27 22 26 27 22 26 27 22 26 27 22 26 27
22 26 27 22 26 27 22 26 27 85 89 89 69 73 73 81 85 85 22 26 27 85 89 89 79 83 83 80 84 84 76 80 80 22 26 27 91 95 95 72 76 76 79 83 83 80 84 84 69 69 69 85 85 85 79 79 79 78 78 78 76 76 76 72 72 72 80 80 80 122 89 127 72 72 72 69 69 69 79 79 79 73 73 73 74 74 74 82 82 82 78 78 78 83 83 83 77 77 77 26 26 24 26 26 24 26 26 24 26 26 24 216 182 48 207 183 48 206 179 48 216 177 48 214 177 48 215 176 48 214 185 48 216 176 48 207 179 48 16 18 18 16 18 18 16 18 18 205 185 48 213 184 48 216 181 48 211 176 48 212 181 48 213 182 48 207 182 48 213 176 48 214 182 48 16 18 18 16 18 18 16 18 18 212 181 48 213 176 48 209 179 48 215 183 48 214 185 48 213 178 48 214 185 48 16 18 18 16 18 18 16 18 18 209 178 48 215 185 48 208 180 48 205 178 48 209 184 48 213 178 48 205 184 48 16 18 18 16 18 18 16 18 18 215 176 48 212 180 48 207 176 48 216 179 48 207 178 48 210 177 48 213 179 48 213 180 48 209 181 48 215 184 48 208 176 48 208 184 48 206 177 48 216 179 48 206 176 48 210 178 48 206 179 48 209 183 48 206 180 48 208 178 48 211 182 48 208 183 48 216 177 48 207 178 48 216 178 48 26 26 24 26 26 24 26 26 24 26 26 24 75 75 75 72 72 72 77 77 77 81 81 81 80 80 80 84 84 84 125 89 126 78 78 78 72 72 72 69 69 69 77 77 77 73 73 73 122 89 127 69 69 69 127 89 125 22 26 27 22 26 27 22 26 27 22 26 27 22 26 27 22 26 27 22 26 27 22 26 27 22 26 27 96 98 91 81 84 79 96 98 91 110 111 102 104 105 97 102 103 95 86 88 83 95 97 90 83 85 80 93 95 89 99 100 93 89 91 85 83 85 80 104 105 97 22 26 27 22 26 27 22 26 27 22 26 27 22 26 27 22 26 27 22 26 27 22 26 27 22 26 27 22 26 27 22 26 27 22 26 27 98 100 92 93 95 89 99 101 93 101 102 95 107 108 100 92 95 88 106 107 99 107 108 99 109 110 101 101 103 95 100 102 94 105 106 98 103 105 97 85 88 82 80 83 78 95 97 90 104 105 97 94 96 89 98 99 92 94 96 89 96 98 91 104 105 97 109 110 101 98 100 92 98 100 93 107 108 100 99 101 93 103 104 96 105 106 98 88 90 84 82 85 80 89 92 85 103 105 97 88 90 84 100 101 94 88 90 84 99 101 93 94 96 89 93 95 88 83 85 80 102 103 95 108 109 100 94 96 89 107 108 100 92 95 88 92 94 87 92 95 88 22 26 27 22 26 27 22 26 27 22 26 27 107 108 100 80 83 78 96 98 91 107 108 99 83 86 81 92 95 88 89 92 85 88 90 84 102 103 95 98 99 92 95 97 90 106 107 99 96 98 91 106 107 99 106 107 99 91 93 87 98 100 92 109 110 101 90 92 86 22 26 27 22 26 27 22 26 27 22 26 27 22 26 27 22 26 27 22 26 27 22 26 27 22 26 27 22 26 27 22 26 27 22 26 27 22 26 27 22 26 27 22 26 27 22 26 27 22 26 27 22 26 27 22 26 27 22 26 27 22 26 27 22 26 27 22 26 27 22 26 27 22 26 27 22 26 27
22 26 27 22 26 27 22 26 27 89 93 93 76 80 80 69 73 73 22 26 27 80 84 84 82 86 86 88 92 92 85 89 89 22 26 27 80 84 84 77 81 81 77 81 81 87 91 91 79 79 79 75 75 75 88 88 88 77 77 77 73 73 73 88 88 88 74 74 74 79 79 79 89 89 89 80 80 80 85 85 85 77 77 77 75 75 75 79 79 79 87 87 87 73 73 73 134 95 132 26 26 24 26 26 24 26 26 24 26 26 24 213 184 48 216 179 48 216 179 48 210 185 48 209 184 48 211 182 48 211 181 48 207 185 48 214 177 48 16 18 18 16 18 18 16 18 18 214 177 48 214 182 48 215 183 48 214 177 48 214 182 48 216 185 48 215 184 48 208 184 48 209 179 48 16 18 18 16 18 18 16 18 18 215 185 48 209 180 48 208 179 48 206 179 48 207 178 48 207 177 48 211 178 48 16 18 18 16 18 18 16 18 18 213 181 48 215 183 48 212 183 48 213 177 48 213 176 48 216 180 48 212 180 48 16 18 18 16 18 18 16 18 18 208 179 48 215 176 48 214 179 48 208 179 48 207 180 48 209 179 48 205 178 48 208 183 48 209 181 48 209 184 48 206 181 48 212 184 48 214 179 48 210 184 48 207 179 48 210 177 48 214 182 48 210 176 48 208 181 48 210 181 48 209 180 48 205 180 48 208 177 48 213 178 48 213 184 48 26 26 24 26 26 24 26 26 24 26 26 24 88 88 88 84 84 84 88 88 88 91 91 91 77 77 77 75 75 75 84 84 84 77 77 77 86 86 86 85 85 85 91 91 91 86 86 86 89 89 89 86 86 86 87 87 87 22 26 27 22 26 27 22 26 27 22 26 27 22 26 27 22 26 27 22 26 27 22 26 27 22 26 27 87 90 84 93 96 89 103 104 96 88 91 85 107 108 99 101 103 95 96 98 91 87 90 84 107 108 100 102 104 96 92 95 88 92 95 88 95 97 90 86 89 83 22 26 27 22 26 27 22 26 27 22 26 27 22 26 27 22 26 27 22 26 27 22 26 27 22 26 27 22 26 27 22 26 27 22 26 27 91 93 87 98 100 93 98 100 92 88 91 85 95 97 90 83 86 80 107 108 99 83 85 80 100 101 94 92 95 88 86 89 83 95 97 90 98 100 92 96 98 90 93 96 89 103 105 97 96 98 91 107 108 99 93 95 89 100 101 94 106 108 99 91 93 87 82 85 80 86 88 82 89 92 85 99 100 93 83 86 80 89 92 85 105 107 98 89 92 85 98 100 92 84 86 81 83 86 80 109 110 101 106 108 99 104 105 97 89 92 85 81 84 79 82 85 80 84 87 81 85 88 82 94 96 89 106 107 98 85 88 82 90 92 86 99 101 93 110 111 102 22 26 27 22 26 27 22 26 27 22 26 27 92 94 87 105 106 98 103 104 96 87 89 83 94 96 89 106 108 99 93 95 88 100 101 94 101 102 94 107 109 100 101 103 95 88 90 84 90 92 86 82 85 79 99 101 93 101 102 95 94 96 89 109 110 101 96 98 91 22 26 27 22 26 27 22 26 27 22 26 27 22 26 27 22 26 27 22 26 27 22 26 27 22 26 27 22 26 27 22 26 27 22 26 27 22 26 27 22 26 27 22 26 27 22 26 27 22 26 27 22 26 27 22 26 27 22 26 27 22 26 27 22 26 27 22 26 27 22 26 27 22 26 27 22 26 27
22 26 27 22 26 27 22 26 27 91 95 95 78 82 82 78 82 82 22 26 27 86 90 90 72 76 76 82 86 86 73 77 77 22 26 27 74 78 78 87 91 91 92 96 96 78 82 82 78 78 78 92 92 92 84 84 84 80 80 80 79 79 79 78 78 78 84 84 84 79 79 79 86 86 86 81 81 81 129 102 142 86 86 86 90 90 90 79 79 79 88 88 88 78 78 78 92 92 92 26 26 24 26 26 24 26 26 24 26 26 24 214 178 48 205 178 48 211 180 48 208 185 48 208 180 48 210 183 48 216 179 48 211 176 48 208 185 48 16 18 18 16 18 18 16 18 18 213 177 48 215 181 48 210 177 48 216 181 48 214 183 48 212 182 48 210 177 48 205 176 48 215 179 48 16 18 18 16 18 18 16 18 18 208 177 48 216 180 48 216 181 48 208 177 48 215 177 48 212 180 48 205 176 48 16 18 18 16 18 18 16 18 18 209 179 48 216 184 48 212 183 48 211 179 48 215 185 48 206 182 48 213 183 48 16 18 18 16 18 18 16 18 18 208 180 48 205 180 48 211 178 48 209 177 48 208 182 48 207 176 48 209 179 48 211 179 48 205 184 48 209 178 48 209 178 48 214 181 48 215 180 48 208 182 48 216 183 48 209 185 48 216 181 48 210 178 48 207 176 48 207 176 48 212 185 48 206 183 48 212 179 48 216 176 48 216 180 48 26 26 24 26 26 24 26 26 24 26 26 24 91 91 91 83 83 83 82 82 82 92 92 92 91 91 91 90 90 90 92 92 92 90 90 90 91 91 91 80 80 80 128 103 143 90 90 90 92 92 92 88 88 88 83 83 83 22 26 27 22 26 27 22 26 27 22 26 27 22 26 27 22 26 27 22 26 27 22 26 27 22 26 27 106 107 99 97 98 91 106 107 99 81 84 79 106 107 99 97 99 92 95 97 90 98 100 93 83 85 80 90 92 86 86 88 82 102 103 95 89 91 85 82 85 80 22 26 27 22 26 27 22 26 27 22 26 27 22 26 27 22 26 27 22 26 27 22 26 27 22 26 27 22 26 27 22 26 27 22 26 27 104 105 97 88 91 84 95 97 90 84 87 81 86 89 83 94 96 89 86 88 82 92 95 88 89 91 85 108 109 100 86 88 82 96 98 91 93 95 88 93 95 88 104 105 97 98 99 92 95 97 90 98 100 92 103 104 96 109 110 101 100 102 94 101 103 95 90 92 86 89 92 85 89 91 85 98 100 92 107 108 99 104 105 97 107 108 99 88 91 85 83 86 80 104 106 97 107 108 99 101 103 95 95 97 90 103 105 97 107 109 100 86 88 83 91 93 87 97 99 92 107 109 100 105 107 98 83 86 80 84 87 81 96 98 91 80 83 78 85 88 82 22 26 27 22 26 27 22 26 27 22 26 27 89 91 85 87 90 84 107 108 100 97 99 92 93 95 88 97 99 92 88 90 84 80 83 78 103 105 97 96 98 91 105 107 98 100 102 94 86 89 83 86 89 83 109 110 101 92 94 87 80 83 78 93 95 89 92 94 88 22 26 27 22 26 27 22 26 27 22 26 27 22 26 27 22 26 27 22 26 27 22 26 27 22 26 27 22 26 27 22 26 27 22 26 27 22 26 27 22 26 27 22 26 27 22 26 27 22 26 27 22 26 27 22 26 27 22 26 27 22 26 27 22 26 27 22 26 27 22 26 27 22 26 27 22 26 27
22 26 27 22 26 27 22 26 27 72 76 76 92 96 96 80 84 84 22 26 27 92 96 96 87 91 91 87 91 91 83 87 87 22 26 27 70 74 74 84 88 88 77 81 81 92 96 96 83 83 83 94 94 94 90 90 90 88 88 88 92 92 92 83 83 83 91 91 91 89 89 89 144 106 145 85 85 85 83 83 83 93 93 93 93 93 93 83 83 83 91 91 91 92 92 92 86 86 86 26 26 24 26 26 24 26 26 24 26 26 24 207 184 48 210 177 48 207 184 48 205 185 48 214 183 48 209 177 48 214 180 48 211 183 48 210 180 48 16 18 18 16 18 18 16 18 18 207 182 48 213 176 48 214 177 48 209 185 48 205 178 48 206 179 48 210 180 48 214 183 48 208 183 48 16 18 18 16 18 18 16 18 18 206 183 48 209 177 48 211 178 48 212 184 48 212 177 48 209 180 48 205 182 48 16 18 18 16 18 18 16 18 18 213 181 48 214 182 48 212 181 48 205 181 48 216 179 48 212 182 48 205 182 48 16 18 18 16 18 18 16 18 18 206 185 48 206 180 48 208 182 48 214 183 48 210 182 48 214 178 48 209 181 48 216 185 48 210 181 48 206 178 48 208 180 48 213 181 48 216 179 48 213 184 48 209 185 48 213 179 48 215 183 48 213 179 48 213 176 48 213 178 48 209 177 48 216 176 48 210 182 48 212 178 48 208 177 48 26 26 24 26 26 24 26 26 24 26 26 24 91 91 91 82 82 82 89 89 89 87 87 87 85 85 85 92 92 92 93 93 93 87 87 87 82 82 82 84 84 84 91 91 91 87 87 87 91 91 91 86 86 86 93 93 93 22 26 27 22 26 27 22 26 27 22 26 27 22 26 27 22 26 27 22 26 27 22 26 27 22 26 27 101 102 95 100 102 94 84 86 81 102 103 95 107 109 100 104 105 97 107 109 100 91 94 87 82 85 80 83 86 81 96 98 91 107 108 99 91 93 87 100 102 94 22 26 27 22 26 27 22 26 27 22 26 27 22 26 27 22 26 27 22 26 27 22 26 27 22 26 27 22 26 27 22 26 27 22 26 27 105 106 98 88 91 84 101 103 95 109 110 101 82 85 80 89 92 85 93 95 88 82 85 80 96 98 91 101 103 95 107 108 99 87 89 83 105 106 98 85 88 82 105 107 98 109 110 101 89 91 85 89 91 85 101 103 95 95 97 90 104 105 97 103 104 96 92 94 88 87 89 83 90 92 86 88 90 84 97 99 92 102 103 95 93 95 88 106 107 98 86 89 83 97 98 91 84 86 81 101 102 95 94 96 89 83 86 80 85 88 82 102 103 95 93 95 89 81 84 79 85 88 82 103 104 96 87 90 84 103 105 97 105 106 98 81 84 78 101 102 95 22 26 27 22 26 27 22 26 27 22 26 27 94 96 89 106 108 99 99 101 93 102 103 95 99 100 93 110 111 102 109 110 102 88 91 85 89 91 85 110 111 102 87 89 83 102 104 96 87 89 83 97 99 92 88 90 84 90 92 86 83 86 81 94 96 89 94 96 89 22 26 27 22 26 27 22 26 27 22 26 27 22 26 27 22 26 27 22 26 27 22 26 27 22 26 27 22 26 27 22 26 27 22 26 27 22 26 27 22 26 27 22 26 27 22 26 27 22 26 27 22 26 27 22 26 27 22 26 27 22 26 27 22 26 27 22 26 27 22 26 27 22 26 27 22 26 27
22 26 27 22 26 27 22 26 27 69 73 73 71 75 75 74 78 78 22 26 27 79 83 83 86 90 90 92 96 96 83 87 87 22 26 27 74 78 78 89 93 93 75 79 79 88 92 92 92 92 92 93 93 93 91 91 91 93 93 93 94 94 94 83 83 83 92 92 92 93 93 93 92 92 92 94 94 94 91 91 91 91 91 91 86 86 86 90 90 90 91 91 91 90 90 90 84 84 84 26 26 24 26 26 24 26 26 24 26 26 24 205 180 48 215 185 48 215 182 48 207 182 48 212 183 48 209 181 48 214 183 48 216 184 48 212 182 48 16 18 18 16 18 18 16 18 18 207 182 48 216 179 48 206 180 48 209 178 48 216 184 48 214 185 48 212 176 48 208 179 48 205 183 48 16 18 18 16 18 18 16 18 18 212 176 48 208 185 48 207 176 48 206 178 48 209 181 48 207 179 48 214 176 48 16 18 18 16 18 18 16 18 18 216 180 48 210 180 48 205 184 48 211 185 48 206 181 48 214 177 48 211 176 48 16 18 18 16 18 18 16 18 18 215 182 48 216 177 48 207 176 48 212 177 48 211 179 48 211 180 48 215 176 48 211 180 48 206 176 48 213 181 48 212 184 48 205 176 48 205 183 48 212 185 48 215 180 48 213 177 48 208 181 48 209 177 48 210 179 48 213 183 48 205 184 48 212 184 48 213 185 48 205 181 48 214 176 48 26 26 24 26 26 24 26 26 24 26 26 24 93 93 93 91 91 91 94 94 94 85 85 85 93 93 93 93 93 93 86 86 86 91 91 91 90 90 90 94 94 94 92 92 92 84 84 84 92 92 92 92 92 92 92 92 92 22 26 27 22 26 27 22 26 27 22 26 27 22 26 27 22 26 27 22 26 27 22 26 27 22 26 27 104 105 97 102 104 96 99 101 93 100 102 94 90 92 86 90 92 86 81 84 79 87 90 84 83 86 81 103 104 96 108 110 101 84 87 81 94 96 89 91 94 87 22 26 27 22 26 27 22 26 27 22 26 27 22 26 27 22 26 27 22 26 27 22 26 27 22 26 27 22 26 27 22 26 27 22 26 27 99 101 93 95 97 90 93 95 88 101 103 95 105 106 98 102 103 95 103 105 97 104 106 98 104 106 98 83 86 80 84 87 82 89 92 86 100 102 94 98 99 92 93 95 88 99 101 94 110 111 102 93 95 88 84 87 81 85 88 82 95 97 90 103 104 96 90 93 86 91 94 87 82 85 80 103 105 97 82 85 80 108 109 100 94 96 89 89 92 85 101 103 95 103 104 96 91 93 87 92 94 87 107 108 100 82 85 80 93 95 88 103 104 96 89 91 85 83 86 81 107 108 99 97 99 91 94 96 90 109 110 101 83 86 80 81 84 79 88 90 84 22 26 27 22 26 27 22 26 27 22 26 27 86 89 83 84 87 81 95 97 90 108 109 101 95 97 90 92 94 88 106 107 98 80 83 78 93 95 89 108 109 100 110 111 102 98 100 93 88 90 84 106 107 99 88 91 85 91 94 87 101 102 94 83 86 80 92 94 88 22 26 27 22 26 27 22 26 27 22 26 27 22 26 27 22 26 27 22 26 27 22 26 27 22 26 27 22 26 27 22 26 27 22 26 27 22 26 27 22 26 27 22 26 27 22 26 27 22 26 27 22 26 27 22 26 27 22 26 27 22 26 27 22 26 27 22 26 27 22 26 27 22 26 27 22 26 27
22 26 27 22 26 27 22 26 27 73 77 77 81 85 85 92 96 96 22 26 27 77 81 81 81 85 85 92 96 96 90 94 94 22 26 27 83 87 87 76 80 80 86 90 90 87 91 91 85 85 85 85 85 85 85 85 85 91 91 91 83 83 83 83 83 83 88 88 88 92 92 92 91 91 91 92 92 92 92 92 92 83 83 83 93 93 93 91 91 91 84 84 84 93 93 93 88 88 88 26 26 24 26 26 24 26 26 24 26 26 24 207 181 48 205 183 48 206 179 48 216 181 48 209 182 48 205 179 48 215 176 48 213 179 48 209 182 48 16 18 18 16 18 18 16 18 18 215 180 48 207 176 48 207 179 48 214 179 48 211 178 48 211 180 48 207 178 48 210 183 48 212 184 48 16 18 18 16 18 18 16 18 18 215 180 48 211 177 48 213 176 48 213 178 48 216 182 48 205 179 48 205 180 48 16 18 18 16 18 18 16 18 18 212 180 48 209 183 48 207 183 48 215 181 48 214 181 48 209 176 48 207 178 48 16 18 18 16 18 18 16 18 18 212 180 48 206 185 48 209 178 48 216 180 48 214 184 48 215 179 48 207 179 48 207 176 48 211 183 48 209 179 48 208 184 48 205 176 48 209 181 48 210 182 48 212 176 48 212 182 48 211 183 48 209 183 48 209 183 48 212 183 48 208 177 48 214 177 48 214 176 48 207 183 48 209 181 48 26 26 24 26 26 24 26 26 24 26 26 24 90 90 90 90 90 90 131 109 150 92 92 92 93 93 93 91 91 91 84 84 84 94 94 94 92 92 92 92 92 92 91 91 91 91 91 91 90 90 90 93 93 93 93 93 93 22 26 27 22 26 27 22 26 27 22 26 27 22 26 27 22 26 27 22 26 27 22 26 27 22 26 27 84 86 81 104 105 97 84 87 81 98 100 92 99 101 93 100 102 94 84 86 81 101 102 95 105 106 98 85 87 82 106 107 99 109 110 101 87 89 84 109 110 101 22 26 27 22 26 27 22 26 27 80 83 78 87 89 84 82 85 79 94 96 89 86 89 83 22 26 27 22 26 27 22 26 27 22 26 27 100 102 94 93 95 89 92 94 87 85 88 82 109 110 101 95 97 90 82 85 79 106 107 99 98 100 93 95 97 90 93 95 89 83 85 80 83 86 81 107 108 100 84 87 81 88 90 84 94 97 90 90 92 86 91 93 87 103 104 96 107 108 100 83 85 80 110 111 102 101 103 95 88 90 84 105 106 98 108 109 100 88 91 84 109 110 101 107 108 100 86 89 83 99 101 94 100 102 94 108 109 100 88 90 84 88 90 84 100 101 94 83 86 81 103 105 97 109 110 102 107 108 100 106 107 98 90 92 86 89 91 85 101 103 95 94 96 89 83 85 80 22 26 27 22 26 27 22 26 27 22 26 27 97 98 91 107 108 99 93 95 88 90 93 86 102 104 96 107 109 100 86 88 83 108 110 101 93 95 89 105 106 98 104 105 97 83 86 80 92 94 88 101 102 95 83 86 81 98 99 92 102 104 96 102 103 95 93 95 88 22 26 27 22 26 27 22 26 27 22 26 27 22 26 27 22 26 27 22 26 27 22 26 27 22 26 27 22 26 27 22 26 27 22 26 27 22 26 27 22 26 27 22 26 27 22 26 27 22 26 27 22 26 27 22 26 27 22 26 27 22 26 27 22 26 27 22 26 27 22 26 27 22 26 27 22 26 27
22 26 27 22 26 27 22 26 27 85 89 89 90 94 94 89 93 93 22 26 27 84 88 88 73 77 77 82 86 86 73 77 77 22 26 27 74 78 78 80 84 84 92 96 96 86 90 90 89 89 89 80 80 80 83 83 83 83 83 83 85 85 85 89 89 89 86 86 86 93 93 93 82 82 82 93 93 93 84 84 84 89 89 89 91 91 91 82 82 82 79 79 79 92 92 92 90 90 90 26 26 24 26 26 24 26 26 24 26 26 24 209 176 48 205 178 48 206 185 48 205 180 48 216 180 48 205 184 48 215 177 48 214 179 48 212 184 48 16 18 18 16 18 18 16 18 18 214 184 48 210 180 48 214 185 48 206 183 48 207 182 48 206 185 48 206 177 48 216 177 48 210 184 48 16 18 18 16 18 18 16 18 18 216 179 48 211 182 48 206 182 48 215 176 48 205 179 48 207 183 48 212 181 48 16 18 18 16 18 18 16 18 18 213 183 48 215 177 48 205 180 48 213 184 48 212 183 48 210 176 48 213 180 48 16 18 18 16 18 18 16 18 18 216 182 48 207 182 48 209 179 48 206 183 48 206 179 48 212 177 48 208 179 48 210 179 48 215 182 48 215 179 48 207 178 48 213 183 48 215 183 48 213 184 48 207 178 48 210 181 48 214 184 48 211 182 48 211 178 48 208 179 48 205 179 48 215 182 48 206 185 48 208 181 48 211 177 48 26 26 24 26 26 24 26 26 24 26 26 24 92 92 92 92 92 92 93 93 93 81 81 81 89 89 89 80 80 80 138 103 142 92 92 92 93 93 93 83 83 83 83 83 83 93 93 93 85 85 85 79 79 79 92 92 92 22 26 27 22 26 27 22 26 27 22 26 27 22 26 27 22 26 27 22 26 27 22 26 27 22 26 27 97 98 91 109 110 101 105 106 98 109 110 101 82 85 79 107 108 100 97 99 91 88 90 84 99 101 93 103 104 96 82 85 80 105 106 98 92 94 88 110 111 102 22 26 27 22 26 27 22 26 27 92 94 87 89 92 86 83 86 80 91 94 87 80 83 78 22 26 27 22 26 27 22 26 27 22 26 27 102 104 96 90 92 86 83 86 81 88 91 85 97 99 92 87 90 84 103 104 96 101 102 95 106 108 99 98 100 92 89 91 85 105 106 98 96 98 91 83 86 80 104 105 97 88 90 84 103 104 96 104 106 98 108 109 100 92 94 87 103 104 96 105 106 98 90 93 86 108 109 100 86 88 83 99 101 94 84 87 82 84 87 82 94 96 89 93 95 89 86 89 83 104 106 98 84 87 81 104 105 97 91 93 87 87 89 83 92 94 88 86 88 82 110 111 102 81 84 79 86 88 83 109 110 101 101 102 95 107 109 100 108 109 100 83 85 80 97 99 91 22 26 27 22 26 27 22 26 27 22 26 27 90 93 86 97 99 92 85 87 82 101 103 95 109 110 101 89 91 85 94 96 89 92 94 88 80 83 78 82 85 80 94 96 89 92 94 88 107 108 99 81 84 79 85 88 82 91 93 87 89 91 85 110 111 102 90 92 86 22 26 27 22 26 27 22 26 27 22 26 27 22 26 27 22 26 27 22 26 27 22 26 27 22 26 27 22 26 27 22 26 27 22 26 27 22 26 27 22 26 27 22 26 27 22 26 27 22 26 27 22 26 27 22 26 27 22 26 27 22 26 27 22 26 27 22 26 27 22 26 27 22 26 27 22 26 27
22 26 27 22 26 27 22 26 27 71 75 75 87 91 91 77 81 81 22 26 27 69 73 73 78 82 82 83 87 87 77 81 81 22 26 27 81 85 85 88 92 92 90 94 94 76 80 80 75 75 75 84 84 84 120 98 138 75 75 75 82 82 82 90 90 90 81 81 81 83 83 83 89 89 89 80 80 80 79 79 79 111 99 140 83 83 83 89 89 89 89 89 89 79 79 79 88 88 88 26 26 24 26 26 24 26 26 24 26 26 24 213 184 48 215 183 48 209 176 48 215 183 48 215 183 48 206 183 48 210 177 48 212 179 48 215 181 48 16 18 18 16 18 18 16 18 18 216 182 48 208 177 48 211 181 48 207 185 48 209 176 48 210 185 48 205 184 48 216 181 48 211 185 48 16 18 18 16 18 18 16 18 18 206 177 48 216 179 48 216 176 48 215 183 48 210 179 48 215 181 48 212 181 48 16 18 18 16 18 18 16 18 18 213 182 48 211 178 48 215 181 48 210 180 48 216 184 48 207 177 48 211 178 48 16 18 18 16 18 18 16 18 18 208 177 48 213 177 48 209 176 48 212 177 48 214 178 48 215 182 48 212 184 48 211 183 48 205 176 48 205 176 48 213 183 48 207 178 48 213 176 48 206 181 48 212 178 48 208 184 48 216 185 48 210 176 48 206 184 48 211 176 48 213 178 48 207 183 48 210 185 48 214 176 48 215 179 48 26 26 24 26 26 24 26 26 24 26 26 24 85 85 85 86 86 86 74 74 74 90 90 90 85 85 85 91 91 91 125 97 136 82 82 82 79 79 79 83 83 83 89 89 89 77 77 77 88 88 88 91 91 91 84 84 84 22 26 27 22 26 27 22 26 27 22 26 27 22 26 27 22 26 27 22 26 27 22 26 27 22 26 27 83 86 80 107 108 99 100 102 94 94 96 89 107 108 100 100 102 94 88 90 84 88 90 84 101 103 95 99 101 93 82 85 80 104 105 97 102 103 95 81 84 78 22 26 27 22 26 27 22 26 27 81 84 79 102 104 96 103 104 96 109 110 101 95 97 90 22 26 27 22 26 27 22 26 27 22 26 27 96 98 91 109 110 101 100 102 94 89 91 85 105 107 98 99 101 94 96 98 91 82 85 80 94 96 89 82 85 79 98 100 93 91 93 87 106 107 99 93 95 88 86 89 83 101 102 95 109 110 101 88 91 85 102 103 95 82 84 79 106 107 99 98 100 93 87 89 83 93 95 88 87 89 83 85 87 82 82 85 80 105 106 98 98 100 92 89 92 85 103 104 96 86 89 83 89 92 85 97 99 92 90 92 86 89 91 85 97 99 91 104 106 98 94 96 89 108 109 100 89 92 86 97 99 92 109 110 101 109 110 101 110 111 102 101 103 95 96 98 90 22 26 27 22 26 27 22 26 27 22 26 27 109 110 101 104 106 97 92 94 88 109 110 101 93 95 88 92 94 87 82 85 79 81 84 79 84 87 81 95 97 90 98 100 93 94 96 89 103 105 97 105 107 98 86 89 83 107 108 99 84 87 81 101 102 95 95 97 90 22 26 27 22 26 27 22 26 27 22 26 27 22 26 27 22 26 27 22 26 27 22 26 27 22 26 27 22 26 27 22 26 27 22 26 27 22 26 27 22 26 27 22 26 27 22 26 27 22 26 27 22 26 27 22 26 27 22 26 27 22 26 27 22 26 27 22 26 27 22 26 27 22 26 27 22 26 27
22 26 27 22 26 27 22 26 27 89 93 93 81 85 85 91 95 95 22 26 27 84 88 88 73 77 77 76 80 80 73 77 77 22 26 27 74 78 78 83 87 87 71 75 75 87 91 91 72 72 72 72 72 72 86 86 86 83 83 83 69 69 69 78 78 78 71 71 71 106 93 133 87 87 87 78 78 78 81 81 81 121 91 129 83 83 83 83 83 83 74 74 74 83 83 83 79 79 79 26 26 24 26 26 24 26 26 24 26 26 24 206 184 48 213 179 48 214 177 48 208 176 48 210 182 48 207 180 48 212 181 48 205 180 48 209 178 48 16 18 18 16 18 18 16 18 18 207 182 48 213 176 48 205 179 48 215 176 48 212 182 48 215 184 48 213 177 48 208 185 48 210 183 48 16 18 18 16 18 18 16 18 18 209 180 48 208 181 48 214 182 48 207 179 48 216 183 48 216 184 48 214 184 48 16 18 18 16 18 18 16 18 18 212 185 48 210 177 48 212 182 48 209 183 48 210 179 48 213 177 48 216 176 48 16 18 18 16 18 18 16 18 18 211 179 48 213 184 48 207 184 48 213 177 48 207 177 48 209 183 48 210 184 48 208 185 48 213 176 48 211 179 48 214 184 48 205 183 48 208 179 48 215 183 48 209 179 48 210 184 48 210 181 48 207 180 48 212 183 48 205 181 48 213 179 48 211 178 48 211 181 48 214 183 48 211 184 48 26 26 24 26 26 24 26 26 24 26 26 24 88 88 88 74 74 74 73 73 73 78 78 78 75 75 75 85 85 85 74 74 74 72 72 72 82 82 82 86 86 86 73 73 73 78 78 78 71 71 71 80 80 80 85 85 85 22 26 27 22 26 27 22 26 27 22 26 27 22 26 27 22 26 27 22 26 27 22 26 27 22 26 27 104 105 97 81 84 79 110 111 102 85 87 82 110 111 102 97 99 92 95 97 90 83 86 81 95 97 90 94 96 89 97 99 92 107 108 99 94 96 89 91 93 87 22 26 27 22 26 27 22 26 27 86 89 83 82 85 80 97 99 92 95 97 90 82 85 80 22 26 27 22 26 27 22 26 27 22 26 27 83 85 80 85 88 82 82 84 79 101 103 95 89 91 85 93 95 88 82 84 79 84 87 81 83 86 81 99 100 93 83 85 80 84 87 81 98 99 92 105 106 98 90 92 86 85 88 82 90 93 86 82 84 79 108 109 100 104 105 97 101 103 95 85 88 82 93 95 88 101 103 95 81 84 79 80 83 78 110 111 102 97 98 91 110 111 102 90 92 86 102 104 96 84 87 81 84 87 81 98 100 92 93 96 89 93 95 88 105 107 98 103 104 96 92 94 87 100 101 94 99 101 93 102 103 96 102 104 96 97 99 92 84 87 81 101 103 95 86 89 83 22 26 27 22 26 27 22 26 27 22 26 27 107 108 100 90 92 86 99 100 93 109 110 101 92 94 87 83 86 81 80 83 78 88 90 84 104 105 97 90 92 86 93 95 88 109 110 101 87 89 83 107 108 99 97 99 91 103 104 96 106 107 99 83 86 81 85 88 82 22 26 27 22 26 27 22 26 27 22 26 27 22 26 27 22 26 27 22 26 27 22 26 27 22 26 27 22 26 27 22 26 27 22 26 27 22 26 27 22 26 27 22 26 27 22 26 27 22 26 27 22 26 27 22 26 27 22 26 27 22 26 27 22 26 27 22 26 27 22 26 27 22 26 27 22 26 27
22 26 27 22 26 27 22 26 27 70 74 74 88 92 92 86 90 90 22 26 27 73 77 77 86 90 90 79 83 83 78 82 82 22 26 27 86 90 90 71 75 75 83 87 87 69 73 73 76 76 76 77 77 77 83 83 83 84 84 84 75 75 75 71 71 71 78 78 78 78 78 78 68 68 68 76 76 76 69 69 69 107 87 126 75 75 75 65 65 65 82 82 82 69 69 69 69 69 69 26 26 24 26 26 24 26 26 24 26 26 24 211 184 48 212 181 48 210 183 48 211 177 48 214 181 48 213 180 48 205 184 48 205 183 48 212 176 48 16 18 18 16 18 18 16 18 18 215 181 48 216 184 48 207 181 48 208 184 48 213 180 48 210 176 48 211 179 48 207 178 48 209 182 48 16 18 18 16 18 18 16 18 18 208 182 48 211 181 48 212 178 48 206 182 48 211 184 48 209 184 48 210 184 48 16 18 18 16 18 18 16 18 18 212 182 48 207 177 48 210 176 48 213 185 48 206 178 48 215 179 48 214 180 48 16 18 18 16 18 18 16 18 18 216 182 48 215 179 48 206 177 48 213 180 48 208 185 48 215 180 48 212 178 48 215 183 48 215 182 48 213 180 48 215 182 48 212 176 48 214 184 48 206 177 48 215 181 48 209 177 48 208 179 48 213 183 48 212 180 48 212 179 48 215 179 48 216 181 48 205 185 48 214 176 48 208 185 48 26 26 24 26 26 24 26 26 24 26 26 24 74 74 74 81 81 81 78 78 78 83 83 83 76 76 76 79 79 79 79 79 79 75 75 75 81 81 81 77 77 77 82 82 82 66 66 66 66 66 66 67 67 67 68 68 68 22 26 27 22 26 27 22 26 27 22 26 27 22 26 27 22 26 27 22 26 27 22 26 27 22 26 27 106 107 99 97 99 92 83 85 80 85 88 82 82 85 79 105 106 98 81 83 78 102 103 96 103 104 96 88 90 84 92 94 88 106 107 98 106 108 99 93 96 89 22 26 27 22 26 27 22 26 27 85 88 82 81 84 78 87 90 84 81 84 79 93 96 89 22 26 27 22 26 27 22 26 27 22 26 27 107 108 100 105 106 98 93 95 88 84 87 81 98 100 92 93 95 89 100 101 94 95 97 90 84 86 81 97 99 91 84 87 81 88 91 84 103 105 97 81 84 79 89 91 85 81 84 79 92 94 87 108 109 100 84 87 81 92 94 88 98 100 93 82 85 80 94 96 89 101 103 95 96 98 91 83 85 80 95 97 90 97 98 91 83 86 81 105 106 98 90 93 86 84 87 82 90 92 86 85 88 82 86 89 83 95 97 90 86 89 83 85 87 82 106 107 99 106 107 99 102 104 96 109 110 101 97 99 92 99 101 93 88 90 84 102 103 95 93 95 89 22 26 27 22 26 27 22 26 27 22 26 27 85 88 82 88 90 84 89 91 85 95 97 90 97 99 92 107 109 100 89 91 85 99 101 93 96 98 91 87 90 84 93 95 88 104 106 98 108 109 100 109 110 101 104 105 97 83 86 80 100 102 94 106 108 99 103 105 97 22 26 27 22 26 27 22 26 27 22 26 27 22 26 27 22 26 27 22 26 27 22 26 27 22 26 27 22 26 27 22 26 27 22 26 27 22 26 27 22 26 27 22 26 27 22 26 27 22 26 27 22 26 27 22 26 27 22 26 27 22 26 27 22 26 27 22 26 27 22 26 27 22 26 27 22 26 27
22 26 27 22 26 27 22 26 27 92 96 96 90 94 94 87 91 91 22 26 27 69 73 73 91 95 95 71 75 75 92 96 96 22 26 27 80 84 84 89 93 93 82 86 86 83 87 87 99 84 123 71 71 71 79 79 79 97 84 123 75 75 75 77 77 77 67 67 67 76 76 76 70 70 70 68 68 68 81 81 81 77 77 77 102 84 122 70 70 70 71 71 71 74 74 74 77 77 77 30 31 28 30 31 28 30 31 28 30 31 28 30 31 28 30 31 28 30 31 28 30 31 28 30 31 28 30 31 28 30 31 28 30 31 28 30 31 28 30 31 28 30 31 28 30 31 28 30 31 28 30 31 28 30 31 28 30 31 28 30 31 28 30 31 28 30 31 28 30 31 28 30 31 28 30 31 28 30 31 28 30 31 28 30 31 28 30 31 28 30 31 28 30 31 28 30 31 28 30 31 28 30 31 28 30 31 28 30 31 28 30 31 28 30 31 28 30 31 28 30 31 28 30 31 28 30 31 28 30 31 28 30 31 28 30 31 28 30 31 28 30 31 28 30 31 28 30 31 28 30 31 28 30 31 28 30 31 28 30 31 28 30 31 28 30 31 28 30 31 28 30 31 28 30 31 28 30 31 28 30 31 28 30 31 28 30 31 28 30 31 28 30 31 28 30 31 28 30 31 28 30 31 28 30 31 28 30 31 28 30 31 28 30 31 28 30 31 28 30 31 28 30 31 28 30 31 28 30 31 28 68 68 68 69 69 69 68 68 68 72 72 72 78 78 78 74 74 74 75 75 75 80 80 80 72 72 72 68 68 68 80 80 80 75 75 75 75 75 75 78 78 78 64 64 64 22 26 27 22 26 27 22 26 27 22 26 27 22 26 27 22 26 27 22 26 27 22 26 27 22 26 27 93 95 89 95 97 90 87 89 83 92 94 88 106 107 99 98 100 92 91 93 87 85 87 82 99 101 93 98 99 92 83 86 80 105 106 98 92 94 87 87 90 84 22 26 27 22 26 27 22 26 27 105 106 98 108 110 101 105 107 98 104 105 97 90 93 86 22 26 27 22 26 27 22 26 27 22 26 27 104 105 97 90 93 86 89 91 85 95 97 90 80 83 78 86 88 82 108 109 100 108 109 100 108 109 100 100 102 94 80 83 78 104 106 97 81 84 79 97 99 91 89 92 86 105 106 98 90 92 86 100 101 94 91 93 87 104 105 97 101 102 95 98 100 92 109 110 101 88 90 84 93 95 88 81 84 79 85 88 82 101 102 94 86 88 82 82 85 80 83 86 80 92 95 88 88 90 84 81 83 78 83 86 81 87 90 84 84 86 81 87 90 84 96 98 91 106 107 99 97 99 92 89 92 85 104 105 97 101 102 95 85 87 82 98 100 92 81 84 79 22 26 27 22 26 27 22 26 27 22 26 27 22 26 27 22 26 27 22 26 27 22 26 27 22 26 27 22 26 27 22 26 27 22 26 27 22 26 27 22 26 27 22 26 27 22 26 27 22 26 27 22 26 27 22 26 27 22 26 27 22 26 27 22 26 27 22 26 27 22 26 27 22 26 27 22 26 27 22 26 27 22 26 27 22 26 27 22 26 27 22 26 27 22 26 27 22 26 27 22 26 27 22 26 27 22 26 27 22 26 27 22 26 27 22 26 27 22 26 27 22 26 27 22 26 27 22 26 27 22 26 27 22 26 27 22 26 27 22 26 27 22 26 27 22 26 27
22 26 27 22 26 27 22 26 27 71 75 75 87 91 91 74 78 78 22 26 27 86 90 90 79 83 83 76 80 80 81 85 85 22 26 27 72 76 76 88 92 92 74 78 78 87 91 91 70 70 70 64 64 64 77 77 77 79 79 79 74 74 74 73 73 73 68 68 68 79 79 79 71 71 71 66 66 66 68 68 68 69 69 69 68 68 68 64 64 64 65 65 65 115 79 115 76 76 76 30 31 28 30 31 28 30 31 28 30 31 28 30 31 28 30 31 28 30 31 28 30 31 28 30 31 28 30 31 28 30 31 28 30 31 28 30 31 28 30 31 28 30 31 28 30 31 28 30 31 28 30 31 28 30 31 28 30 31 28 30 31 28 30 31 28 30 31 28 30 31 28 30 31 28 30 31 28 30 31 28 30 31 28 30 31 28 30 31 28 30 31 28 30 31 28 30 31 28 30 31 28 30 31 28 30 31 28 30 31 28 30 31 28 30 31 28 30 31 28 30 31 28 30 31 28 30 31 28 30 31 28 30 31 28 30 31 28 30 31 28 30 31 28 30 31 28 30 31 28 30 31 28 30 31 28 30 31 28 30 31 28 30 31 28 30 31 28 30 31 28 30 31 28 30 31 28 30 31 28 30 31 28 30 31 28 30 31 28 30 31 28 30 31 28 30 31 28 30 31 28 30 31 28 30 31 28 30 31 28 30 31 28 30 31 28 30 31 28 30 31 28 30 31 28 30 31 28 30 31 28 75 75 75 77 77 77 62 62 62 107 80 118 76 76 76 75 75 75 65 65 65 67 67 67 78 78 78 72 72 72 79 79 79 68 68 68 78 78 78 75 75 75 62 62 62 22 26 27 22 26 27 22 26 27 22 26 27 22 26 27 22 26 27 22 26 27 22 26 27 22 26 27 82 85 79 104 106 97 94 96 89 109 110 101 93 95 88 99 101 94 103 105 97 88 91 85 110 111 102 96 98 91 85 88 82 105 107 98 101 102 95 100 102 94 22 26 27 22 26 27 22 26 27 93 95 88 99 100 93 102 103 95 99 101 93 88 91 85 22 26 27 22 26 27 22 26 27 22 26 27 104 106 97 106 107 99 105 106 98 99 101 93 87 89 83 88 90 84 96 98 91 90 93 86 100 101 94 86 88 83 92 95 88 100 102 94 84 87 81 80 83 78 86 89 83 107 108 100 104 106 97 109 111 102 101 102 94 92 94 87 104 106 97 100 101 94 97 99 92 88 91 85 106 107 98 105 107 98 105 106 98 82 85 80 101 103 95 107 108 100 103 104 96 92 94 88 107 108 100 92 94 88 109 110 101 98 100 93 94 96 89 94 96 89 86 89 83 106 107 99 82 84 79 110 111 102 104 106 97 101 102 95 95 97 90 101 103 95 104 106 97 22 26 27 22 26 27 22 26 27 22 26 27 22 26 27 22 26 27 22 26 27 22 26 27 22 26 27 22 26 27 22 26 27 22 26 27 22 26 27 22 26 27 22 26 27 22 26 27 22 26 27 22 26 27 22 26 27 22 26 27 22 26 27 22 26 27 22 26 27 22 26 27 22 26 27 22 26 27 22 26 27 22 26 27 22 26 27 22 26 27 22 26 27 22 26 27 22 26 27 22 26 27 22 26 27 22 26 27 22 26 27 22 26 27 22 26 27 22 26 27 22 26 27 22 26 27 22 26 27 22 26 27 22 26 27 22 26 27 22 26 27 22 26 27 22 26 27
22 26 27 22 26 27 22 26 27 88 92 92 72 76 76 78 82 82 22 26 27 70 74 74 89 93 93 72 76 76 86 90 90 22 26 27 86 90 90 76 80 80 73 77 77 86 90 90 74 74 74 66 66 66 111 78 114 73 73 73 72 72 72 78 78 78 67 67 67 70 70 70 75 75 75 101 79 117 117 77 112 98 80 118 73 73 73 60 60 60 72 72 72 60 60 60 105 79 115 220 175 40 220 175 40 220 175 40 220 175 40 220 175 40 220 175 40 220 175 40 30 31 28 30 31 28 30 31 28 30 31 28 30 31 28 30 31 28 220 175 40 220 175 40 220 175 40 220 175 40 220 175 40 220 175 40 30 31 28 30 31 28 30 31 28 30 31 28 30 31 28 30 31 28 30 31 28 220 175 40 220 175 40 220 175 40 220 175 40 220 175 40 220 175 40 30 31 28 30 31 28 30 31 28 30 31 28 30 31 28 30 31 28 30 31 28 220 175 40 220 175 40 220 175 40 220 175 40 220 175 40 220 175 40 30 31 28 30 31 28 30 31 28 30 31 28 30 31 28 30 31 28 220 175 40 220 175 40 220 175 40 220 175 40 220 175 40 220 175 40 220 175 40 30 31 28 30 31 28 30 31 28 30 31 28 30 31 28 30 31 28 220 175 40 220 175 40 220 175 40 220 175 40 220 175 40 220 175 40 220 175 40 30 31 28 30 31 28 30 31 28 30 31 28 30 31 28 30 31 28 65 65 65 77 77 77 76 76 76 75 75 75 118 77 112 72 72 72 73 73 73 73 73 73 64 64 64 77 77 77 73 73 73 72 72 72 116 77 113 73 73 73 78 78 78 22 26 27 22 26 27 22 26 27 22 26 27 22 26 27 22 26 27 22 26 27 22 26 27 22 26 27 102 104 96 96 98 91 102 103 96 87 89 83 106 107 99 100 102 94 98 100 92 85 87 82 102 103 96 107 108 100 101 102 95 100 101 94 80 83 78 109 110 101 22 26 27 22 26 27 22 26 27 95 97 90 97 99 91 107 108 99 98 100 93 86 89 83 22 26 27 22 26 27 22 26 27 22 26 27 86 88 83 101 103 95 108 109 100 90 93 86 90 92 86 98 100 92 97 99 92 101 103 95 83 86 81 90 92 86 93 95 88 100 102 94 102 104 96 86 88 83 95 97 90 107 108 100 90 93 86 110 111 102 87 90 84 80 83 78 110 111 102 81 84 79 81 84 79 83 85 80 103 105 97 96 98 91 107 108 100 96 97 90 91 94 87 83 86 80 94 97 90 89 91 85 94 96 89 81 84 79 82 85 80 100 102 94 97 99 92 103 105 97 92 95 88 101 103 95 82 84 79 107 108 100 110 111 102 106 107 99 108 109 100 101 103 95 100 102 94 22 26 27 22 26 27 22 26 27 22 26 27 22 26 27 22 26 27 22 26 27 22 26 27 22 26 27 22 26 27 22 26 27 22 26 27 22 26 27 22 26 27 22 26 27 22 26 27 22 26 27 22 26 27 22 26 27 22 26 27 22 26 27 22 26 27 22 26 27 22 26 27 22 26 27 22 26 27 22 26 27 22 26 27 22 26 27 22 26 27 22 26 27 22 26 27 22 26 27 22 26 27 22 26 27 22 26 27 22 26 27 22 26 27 22 26 27 22 26 27 22 26 27 22 26 27 22 26 27 22 26 27 22 26 27 22 26 27 22 26 27 22 26 27 22 26 27
22 26 27 22 26 27 22 26 27 91 95 95 72 76 76 69 73 73 22 26 27 84 88 88 78 82 82 74 78 78 85 89 89 22 26 27 90 94 94 72 76 76 84 88 88 76 80 80 74 74 74 91 77 115 64 64 64 59 59 59 75 75 75 64 64 64 60 60 60 59 59 59 72 72 72 70 70 70 71 71 71 59 59 59 75 75 75 57 57 57 68 68 68 76 76 76 61 61 61 220 175 40 220 175 40 220 175 40 220 175 40 220 175 40 220 175 40 220 175 40 30 31 28 30 31 28 30 31 28 30 31 28 30 31 28 30 31 28 220 175 40 220 175 40 220 175 40 220 175 40 220 175 40 220 175 40 30 31 28 30 31 28 30 31 28 30 31 28 30 31 28 30 31 28 30 31 28 220 175 40 220 175 40 220 175 40 220 175 40 220 175 40 220 175 40 30 31 28 30 31 28 30 31 28 30 31 28 30 31 28 30 31 28 30 31 28 220 175 40 220 175 40 220 175 40 220 175 40 220 175 40 220 175 40 30 31 28 30 31 28 30 31 28 30 31 28 30 31 28 30 31 28 220 175 40 220 175 40 220 175 40 220 175 40 220 175 40 220 175 40 220 175 40 30 31 28 30 31 28 30 31 28 30 31 28 30 31 28 30 31 28 220 175 40 220 175 40 220 175 40 220 175 40 220 175 40 220 175 40 220 175 40 30 31 28 30 31 28 30 31 28 30 31 28 30 31 28 30 31 28 71 71 71 72 72 72 67 67 67 60 60 60 74 74 74 61 61 61 76 76 76 66 66 66 74 74 74 66 66 66 68 68 68 58 58 58 60 60 60 74 74 74 74 74 74 22 26 27 22 26 27 22 26 27 22 26 27 22 26 27 22 26 27 22 26 27 22 26 27 22 26 27 95 97 90 83 85 80 95 97 90 109 110 102 85 87 82 89 91 85 109 110 101 102 103 95 110 111 102 82 85 80 85 87 82 96 97 90 110 111 102 81 84 79 22 26 27 22 26 27 22 26 27 104 105 97 106 107 99 101 103 95 104 106 97 86 89 83 22 26 27 22 26 27 22 26 27 22 26 27 82 85 79 99 100 93 102 104 96 99 101 93 83 86 80 89 92 85 91 93 87 81 84 79 92 94 88 83 86 80 85 87 82 99 101 93 89 91 85 90 92 86 85 87 82 107 108 100 105 106 98 82 85 80 81 84 79 81 84 79 100 102 94 100 102 94 82 85 80 86 88 83 92 94 87 87 90 84 105 107 98 103 105 97 97 99 92 100 102 94 82 85 80 109 110 101 99 100 93 102 104 96 93 95 88 93 95 88 92 94 87 85 88 82 88 91 84 99 100 93 103 105 96 98 100 92 84 87 82 89 92 86 109 110 101 86 89 83 98 100 92 22 26 27 22 26 27 22 26 27 22 26 27 22 26 27 22 26 27 22 26 27 22 26 27 22 26 27 22 26 27 22 26 27 22 26 27 22 26 27 22 26 27 22 26 27 22 26 27 22 26 27 22 26 27 22 26 27 22 26 27 22 26 27 22 26 27 22 26 27 22 26 27 22 26 27 22 26 27 22 26 27 22 26 27 22 26 27 22 26 27 22 26 27 22 26 27 22 26 27 22 26 27 22 26 27 22 26 27 22 26 27 22 26 27 22 26 27 22 26 27 22 26 27 22 26 27 22 26 27 22 26 27 22 26 27 22 26 27 22 26 27 22 26 27 22 26 27
22 26 27 22 26 27 22 26 27 69 73 73 77 81 81 92 96 96 22 26 27 74 78 78 70 74 74 79 83 83 92 96 96 22 26 27 81 85 85 87 91 91 92 96 96 85 89 89 54 54 54 61 61 61 63 63 63 69 69 69 71 71 71 61 61 61 59 59 59 57 57 57 57 57 57 57 57 57 65 65 65 63 63 63 112 69 103 107 70 105 63 63 63 71 71 71 63 63 63 220 175 40 220 175 40 220 175 40 220 175 40 220 175 40 220 175 40 220 175 40 30 31 28 30 31 28 30 31 28 30 31 28 30 31 28 30 31 28 220 175 40 220 175 40 220 175 40 220 175 40 220 175 40 220 175 40 30 31 28 30 31 28 30 31 28 30 31 28 30 31 28 30 31 28 30 31 28 220 175 40 220 175 40 220 175 40 220 175 40 220 175 40 220 175 40 30 31 28 30 31 28 30 31 28 30 31 28 30 31 28 30 31 28 30 31 28 220 175 40 220 175 40 220 175 40 220 175 40 220 175 40 220 175 40 30 31 28 30 31 28 30 31 28 30 31 28 30 31 28 30 31 28 220 175 40 220 175 40 220 175 40 220 175 40 220 175 40 220 175 40 220 175 40 30 31 28 30 31 28 30 31 28 30 31 28 30 31 28 30 31 28 220 175 40 220 175 40 220 175 40 220 175 40 220 175 40 220 175 40 220 175 40 30 31 28 30 31 28 30 31 28 30 31 28 30 31 28 30 31 28 66 66 66 70 70 70 60 60 60 62 62 62 65 65 65 62 62 62 71 71 71 71 71 71 63 63 63 61 61 61 72 72 72 71 71 71 63 63 63 65 65 65 68 68 68 22 26 27 22 26 27 22 26 27 22 26 27 22 26 27 22 26 27 22 26 27 22 26 27 22 26 27 102 103 95 109 110 101 93 95 89 89 91 85 89 91 85 80 83 78 81 84 79 97 99 92 87 90 84 96 98 91 89 91 85 80 83 78 103 104 96 109 110 101 22 26 27 22 26 27 22 26 27 95 97 90 95 97 90 108 109 100 89 91 85 86 89 83 22 26 27 22 26 27 22 26 27 22 26 27 100 101 94 99 101 93 84 87 81 94 96 89 86 89 83 105 107 98 83 86 81 92 94 87 87 90 84 82 85 80 106 107 99 87 90 84 89 91 85 103 105 97 100 102 94 90 92 86 84 87 81 86 88 83 85 88 82 105 106 98 99 100 93 94 96 89 86 88 83 98 100 92 91 93 86 84 87 81 100 102 94 100 102 94 108 109 100 88 91 85 94 96 89 100 102 94 107 108 100 103 104 96 89 91 85 97 99 92 103 104 96 82 85 80 99 101 94 101 103 95 96 98 91 107 108 100 104 106 97 106 107 99 87 89 83 105 107 98 90 93 86 22 26 27 22 26 27 22 26 27 22 26 27 22 26 27 22 26 27 22 26 27 22 26 27 22 26 27 22 26 27 22 26 27 22 26 27 22 26 27 22 26 27 22 26 27 22 26 27 22 26 27 22 26 27 22 26 27 22 26 27 22 26 27 22 26 27 22 26 27 22 26 27 22 26 27 22 26 27 22 26 27 22 26 27 22 26 27 22 26 27 22 26 27 22 26 27 22 26 27 22 26 27 22 26 27 22 26 27 22 26 27 22 26 27 22 26 27 22 26 27 22 26 27 22 26 27 22 26 27 22 26 27 22 26 27 22 26 27 22 26 27 22 26 27 22 26 27
22 26 27 22 26 27 22 26 27 69 73 73 75 79 79 71 75 75 22 26 27 78 82 82 69 73 73 73 77 77 71 75 75 22 26 27 88 92 92 83 87 87 82 86 86 84 88 88 65 65 65 54 54 54 50 50 50 56 56 56 49 49 49 55 55 55 59 59 59 61 61 61 66 66 66 63 63 63 67 67 67 98 64 99 64 64 64 59 59 59 63 63 63 66 66 66 54 54 54 220 175 40 220 175 40 220 175 40 220 175 40 220 175 40 220 175 40 220 175 40 30 31 28 30 31 28 30 31 28 30 31 28 30 31 28 30 31 28 220 175 40 220 175 40 220 175 40 220 175 40 220 175 40 220 175 40 30 31 28 30 31 28 30 31 28 30 31 28 30 31 28 30 31 28 30 31 28 220 175 40 220 175 40 220 175 40 220 175 40 220 175 40 220 175 40 30 31 28 30 31 28 30 31 28 30 31 28 30 31 28 30 31 28 30 31 28 220 175 40 220 175 40 220 175 40 220 175 40 220 175 40 220 175 40 30 31 28 30 31 28 30 31 28 30 31 28 30 31 28 30 31 28 220 175 40 220 175 40 220 175 40 220 175 40 220 175 40 220 175 40 220 175 40 30 31 28 30 31 28 30 31 28 30 31 28 30 31 28 30 31 28 220 175 40 220 175 40 220 175 40 220 175 40 220 175 40 220 175 40 220 175 40 30 31 28 30 31 28 30 31 28 30 31 28 30 31 28 30 31 28 64 64 64 63 63 63 50 50 50 52 52 52 59 59 59 66 66 66 68 68 68 61 61 61 52 52 52 52 52 52 62 62 62 49 49 49 85 66 102 63 63 63 56 56 56 22 26 27 22 26 27 22 26 27 22 26 27 22 26 27 22 26 27 22 26 27 22 26 27 22 26 27 88 90 84 93 95 89 88 90 84 101 103 95 92 94 87 100 101 94 81 84 79 81 84 78 96 98 91 85 87 82 94 96 90 100 102 94 97 99 92 84 86 81 22 26 27 22 26 27 22 26 27 97 99 92 84 87 81 98 100 92 106 107 99 92 95 88 22 26 27 22 26 27 22 26 27 22 26 27 104 105 97 84 87 81 87 90 84 102 104 96 99 101 93 108 109 100 104 105 97 84 87 81 102 103 95 84 87 82 86 88 82 92 94 88 80 83 78 95 97 90 81 84 79 100 102 94 95 97 90 92 94 88 97 99 91 98 99 92 103 104 96 104 106 98 109 110 101 95 97 90 108 109 101 87 90 84 87 89 83 98 100 92 84 87 81 94 97 90 102 104 96 100 101 94 87 90 84 83 86 80 92 94 87 83 86 80 102 104 96 105 106 98 106 108 99 103 104 96 84 87 82 101 102 95 90 93 86 97 98 91 105 107 98 93 95 88 92 94 87 22 26 27 22 26 27 22 26 27 22 26 27 22 26 27 22 26 27 22 26 27 22 26 27 22 26 27 22 26 27 22 26 27 22 26 27 22 26 27 22 26 27 22 26 27 22 26 27 22 26 27 22 26 27 22 26 27 22 26 27 22 26 27 22 26 27 22 26 27 22 26 27 22 26 27 22 26 27 22 26 27 22 26 27 22 26 27 22 26 27 22 26 27 22 26 27 22 26 27 22 26 27 22 26 27 22 26 27 22 26 27 22 26 27 22 26 27 22 26 27 22 26 27 22 26 27 22 26 27 22 26 27 22 26 27 22 26 27 22 26 27 22 26 27 22 26 27
22 26 27 22 26 27 22 26 27 93 97 97 81 85 85 78 82 82 22 26 27 78 82 82 79 83 83 91 95 95 77 81 81 22 26 27 80 84 84 87 91 91 76 80 80 85 89 89 47 47 47 49 49 49 62 62 62 46 46 46 47 47 47 47 47 47 57 57 57 57 57 57 63 63 63 51 51 51 47 47 47 62 62 62 45 45 45 60 60 60 55 55 55 56 56 56 50 50 50 30 31 28 30 31 28 30 31 28 30 31 28 30 31 28 30 31 28 30 31 28 30 31 28 30 31 28 30 31 28 30 31 28 30 31 28 30 31 28 30 31 28 30 31 28 30 31 28 30 31 28 30 31 28 30 31 28 30 31 28 30 31 28 30 31 28 30 31 28 30 31 28 30 31 28 30 31 28 30 31 28 30 31 28 30 31 28 30 31 28 30 31 28 30 31 28 30 31 28 30 31 28 30 31 28 30 31 28 30 31 28 30 31 28 30 31 28 30 31 28 30 31 28 30 31 28 30 31 28 30 31 28 30 31 28 30 31 28 30 31 28 30 31 28 30 31 28 30 31 28 30 31 28 30 31 28 30 31 28 30 31 28 30 31 28 30 31 28 30 31 28 30 31 28 30 31 28 30 31 28 30 31 28 30 31 28 30 31 28 30 31 28 30 31 28 30 31 28 30 31 28 30 31 28 30 31 28 30 31 28 30 31 28 30 31 28 30 31 28 30 31 28 30 31 28 30 31 28 30 31 28 57 57 57 63 63 63 61 61 61 61 61 61 55 55 55 52 52 52 51 51 51 58 58 58 49 49 49 62 62 62 63 63 63 54 54 54 58 58 58 54 54 54 63 63 63 22 26 27 22 26 27 22 26 27 22 26 27 22 26 27 22 26 27 22 26 27 22 26 27 22 26 27 81 84 79 87 90 84 89 92 85 99 101 93 88 91 85 97 99 92 93 95 88 100 101 94 83 86 80 107 108 99 81 84 79 94 96 89 109 110 101 84 87 82 22 26 27 22 26 27 22 26 27 99 101 93 104 105 97 109 110 101 99 101 93 105 106 98 22 26 27 22 26 27 22 26 27 22 26 27 93 95 88 87 89 83 101 103 95 99 101 93 108 109 100 91 94 87 99 100 93 87 90 84 94 96 89 81 84 79 106 107 99 81 84 79 86 89 83 106 107 99 106 108 99 103 104 96 97 98 91 84 87 81 105 107 98 82 85 79 83 85 80 103 104 96 104 105 97 88 90 84 80 83 78 102 104 96 88 90 84 99 101 94 93 95 88 86 89 83 97 99 92 95 97 90 87 90 84 85 88 82 100 102 94 96 98 91 91 93 87 108 110 101 106 107 99 110 111 102 103 104 96 105 106 98 87 90 84 88 90 84 98 100 92 103 105 97 106 108 99 22 26 27 22 26 27 22 26 27 22 26 27 22 26 27 22 26 27 22 26 27 22 26 27 22 26 27 22 26 27 22 26 27 22 26 27 22 26 27 22 26 27 22 26 27 22 26 27 22 26 27 22 26 27 22 26 27 22 26 27 22 26 27 22 26 27 22 26 27 22 26 27 22 26 27 22 26 27 22 26 27 22 26 27 22 26 27 22 26 27 22 26 27 22 26 27 22 26 27 22 26 27 22 26 27 22 26 27 22 26 27 22 26 27 22 26 27 22 26 27 22 26 27 22 26 27 22 26 27 22 26 27 22 26 27 22 26 27 22 26 27 22 26 27 22 26 27
22 26 27 22 26 27 22 26 27 76 80 80 88 92 92 76 80 80 22 26 27 84 88 88 86 90 90 75 79 79 85 89 89 22 26 27 89 93 93 82 86 86 79 83 83 80 84 84 50 50 50 53 53 53 55 55 55 59 59 59 50 50 50 49 49 49 49 49 49 50 50 50 49 49 49 58 58 58 49 49 49 60 60 60 56 56 56 59 59 59 55 55 55 61 61 61 57 57 57 30 31 28 30 31 28 30 31 28 30 31 28 30 31 28 30 31 28 30 31 28 30 31 28 30 31 28 30 31 28 30 31 28 30 31 28 30 31 28 30 31 28 30 31 28 30 31 28 30 31 28 30 31 28 30 31 28 30 31 28 30 31 28 30 31 28 30 31 28 30 31 28 30 31 28 30 31 28 30 31 28 30 31 28 30 31 28 30 31 28 30 31 28 30 31 28 30 31 28 30 31 28 30 31 28 30 31 28 30 31 28 30 31 28 30 31 28 30 31 28 30 31 28 30 31 28 30 31 28 30 31 28 30 31 28 30 31 28 30 31 28 30 31 28 30 31 28 30 31 28 30 31 28 30 31 28 30 31 28 30 31 28 30 31 28 30 31 28 30 31 28 30 31 28 30 31 28 30 31 28 30 31 28 30 31 28 30 31 28 30 31 28 30 31 28 30 31 28 30 31 28 30 31 28 30 31 28 30 31 28 30 31 28 30 31 28 30 31 28 30 31 28 30 31 28 30 31 28 30 31 28 50 50 50 60 60 60 61 61 61 59 59 59 58 58 58 56 56 56 54 54 54 52 52 52 54 54 54 46 46 46 45 45 45 60 60 60 62 62 62 69 60 97 52 52 52 22 26 27 22 26 27 22 26 27 22 26 27 22 26 27 22 26 27 22 26 27 22 26 27 22 26 27 89 91 85 89 91 85 99 100 93 81 84 79 89 91 85 109 110 101 80 83 78 87 89 83 103 104 96 95 97 90 103 105 97 81 83 78 99 101 93 98 100 93 22 26 27 22 26 27 22 26 27 88 91 85 103 105 97 92 94 88 87 89 83 108 110 101 22 26 27 22 26 27 22 26 27 22 26 27 96 98 91 84 87 81 84 86 81 90 92 86 85 87 82 85 88 82 109 110 101 91 93 87 105 106 98 89 91 85 93 95 88 81 84 79 97 99 92 102 103 96 107 109 100 101 103 95 97 98 91 100 101 94 110 111 102 100 102 94 97 99 92 93 95 88 96 98 91 101 103 95 87 89 83 84 87 81 104 105 97 93 95 89 85 88 82 86 88 82 89 92 86 82 85 79 91 93 87 98 100 92 86 88 83 91 94 87 97 99 92 103 104 96 103 105 97 96 98 91 98 100 92 99 101 94 84 87 81 94 96 90 88 91 85 100 101 94 83 86 80 22 26 27 22 26 27 22 26 27 22 26 27 22 26 27 22 26 27 22 26 27 22 26 27 22 26 27 22 26 27 22 26 27 22 26 27 22 26 27 22 26 27 22 26 27 22 26 27 22 26 27 22 26 27 22 26 27 22 26 27 22 26 27 22 26 27 22 26 27 22 26 27 22 26 27 22 26 27 22 26 27 22 26 27 22 26 27 22 26 27 22 26 27 22 26 27 22 26 27 22 26 27 22 26 27 22 26 27 22 26 27 22 26 27 22 26 27 22 26 27 22 26 27 22 26 27 22 26 27 22 26 27 22 26 27 22 26 27 22 26 27 22 26 27 22 26 27
22 26 27 22 26 27 22 26 27 76 80 80 75 79 79 74 78 78 22 26 27 77 81 81 93 97 97 80 84 84 69 73 73 22 26 27 71 75 75 71 75 75 82 86 86 87 91 91 56 56 56 100 59 93 59 59 59 51 51 51 49 49 49 47 47 47 62 62 62 63 63 63 50 50 50 63 63 63 54 54 54 62 62 62 63 63 63 59 59 59 72 63 100 62 62 62 64 64 64 26 26 24 26 26 24 26 26 24 26 26 24 216 184 48 213 177 48 215 183 48 211 179 48 212 180 48 210 182 48 210 180 48 205 184 48 211 181 48 16 18 18 16 18 18 16 18 18 207 176 48 205 176 48 205 177 48 208 180 48 208 180 48 216 176 48 209 176 48 209 184 48 213 179 48 16 18 18 16 18 18 16 18 18 209 181 48 210 176 48 208 185 48 210 180 48 216 176 48 206 185 48 205 181 48 16 18 18 16 18 18 16 18 18 212 184 48 208 183 48 209 176 48 212 181 48 215 181 48 206 184 48 209 179 48 16 18 18 16 18 18 16 18 18 208 177 48 214 181 48 211 180 48 213 179 48 207 185 48 207 179 48 208 181 48 212 180 48 216 182 48 206 183 48 216 177 48 216 180 48 211 181 48 216 176 48 205 185 48 206 180 48 208 180 48 213 182 48 207 181 48 214 184 48 215 176 48 213 176 48 215 184 48 209 180 48 208 184 48 26 26 24 26 26 24 26 26 24 26 26 24 64 64 64 54 54 54 48 48 48 60 60 60 60 60 60 46 46 46 50 50 50 49 49 49 63 63 63 63 63 63 47 47 47 61 61 61 59 59 59 46 46 46 85 61 97 22 26 27 22 26 27 22 26 27 22 26 27 22 26 27 22 26 27 22 26 27 22 26 27 22 26 27 91 93 87 96 98 90 87 89 83 82 84 79 102 103 96 93 95 88 83 86 81 90 93 86 88 91 85 90 92 86 83 85 80 84 86 81 89 91 85 103 105 96 22 26 27 22 26 27 22 26 27 84 87 81 82 85 79 94 96 89 99 100 93 81 84 79 22 26 27 22 26 27 22 26 27 22 26 27 105 106 98 109 110 101 109 110 101 96 98 91 103 104 96 83 86 80 103 105 97 105 107 98 84 87 81 98 100 92 102 104 96 88 91 84 88 90 84 89 91 85 89 91 85 99 100 93 106 107 99 96 98 91 80 83 78 108 109 101 93 95 88 84 86 81 82 85 80 106 107 99 103 104 96 94 96 89 103 105 96 108 109 100 87 90 84 98 100 93 100 102 94 92 94 88 85 88 82 82 85 80 91 93 87 106 108 99 83 85 80 98 100 92 94 96 89 94 96 89 87 90 84 108 109 100 92 95 88 110 111 102 105 107 98 86 89 83 80 83 78 22 26 27 22 26 27 22 26 27 22 26 27 22 26 27 22 26 27 22 26 27 22 26 27 22 26 27 22 26 27 22 26 27 22 26 27 22 26 27 22 26 27 22 26 27 22 26 27 22 26 27 22 26 27 22 26 27 22 26 27 22 26 27 22 26 27 22 26 27 22 26 27 22 26 27 22 26 27 22 26 27 22 26 27 22 26 27 22 26 27 22 26 27 22 26 27 22 26 27 22 26 27 22 26 27 22 26 27 22 26 27 22 26 27 22 26 27 22 26 27 22 26 27 22 26 27 22 26 27 22 26 27 22 26 27 22 26 27 22 26 27 22 26 27 22 26 27
22 26 27 22 26 27 22 26 27 74 78 78 70 74 74 90 94 94 22 26 27 79 83 83 88 92 92 91 95 95 81 85 85 22 26 27 86 90 90 86 90 90 88 92 92 91 95 95 62 62 62 65 65 65 66 66 66 54 54 54 63 63 63 68 68 68 65 65 65 64 64 64 51 51 51 63 63 63 58 58 58 61 61 61 63 63 63 54 54 54 64 64 64 53 53 53 66 66 66 26 26 24 26 26 24 26 26 24 26 26 24 213 176 48 210 184 48 214 183 48 211 182 48 213 184 48 213 176 48 212 183 48 216 184 48 214 184 48 16 18 18 16 18 18 16 18 18 214 183 48 216 183 48 214 176 48 207 178 48 214 180 48 216 176 48 215 185 48 211 180 48 205 179 48 16 18 18 16 18 18 16 18 18 214 176 48 207 176 48 214 181 48 211 180 48 214 180 48 211 177 48 205 182 48 16 18 18 16 18 18 16 18 18 207 179 48 211 184 48 206 176 48 212 178 48 208 177 48 207 181 48 208 185 48 16 18 18 16 18 18 16 18 18 211 184 48 216 176 48 213 185 48 216 185 48 207 178 48 208 183 48 206 185 48 208 182 48 211 176 48 213 178 48 212 178 48 205 183 48 214 183 48 205 183 48 212 180 48 205 179 48 207 179 48 209 178 48 205 185 48 216 183 48 207 179 48 210 177 48 210 179 48 205 176 48 209 180 48 26 26 24 26 26 24 26 26 24 26 26 24 61 61 61 57 57 57 56 56 56 51 51 51 63 63 63 53 53 53 67 67 67 68 68 68 67 67 67 56 56 56 60 60 60 50 50 50 51 51 51 68 68 68 62 62 62 22 26 27 22 26 27 22 26 27 22 26 27 22 26 27 22 26 27 22 26 27 22 26 27 22 26 27 89 91 85 102 104 96 95 97 90 88 90 84 101 103 95 95 97 90 85 88 82 109 110 101 102 103 95 80 83 78 95 97 90 108 109 101 99 101 93 92 94 87 22 26 27 22 26 27 22 26 27 93 95 88 95 97 90 92 94 87 107 108 100 98 100 92 22 26 27 22 26 27 22 26 27 22 26 27 99 101 93 85 87 82 80 83 78 102 103 95 80 83 78 96 98 91 109 110 101 99 100 93 89 92 86 81 84 79 106 107 99 91 93 87 86 89 83 86 89 83 95 97 90 99 101 93 108 109 100 99 100 93 96 98 91 93 95 89 108 109 101 89 92 86 107 108 99 109 110 101 81 84 79 106 107 99 84 87 81 87 89 83 106 107 98 92 95 88 103 104 96 109 110 101 106 107 98 90 93 86 92 94 87 89 91 85 104 105 97 106 107 99 103 105 97 90 92 86 91 93 86 86 88 82 88 90 84 103 105 96 100 102 94 97 99 92 90 92 86 22 26 27 22 26 27 22 26 27 22 26 27 22 26 27 22 26 27 22 26 27 22 26 27 22 26 27 22 26 27 22 26 27 22 26 27 22 26 27 22 26 27 22 26 27 22 26 27 22 26 27 22 26 27 22 26 27 22 26 27 22 26 27 22 26 27 22 26 27 22 26 27 22 26 27 22 26 27 22 26 27 22 26 27 22 26 27 22 26 27 22 26 27 22 26 27 22 26 27 22 26 27 22 26 27 22 26 27 22 26 27 22 26 27 22 26 27 22 26 27 22 26 27 22 26 27 22 26 27 22 26 27 22 26 27 22 26 27 22 26 27 22 26 27 22 26 27
22 26 27 22 26 27 22 26 27 72 76 76 81 85 85 70 74 74 22 26 27 90 94 94 88 92 92 78 82 82 86 90 90 22 26 27 71 75 75 91 95 95 76 80 80 79 83 83 70 70 70 62 62 62 61 61 61 61 61 61 62 62 62 57 57 57 66 66 66 71 71 71 62 62 62 65 65 65 63 63 63 72 72 72 69 69 69 63 63 63 61 61 61 71 71 71 62 62 62 26 26 24 26 26 24 26 26 24 26 26 24 205 184 48 211 177 48 213 177 48 215 183 48 207 184 48 214 184 48 213 181 48 212 181 48 206 179 48 16 18 18 16 18 18 16 18 18 207 176 48 214 182 48 206 183 48 208 180 48 212 183 48 210 183 48 215 180 48 210 178 48 211 185 48 16 18 18 16 18 18 16 18 18 216 180 48 207 180 48 205 181 48 208 181 48 212 183 48 216 177 48 216 183 48 16 18 18 16 18 18 16 18 18 211 179 48 210 180 48 215 183 48 215 180 48 205 178 48 207 178 48 207 177 48 16 18 18 16 18 18 16 18 18 205 183 48 207 183 48 206 181 48 214 180 48 207 185 48 215 183 48 210 185 48 206 179 48 205 184 48 212 179 48 206 181 48 209 184 48 215 181 48 216 179 48 207 177 48 210 176 48 210 181 48 213 177 48 213 177 48 207 185 48 216 184 48 214 180 48 215 178 48 210 179 48 212 182 48 26 26 24 26 26 24 26 26 24 26 26 24 69 69 69 56 56 56 61 61 61 67 67 67 66 66 66 72 72 72 63 63 63 72 72 72 93 73 110 66 66 66 58 58 58 56 56 56 89 73 111 55 55 55 69 69 69 22 26 27 22 26 27 22 26 27 22 26 27 22 26 27 22 26 27 22 26 27 22 26 27 22 26 27 89 91 85 94 96 89 102 103 95 92 95 88 101 102 95 106 107 99 98 99 92 104 106 97 109 110 102 81 84 79 81 84 79 93 95 88 98 100 92 108 109 100 22 26 27 22 26 27 22 26 27 88 90 84 90 93 86 87 90 84 96 98 91 93 95 89 22 26 27 22 26 27 22 26 27 22 26 27 102 104 96 83 86 80 92 94 87 92 95 88 100 102 94 83 86 80 105 106 98 84 87 81 84 86 81 100 101 94 93 95 88 104 105 97 109 110 101 87 90 84 104 105 97 90 93 86 87 90 84 96 98 91 103 105 97 98 100 92 102 103 95 85 87 82 95 97 90 100 101 94 108 109 101 91 93 87 104 105 97 87 89 83 97 98 91 89 91 85 84 86 81 100 102 94 84 87 81 84 87 82 84 87 81 84 87 81 91 93 87 109 110 101 106 107 99 92 94 88 97 99 92 94 96 89 89 92 86 96 98 91 90 92 86 107 108 100 85 88 82 22 26 27 22 26 27 22 26 27 22 26 27 22 26 27 22 26 27 22 26 27 22 26 27 22 26 27 22 26 27 22 26 27 22 26 27 22 26 27 22 26 27 22 26 27 22 26 27 22 26 27 22 26 27 22 26 27 22 26 27 22 26 27 22 26 27 22 26 27 22 26 27 22 26 27 22 26 27 22 26 27 22 26 27 22 26 27 22 26 27 22 26 27 22 26 27 22 26 27 22 26 27 22 26 27 22 26 27 22 26 27 22 26 27 22 26 27 22 26 27 22 26 27 22 26 27 22 26 27 22 26 27 22 26 27 22 26 27 22 26 27 22 26 27 22 26 27
22 26 27 22 26 27 22 26 27 72 76 76 83 87 87 75 79 79 22 26 27 73 77 77 73 77 77 77 81 81 90 94 94 22 26 27 85 89 89 86 90 90 92 96 96 81 85 85 60 60 60 73 73 73 72 72 72 60 60 60 76 76 76 63 63 63 66 66 66 63 63 63 68 68 68 66 66 66 61 61 61 76 76 76 69 69 69 71 71 71 75 75 75 76 76 76 62 62 62 26 26 24 26 26 24 26 26 24 26 26 24 205 181 48 211 181 48 208 180 48 215 178 48 213 181 48 206 184 48 205 181 48 210 184 48 216 185 48 16 18 18 16 18 18 16 18 18 211 177 48 206 182 48 210 176 48 213 181 48 208 180 48 216 181 48 209 180 48 205 176 48 208 179 48 16 18 18 16 18 18 16 18 18 216 184 48 208 183 48 213 184 48 214 185 48 205 177 48 216 178 48 211 176 48 16 18 18 16 18 18 16 18 18 213 178 48 214 180 48 207 179 48 212 182 48 209 177 48 210 178 48 208 184 48 16 18 18 16 18 18 16 18 18 205 181 48 209 181 48 214 176 48 206 185 48 209 183 48 212 181 48 213 182 48 205 179 48 216 178 48 210 184 48 209 181 48 207 177 48 205 178 48 215 177 48 213 180 48 212 177 48 207 183 48 205 176 48 206 183 48 215 185 48 214 183 48 206 176 48 210 179 48 215 183 48 214 183 48 26 26 24 26 26 24 26 26 24 26 26 24 64 64 64 72 72 72 70 70 70 62 62 62 64 64 64 62 62 62 75 75 75 71 71 71 60 60 60 73 73 73 69 69 69 58 58 58 64 64 64 64 64 64 72 72 72 22 26 27 22 26 27 22 26 27 22 26 27 22 26 27 22 26 27 22 26 27 22 26 27 22 26 27 87 89 84 98 100 92 100 101 94 91 94 87 96 98 91 100 101 94 109 110 101 109 110 101 110 111 102 107 108 99 106 107 99 102 103 95 97 99 92 109 110 101 22 26 27 22 26 27 22 26 27 94 96 89 85 87 82 100 102 94 107 108 100 104 106 97 22 26 27 22 26 27 22 26 27 22 26 27 103 105 97 98 100 93 101 102 95 87 89 83 109 110 101 82 84 79 104 106 97 86 88 82 89 91 85 104 105 97 92 94 88 81 84 79 80 83 78 87 90 84 102 104 96 83 85 80 101 103 95 97 99 92 110 111 102 95 97 90 101 103 95 83 86 80 81 84 79 90 92 86 99 100 93 109 110 101 107 108 99 82 85 80 81 84 79 99 101 94 96 98 91 93 96 89 101 103 95 90 92 86 85 87 82 92 94 88 85 88 82 104 106 98 106 107 99 91 93 87 104 106 97 84 87 81 86 89 83 82 85 80 87 89 83 101 103 95 92 95 88 22 26 27 22 26 27 22 26 27 22 26 27 22 26 27 22 26 27 22 26 27 22 26 27 22 26 27 22 26 27 22 26 27 22 26 27 22 26 27 22 26 27 22 26 27 22 26 27 22 26 27 22 26 27 22 26 27 22 26 27 22 26 27 22 26 27 22 26 27 22 26 27 22 26 27 22 26 27 22 26 27 22 26 27 22 26 27 22 26 27 22 26 27 22 26 27 22 26 27 22 26 27 22 26 27 22 26 27 22 26 27 22 26 27 22 26 27 22 26 27 22 26 27 22 26 27 22 26 27 22 26 27 22 26 27 22 26 27 22 26 27 22 26 27 22 26 27
22 26 27 22 26 27 22 26 27 84 88 88 91 95 95 92 96 96 22 26 27 93 97 97 86 90 90 89 93 93 88 92 92 22 26 27 74 78 78 87 91 91 77 81 81 77 81 81 61 61 61 72 72 72 95 80 119 77 77 77 69 69 69 113 78 114 74 74 74 74 74 74 68 68 68 103 79 117 75 75 75 73 73 73 66 66 66 66 66 66 66 66 66 67 67 67 64 64 64 26 26 24 26 26 24 26 26 24 26 26 24 211 181 48 212 176 48 215 180 48 215 181 48 214 185 48 208 180 48 209 181 48 210 183 48 211 178 48 16 18 18 16 18 18 16 18 18 214 183 48 215 176 48 207 185 48 206 178 48 208 182 48 210 179 48 216 185 48 212 176 48 214 185 48 16 18 18 16 18 18 16 18 18 216 180 48 211 180 48 210 185 48 207 177 48 213 176 48 215 181 48 212 181 48 16 18 18 16 18 18 16 18 18 205 181 48 207 178 48 207 177 48 211 184 48 206 185 48 209 183 48 214 177 48 16 18 18 16 18 18 16 18 18 213 180 48 207 184 48 210 179 48 214 183 48 214 180 48 206 177 48 208 177 48 205 177 48 206 185 48 207 180 48 205 179 48 213 179 48 210 177 48 205 183 48 215 176 48 213 184 48 205 180 48 215 184 48 206 176 48 207 180 48 210 176 48 207 177 48 205 182 48 213 180 48 209 177 48 26 26 24 26 26 24 26 26 24 26 26 24 74 74 74 65 65 65 61 61 61 74 74 74 64 64 64 78 78 78 72 72 72 73 73 73 74 74 74 73 73 73 61 61 61 67 67 67 105 79 116 68 68 68 73 73 73 22 26 27 22 26 27 22 26 27 22 26 27 22 26 27 22 26 27 22 26 27 22 26 27 22 26 27 87 90 84 84 87 81 107 109 100 105 106 98 106 108 99 106 107 99 89 92 85 105 106 98 81 84 79 108 109 101 94 96 89 90 92 86 96 98 91 99 101 94 22 26 27 22 26 27 22 26 27 91 93 86 94 96 90 95 97 90 82 84 79 96 97 90 22 26 27 22 26 27 22 26 27 22 26 27 89 91 85 82 85 80 101 102 95 82 85 79 96 98 91 107 108 99 107 108 100 109 110 101 102 103 96 107 109 100 87 89 83 110 111 102 105 107 98 97 99 91 93 95 88 108 109 101 84 86 81 100 102 94 108 109 100 103 105 97 102 103 95 93 95 88 102 104 96 105 106 98 91 93 87 93 95 88 97 99 92 109 110 101 87 89 83 100 102 94 84 87 81 101 102 95 92 94 88 102 103 95 85 88 82 91 94 87 80 83 78 82 85 80 87 89 83 104 105 97 91 93 87 108 109 100 88 90 84 96 98 91 100 102 94 99 100 93 98 100 93 22 26 27 22 26 27 22 26 27 22 26 27 22 26 27 22 26 27 22 26 27 22 26 27 22 26 27 22 26 27 22 26 27 22 26 27 22 26 27 22 26 27 22 26 27 22 26 27 22 26 27 22 26 27 22 26 27 22 26 27 22 26 27 22 26 27 22 26 27 22 26 27 22 26 27 22 26 27 22 26 27 22 26 27 22 26 27 22 26 27 22 26 27 22 26 27 22 26 27 22 26 27 22 26 27 22 26 27 22 26 27 22 26 27 22 26 27 22 26 27 22 26 27 22 26 27 22 26 27 22 26 27 22 26 27 22 26 27 22 26 27 22 26 27 22 26 27
22 26 27 22 26 27 22 26 27 86 90 90 81 85 85 73 77 77 22 26 27 89 93 93 86 90 90 86 90 90 80 84 84 22 26 27 73 77 77 86 90 90 78 82 82 79 83 83 77 77 77 95 82 121 65 65 65 72 72 72 79 79 79 77 77 77 75 75 75 68 68 68 74 74 74 68 68 68 74 74 74 75 75 75 78 78 78 76 76 76 75 75 75 69 69 69 73 73 73 26 26 24 26 26 24 26 26 24 26 26 24 213 184 48 213 180 48 209 179 48 214 177 48 213 178 48 214 180 48 214 176 48 207 180 48 211 179 48 16 18 18 16 18 18 16 18 18 205 177 48 210 182 48 215 179 48 215 179 48 211 178 48 207 177 48 213 183 48 216 183 48 214 180 48 16 18 18 16 18 18 16 18 18 209 177 48 206 185 48 208 184 48 215 179 48 213 176 48 211 176 48 210 181 48 16 18 18 16 18 18 16 18 18 214 180 48 211 178 48 215 180 48 213 177 48 212 179 48 207 180 48 212 183 48 16 18 18 16 18 18 16 18 18 216 185 48 216 179 48 209 177 48 214 183 48 210 182 48 209 182 48 215 182 48 206 180 48 206 182 48 206 184 48 206 182 48 208 183 48 205 181 48 208 176 48 210 183 48 213 181 48 206 185 48 215 180 48 215 182 48 212 177 48 205 181 48 211 183 48 212 185 48 213 184 48 210 181 48 26 26 24 26 26 24 26 26 24 26 26 24 63 63 63 78 78 78 103 81 119 78 78 78 79 79 79 79 79 79 66 66 66 75 75 75 72 72 72 63 63 63 95 82 121 77 77 77 117 80 115 71 71 71 66 66 66 22 26 27 22 26 27 22 26 27 22 26 27 22 26 27 22 26 27 22 26 27 22 26 27 22 26 27 100 101 94 97 99 92 95 97 90 100 102 94 92 95 88 95 97 90 101 102 95 103 105 97 108 109 100 89 92 85 100 102 94 109 110 101 83 85 80 85 88 82 22 26 27 22 26 27 22 26 27 87 90 84 88 91 85 80 83 78 93 95 88 83 86 80 22 26 27 22 26 27 22 26 27 22 26 27 97 99 92 84 86 81 89 92 85 99 100 93 97 99 92 83 86 80 106 107 99 82 85 80 102 103 95 90 92 86 84 87 81 110 111 102 100 102 94 110 111 102 83 86 81 98 99 92 108 109 100 86 89 83 85 87 82 107 108 100 82 85 80 99 101 93 97 99 91 106 108 99 82 85 80 95 97 90 99 100 93 106 107 99 109 110 101 95 97 90 94 96 89 102 104 96 83 86 81 81 84 79 105 106 98 109 110 101 96 98 91 103 104 96 97 99 92 82 85 79 88 90 84 90 93 86 103 105 97 84 86 81 92 95 88 96 97 90 107 108 99 22 26 27 22 26 27 22 26 27 22 26 27 22 26 27 22 26 27 22 26 27 22 26 27 22 26 27 22 26 27 22 26 27 22 26 27 22 26 27 22 26 27 22 26 27 22 26 27 22 26 27 22 26 27 22 26 27 22 26 27 22 26 27 22 26 27 22 26 27 22 26 27 22 26 27 22 26 27 22 26 27 22 26 27 22 26 27 22 26 27 22 26 27 22 26 27 22 26 27 22 26 27 22 26 27 22 26 27 22 26 27 22 26 27 22 26 27 22 26 27 22 26 27 22 26 27 22 26 27 22 26 27 22 26 27 22 26 27 22 26 27 22 26 27 22 26 27
22 26 27 22 26 27 22 26 27 87 91 91 86 90 90 75 79 79 22 26 27 80 84 84 72 76 76 70 74 74 76 80 80 22 26 27 75 79 79 89 93 93 83 87 87 85 89 89 66 66 66 64 64 64 63 63 63 75 75 75 63 63 63 66 66 66 72 72 72 66 66 66 69 69 69 71 71 71 107 84 121 70 70 70 63 63 63 77 77 77 65 65 65 65 65 65 80 80 80 26 26 24 26 26 24 26 26 24 26 26 24 212 179 48 206 179 48 209 181 48 211 181 48 216 185 48 213 184 48 212 182 48 212 176 48 216 179 48 16 18 18 16 18 18 16 18 18 211 178 48 209 178 48 214 183 48 213 183 48 213 181 48 216 177 48 207 178 48 213 182 48 216 185 48 16 18 18 16 18 18 16 18 18 215 176 48 213 177 48 212 176 48 215 183 48 214 181 48 213 178 48 209 180 48 16 18 18 16 18 18 16 18 18 207 179 48 209 176 48 207 182 48 208 183 48 207 183 48 216 180 48 212 182 48 16 18 18 16 18 18 16 18 18 210 176 48 212 184 48 213 183 48 216 182 48 215 179 48 210 184 48 215 180 48 215 178 48 216 178 48 209 180 48 215 176 48 211 185 48 216 179 48 209 180 48 209 176 48 214 184 48 207 185 48 206 184 48 212 185 48 211 185 48 209 179 48 210 179 48 215 180 48 215 182 48 206 183 48 26 26 24 26 26 24 26 26 24 26 26 24 75 75 75 65 65 65 77 77 77 63 63 63 71 71 71 68 68 68 75 75 75 114 83 120 63 63 63 81 81 81 63 63 63 80 80 80 64 64 64 80 80 80 79 79 79 22 26 27 22 26 27 22 26 27 22 26 27 22 26 27 22 26 27 22 26 27 22 26 27 22 26 27 87 90 84 84 87 81 97 99 92 99 101 93 96 98 91 95 97 90 92 94 87 109 110 101 85 88 82 105 106 98 94 96 89 81 84 79 104 105 97 80 83 78 22 26 27 22 26 27 22 26 27 100 102 94 90 92 86 81 84 79 90 92 86 91 94 87 22 26 27 22 26 27 22 26 27 22 26 27 87 89 83 85 87 82 101 102 95 109 110 101 105 106 98 109 110 101 88 90 84 97 99 91 104 105 97 102 103 95 88 91 85 98 99 92 88 90 84 94 96 89 96 97 90 81 84 79 92 94 88 103 104 96 101 103 95 87 89 83 88 90 84 86 89 83 100 102 94 104 106 97 86 88 82 94 96 89 105 107 98 80 83 78 101 102 95 104 105 97 103 105 97 83 86 80 85 88 82 85 88 82 107 109 100 85 87 82 108 109 100 99 101 94 94 96 89 90 93 86 82 85 80 98 100 92 101 102 95 81 84 79 103 105 96 94 96 89 99 101 93 22 26 27 22 26 27 22 26 27 22 26 27 22 26 27 22 26 27 22 26 27 22 26 27 22 26 27 22 26 27 22 26 27 22 26 27 22 26 27 22 26 27 22 26 27 22 26 27 22 26 27 22 26 27 22 26 27 22 26 27 22 26 27 22 26 27 22 26 27 22 26 27 22 26 27 22 26 27 22 26 27 22 26 27 22 26 27 22 26 27 22 26 27 22 26 27 22 26 27 22 26 27 22 26 27 22 26 27 22 26 27 22 26 27 22 26 27 22 26 27 22 26 27 22 26 27 22 26 27 22 26 27 22 26 27 22 26 27 22 26 27 22 26 27 22 26 27
22 26 27 22 26 27 22 26 27 75 79 79 71 75 75 79 83 83 22 26 27 88 92 92 74 78 78 72 76 76 77 81 81 22 26 27 70 74 74 79 83 83 78 82 82 92 96 96 78 78 78 69 69 69 72 72 72 119 86 123 83 83 83 72 72 72 73 73 73 82 82 82 80 80 80 79 79 79 78 78 78 68 68 68 83 83 83 80 80 80 82 82 82 74 74 74 74 74 74 26 26 24 26 26 24 26 26 24 26 26 24 209 179 48 213 180 48 215 182 48 206 177 48 205 179 48 211 177 48 214 184 48 208 183 48 207 177 48 16 18 18 16 18 18 16 18 18 206 176 48 205 181 48 213 177 48 209 185 48 206 177 48 208 182 48 213 182 48 211 181 48 208 185 48 16 18 18 16 18 18 16 18 18 216 184 48 205 184 48 215 180 48 215 184 48 211 185 48 208 176 48 208 180 48 16 18 18 16 18 18 16 18 18 214 176 48 213 179 48 214 180 48 211 184 48 206 176 48 207 179 48 210 185 48 16 18 18 16 18 18 16 18 18 206 179 48 208 182 48 209 180 48 213 185 48 205 177 48 208 177 48 209 177 48 215 180 48 206 180 48 205 183 48 206 184 48 213 184 48 216 176 48 211 185 48 216 185 48 215 180 48 214 177 48 215 178 48 205 178 48 205 185 48 209 176 48 207 177 48 210 179 48 210 184 48 212 179 48 26 26 24 26 26 24 26 26 24 26 26 24 66 66 66 82 82 82 83 83 83 75 75 75 84 84 84 75 75 75 73 73 73 110 87 126 81 81 81 104 88 128 83 83 83 83 83 83 68 68 68 72 72 72 82 82 82 22 26 27 22 26 27 22 26 27 22 26 27 22 26 27 22 26 27 22 26 27 22 26 27 22 26 27 107 108 100 108 109 100 95 97 90 96 98 91 83 86 81 80 83 78 83 86 80 92 94 88 98 100 92 104 105 97 83 85 80 89 91 85 83 86 80 83 85 80 22 26 27 22 26 27 22 26 27 91 94 87 81 84 79 106 108 99 88 91 85 100 102 94 22 26 27 22 26 27 22 26 27 22 26 27 102 103 95 84 87 81 83 85 80 103 105 96 97 99 92 87 89 83 110 111 102 92 94 87 101 103 95 89 91 85 89 91 85 82 85 80 82 85 80 101 103 95 100 102 94 93 95 89 99 101 94 88 90 84 94 96 89 92 94 88 99 101 94 107 109 100 104 105 97 83 86 80 106 107 98 104 105 97 84 87 81 104 106 97 96 98 91 109 110 101 87 90 84 101 103 95 109 110 101 91 93 87 87 90 84 88 91 84 92 94 87 86 89 83 81 84 79 81 84 79 93 95 88 82 85 80 92 94 88 97 99 92 93 95 88 81 84 79 107 109 100 22 26 27 22 26 27 22 26 27 22 26 27 22 26 27 22 26 27 22 26 27 22 26 27 22 26 27 22 26 27 22 26 27 22 26 27 22 26 27 22 26 27 22 26 27 22 26 27 22 26 27 22 26 27 22 26 27 22 26 27 22 26 27 22 26 27 22 26 27 22 26 27 22 26 27 22 26 27 22 26 27 22 26 27 22 26 27 22 26 27 22 26 27 22 26 27 22 26 27 22 26 27 22 26 27 22 26 27 22 26 27 22 26 27 22 26 27 22 26 27 22 26 27 22 26 27 22 26 27 22 26 27 22 26 27 22 26 27 22 26 27 22 26 27 22 26 27
22 26 27 22 26 27 22 26 27 83 87 87 82 86 86 70 74 74 22 26 27 83 87 87 79 83 83 80 84 84 92 96 96 22 26 27 85 89 89 83 87 87 88 92 92 93 97 97 74 74 74 88 88 88 85 85 85 74 74 74 106 94 135 85 85 85 79 79 79 82 82 82 79 79 79 70 70 70 71 71 71 79 79 79 74 74 74 77 77 77 81 81 81 88 88 88 87 87 87 26 26 24 26 26 24 26 26 24 26 26 24 212 180 48 211 180 48 216 180 48 207 180 48 210 178 48 213 181 48 211 185 48 211 177 48 214 183 48 16 18 18 16 18 18 16 18 18 213 179 48 207 180 48 215 185 48 216 185 48 209 177 48 206 184 48 211 185 48 216 180 48 215 181 48 16 18 18 16 18 18 16 18 18 205 181 48 211 185 48 205 182 48 205 185 48 215 182 48 212 179 48 216 179 48 16 18 18 16 18 18 16 18 18 206 184 48 210 178 48 209 178 48 207 180 48 216 185 48 207 182 48 215 178 48 16 18 18 16 18 18 16 18 18 210 183 48 209 178 48 206 178 48 213 185 48 213 177 48 209 180 48 213 184 48 205 177 48 212 181 48 205 182 48 211 182 48 209 176 48 211 176 48 206 178 48 205 177 48 212 176 48 205 176 48 206 185 48 210 182 48 215 181 48 216 183 48 210 177 48 212 185 48 213 185 48 214 181 48 26 26 24 26 26 24 26 26 24 26 26 24 73 73 73 84 84 84 83 83 83 77 77 77 87 87 87 112 93 133 84 84 84 81 81 81 124 92 130 84 84 84 75 75 75 77 77 77 70 70 70 73 73 73 82 82 82 22 26 27 22 26 27 22 26 27 22 26 27 22 26 27 22 26 27 22 26 27 22 26 27 22 26 27 82 85 79 84 86 81 107 108 100 80 83 78 87 89 83 95 97 90 86 89 83 90 93 86 105 107 98 98 99 92 109 110 101 92 94 88 96 98 91 98 100 92 22 26 27 22 26 27 22 26 27 97 98 91 102 104 96 92 94 88 99 101 93 85 87 82 22 26 27 22 26 27 22 26 27 22 26 27 90 93 86 101 103 95 83 85 80 100 102 94 96 98 91 101 102 95 101 103 95 83 86 81 105 107 98 93 95 88 103 105 96 110 111 102 97 99 91 108 109 101 105 107 98 89 91 85 91 93 87 99 101 93 92 95 88 89 92 85 94 97 90 90 92 86 91 93 86 90 93 86 106 107 99 90 92 86 92 94 87 104 106 97 98 100 92 92 94 88 107 108 99 92 95 88 107 108 99 88 90 84 83 85 80 108 109 101 83 86 81 93 96 89 95 97 90 102 103 95 88 91 84 84 86 81 107 108 99 90 93 86 97 99 92 106 107 99 90 92 86 22 26 27 22 26 27 22 26 27 22 26 27 22 26 27 22 26 27 22 26 27 22 26 27 22 26 27 22 26 27 22 26 27 22 26 27 22 26 27 22 26 27 22 26 27 22 26 27 22 26 27 22 26 27 22 26 27 22 26 27 22 26 27 22 26 27 22 26 27 22 26 27 22 26 27 22 26 27 22 26 27 22 26 27 22 26 27 22 26 27 22 26 27 22 26 27 22 26 27 22 26 27 22 26 27 22 26 27 22 26 27 22 26 27 22 26 27 22 26 27 22 26 27 22 26 27 22 26 27 22 26 27 22 26 27 22 26 27 22 26 27 22 26 27 22 26 27
22 26 27 22 26 27 22 26 27 69 73 73 82 86 86 84 88 88 22 26 27 70 74 74 73 77 77 77 81 81 69 73 73 22 26 27 85 89 89 88 92 92 91 95 95 87 91 91 84 84 84 75 75 75 86 86 86 76 76 76 126 99 138 75 75 75 75 75 75 80 80 80 86 86 86 78 78 78 92 92 92 78 78 78 79 79 79 83 83 83 92 92 92 79 79 79 91 91 91 26 26 24 26 26 24 26 26 24 26 26 24 206 185 48 216 184 48 215 185 48 214 184 48 215 184 48 212 180 48 211 180 48 209 181 48 213 181 48 16 18 18 16 18 18 16 18 18 207 180 48 215 180 48 207 180 48 215 178 48 216 178 48 211 177 48 216 182 48 207 177 48 215 176 48 16 18 18 16 18 18 16 18 18 211 178 48 207 178 48 215 183 48 207 183 48 213 177 48 205 182 48 205 184 48 16 18 18 16 18 18 16 18 18 210 182 48 206 180 48 214 182 48 216 183 48 205 183 48 208 176 48 206 176 48 16 18 18 16 18 18 16 18 18 214 181 48 209 178 48 206 179 48 211 182 48 210 183 48 213 184 48 207 177 48 207 177 48 214 177 48 207 179 48 214 178 48 209 181 48 213 176 48 215 177 48 206 183 48 213 176 48 208 184 48 212 183 48 214 183 48 213 176 48 205 176 48 210 176 48 208 184 48 209 182 48 209 177 48 26 26 24 26 26 24 26 26 24 26 26 24 87 87 87 75 75 75 92 92 92 76 76 76 89 89 89 87 87 87 83 83 83 87 87 87 91 91 91 86 86 86 84 84 84 88 88 88 82 82 82 91 91 91 83 83 83 22 26 27 22 26 27 22 26 27 22 26 27 22 26 27 22 26 27 22 26 27 22 26 27 22 26 27 106 108 99 89 91 85 106 108 99 93 95 88 98 100 93 102 104 96 96 98 91 101 103 95 99 101 93 108 109 100 95 97 90 104 106 97 90 92 86 94 96 89 22 26 27 22 26 27 22 26 27 86 89 83 83 86 80 89 92 85 103 104 96 94 96 89 22 26 27 22 26 27 22 26 27 22 26 27 93 95 88 105 106 98 88 91 85 104 106 98 97 98 91 101 102 95 85 87 82 84 86 81 109 110 101 97 99 91 98 99 92 107 109 100 92 94 87 98 100 92 83 86 80 93 95 89 105 106 98 92 94 88 92 94 87 109 110 101 103 104 96 103 104 96 82 85 80 84 87 81 109 111 102 102 104 96 90 93 86 94 96 89 93 96 89 94 96 89 83 85 80 86 89 83 82 85 79 85 87 82 87 90 84 87 89 83 80 83 78 82 85 80 105 106 98 91 93 87 96 97 90 84 87 81 94 96 89 87 90 84 94 96 89 107 108 100 83 86 81 22 26 27 22 26 27 22 26 27 22 26 27 22 26 27 22 26 27 22 26 27 22 26 27 22 26 27 22 26 27 22 26 27 22 26 27 22 26 27 22 26 27 22 26 27 22 26 27 22 26 27 22 26 27 22 26 27 22 26 27 22 26 27 22 26 27 22 26 27 22 26 27 22 26 27 22 26 27 22 26 27 22 26 27 22 26 27 22 26 27 22 26 27 22 26 27 22 26 27 22 26 27 22 26 27 22 26 27 22 26 27 22 26 27 22 26 27 22 26 27 22 26 27 22 26 27 22 26 27 22 26 27 22 26 27 22 26 27 22 26 27 22 26 27 22 26 27
22 26 27 22 26 27 22 26 27 81 85 85 90 94 94 73 77 77 22 26 27 73 77 77 75 79 79 86 90 90 74 78 78 22 26 27 80 84 84 92 96 96 92 96 96 79 83 83 85 85 85 87 87 87 82 82 82 91 91 91 92 92 92 92 92 92 92 92 92 82 82 82 91 91 91 131 105 145 140 104 143 93 93 93 84 84 84 91 91 91 90 90 90 93 93 93 91 91 91 26 26 24 26 26 24 26 26 24 26 26 24 211 176 48 214 177 48 211 176 48 216 176 48 210 177 48 210 178 48 214 176 48 208 183 48 210 178 48 16 18 18 16 18 18 16 18 18 211 176 48 205 180 48 205 177 48 205 177 48 211 184 48 205 179 48 210 179 48 213 177 48 205 183 48 16 18 18 16 18 18 16 18 18 210 179 48 208 184 48 212 183 48 206 178 48 211 178 48 215 178 48 209 181 48 16 18 18 16 18 18 16 18 18 212 180 48 216 179 48 214 180 48 213 183 48 213 178 48 212 180 48 212 178 48 16 18 18 16 18 18 16 18 18 214 180 48 216 181 48 206 179 48 211 178 48 207 184 48 214 180 48 207 184 48 209 180 48 213 179 48 216 176 48 216 183 48 215 182 48 209 182 48 205 179 48 216 178 48 215 178 48 206 181 48 206 176 48 216 177 48 211 176 48 206 180 48 212 182 48 216 184 48 215 180 48 211 182 48 26 26 24 26 26 24 26 26 24 26 26 24 83 83 83 93 93 93 81 81 81 91 91 91 89 89 89 92 92 92 136 104 144 83 83 83 92 92 92 119 106 148 82 82 82 80 80 80 92 92 92 91 91 91 91 91 91 22 26 27 22 26 27 22 26 27 22 26 27 22 26 27 22 26 27 22 26 27 22 26 27 22 26 27 109 110 101 83 86 81 85 88 82 81 84 79 89 91 85 109 110 102 87 89 83 102 103 95 92 94 87 84 86 81 108 109 100 83 86 80 102 103 96 108 109 100 22 26 27 22 26 27 22 26 27 106 108 99 95 97 90 100 102 94 108 109 101 92 94 87 22 26 27 22 26 27 22 26 27 22 26 27 91 93 87 88 90 84 85 87 82 98 99 92 104 106 97 100 101 94 96 98 90 108 110 101 93 95 88 87 89 83 101 103 95 85 88 82 86 88 82 81 84 79 80 83 78 97 99 92 110 111 102 43 48 51 62 67 70 54 59 62 47 52 55 48 53 56 44 49 52 46 51 54 62 67 70 52 57 60 61 66 69 61 66 69 49 54 57 47 52 55 52 57 60 48 53 56 54 59 62 56 61 64 61 66 69 64 69 72 52 57 60 46 51 54 57 62 65 46 51 54 41 46 49 51 56 59 53 58 61 53 58 61 58 63 66 46 51 54 59 64 67 57 62 65 60 65 68 43 48 51 49 54 57 51 56 59 46 51 54 44 49 52 50 55 58 63 68 71 41 46 49 56 61 64 58 63 66 55 60 63 63 68 71 57 62 65 42 47 50 63 68 71 50 55 58 46 51 54 60 65 68 44 49 52 52 57 60 43 48 51 50 55 58 43 48 51 44 49 52 45 50 53 43 48 51 56 61 64 50 55 58 46 51 54 54 59 62 52 57 60 57 62 65 42 47 50 60 65 68 62 67 70 49 54 57 53 58 61 54 59 62 49 54 57 54 59 62 61 66 69 42 47 50 63 68 71 44 49 52 44 49 52 41 46 49 45 50 53
22 26 27 22 26 27 22 26 27 72 76 76 75 79 79 88 92 92 22 26 27 77 81 81 72 76 76 86 90 90 87 91 91 22 26 27 86 90 90 74 78 78 74 78 78 92 96 96 92 92 92 84 84 84 92 92 92 94 94 94 92 92 92 94 94 94 91 91 91 87 87 87 92 92 92 92 92 92 88 88 88 93 93 93 92 92 92 93 93 93 85 85 85 90 90 90 92 92 92 26 26 24 26 26 24 26 26 24 26 26 24 209 183 48 212 179 48 210 185 48 216 184 48 207 177 48 215 177 48 210 176 48 212 178 48 210 179 48 16 18 18 16 18 18 16 18 18 214 178 48 216 182 48 212 182 48 208 180 48 211 181 48 208 177 48 214 183 48 211 179 48 212 180 48 16 18 18 16 18 18 16 18 18 205 179 48 213 178 48 215 179 48 208 179 48 206 178 48 211 177 48 216 183 48 16 18 18 16 18 18 16 18 18 216 178 48 207 184 48 210 183 48 214 178 48 207 177 48 213 182 48 209 181 48 16 18 18 16 18 18 16 18 18 213 184 48 206 179 48 212 183 48 210 176 48 207 176 48 210 184 48 208 179 48 207 176 48 205 183 48 210 184 48 213 176 48 216 181 48 215 184 48 208 181 48 213 177 48 213 184 48 207 180 48 216 177 48 213 184 48 207 180 48 213 181 48 211 177 48 206 177 48 207 183 48 208 182 48 26 26 24 26 26 24 26 26 24 26 26 24 89 89 89 91 91 91 84 84 84 93 93 93 94 94 94 91 91 91 91 91 91 94 94 94 89 89 89 82 82 82 84 84 84 85 85 85 92 92 92 90 90 90 93 93 93 22 26 27 22 26 27 22 26 27 22 26 27 22 26 27 22 26 27 22 26 27 22 26 27 22 26 27 103 104 96 94 96 89 81 84 79 82 85 80 84 87 81 96 98 90 94 96 89 82 85 80 107 108 100 102 103 95 108 109 100 85 87 82 108 109 100 96 98 91 22 26 27 22 26 27 22 26 27 110 111 102 108 109 100 82 85 79 87 90 84 83 86 80 22 26 27 22 26 27 22 26 27 22 26 27 86 88 83 81 83 78 107 108 99 106 107 99 85 87 82 102 103 95 104 106 97 104 105 97 97 99 92 104 105 97 95 97 90 100 102 94 108 109 100 106 108 99 99 100 93 84 87 81 81 84 79 55 60 63 50 55 58 55 60 63 62 67 70 53 58 61 46 51 54 47 52 55 49 54 57 49 54 57 47 52 55 53 58 61 49 54 57 61 66 69 45 50 53 62 67 70 48 53 56 42 47 50 56 61 64 58 63 66 46 51 54 47 52 55 42 47 50 47 52 55 53 58 61 55 60 63 57 62 65 45 50 53 50 55 58 48 53 56 45 50 53 63 68 71 62 67 70 45 50 53 57 62 65 51 56 59 59 64 67 54 59 62 64 69 72 44 49 52 50 55 58 52 57 60 63 68 71 47 52 55 45 50 53 56 61 64 49 54 57 53 58 61 52 57 60 58 63 66 42 47 50 48 53 56 52 57 60 58 63 66 42 47 50 52 57 60 51 56 59 61 66 69 46 51 54 55 60 63 61 66 69 45 50 53 54 59 62 41 46 49 49 54 57 61 66 69 50 55 58 53 58 61 56 61 64 44 49 52 59 64 67 45 50 53 51 56 59 46 51 54 53 58 61 53 58 61 52 57 60 41 46 49 64 69 72 50 55 58
22 26 27 22 26 27 22 26 27 79 83 83 92 96 96 84 88 88 22 26 27 77 81 81 91 95 95 83 87 87 91 95 95 22 26 27 86 90 90 80 84 84 92 96 96 83 87 87 93 93 93 93 93 93 83 83 83 93 93 93 126 111 153 92 92 92 92 92 92 90 90 90 89 89 89 92 92 92 94 94 94 92 92 92 88 88 88 94 94 94 85 85 85 91 91 91 90 90 90 26 26 24 26 26 24 26 26 24 26 26 24 214 177 48 207 180 48 206 177 48 207 179 48 207 184 48 209 178 48 211 178 48 216 184 48 211 176 48 16 18 18 16 18 18 16 18 18 206 184 48 205 183 48 205 184 48 216 183 48 215 177 48 206 185 48 209 184 48 216 177 48 211 180 48 16 18 18 16 18 18 16 18 18 210 179 48 208 184 48 213 177 48 206 184 48 209 183 48 212 184 48 209 181 48 16 18 18 16 18 18 16 18 18 211 178 48 214 177 48 211 179 48 206 179 48 208 179 48 212 178 48 210 181 48 16 18 18 16 18 18 16 18 18 206 179 48 215 183 48 211 179 48 208 182 48 205 176 48 213 178 48 205 181 48 205 185 48 205 178 48 210 180 48 211 177 48 209 184 48 209 179 48 209 176 48 212 183 48 205 179 48 214 179 48 213 178 48 216 182 48 205 177 48 213 180 48 205 182 48 207 185 48 207 185 48 205 185 48 26 26 24 26 26 24 26 26 24 26 26 24 91 91 91 83 83 83 94 94 94 92 92 92 85 85 85 93 93 93 87 87 87 86 86 86 94 94 94 93 93 93 85 85 85 92 92 92 146 108 147 93 93 93 94 94 94 22 26 27 22 26 27 22 26 27 22 26 27 22 26 27 22 26 27 22 26 27 22 26 27 22 26 27 93 95 89 82 85 80 92 94 87 82 85 79 95 97 90 88 91 85 81 84 79 86 89 83 101 103 95 99 101 94 100 102 94 86 89 83 89 92 86 97 99 92 22 26 27 22 26 27 22 26 27 82 84 79 93 95 89 102 104 96 93 95 89 101 103 95 22 26 27 22 26 27 22 26 27 22 26 27 92 94 87 87 90 84 90 92 86 93 95 88 86 89 83 99 101 93 105 106 98 93 95 89 86 88 83 81 84 79 89 91 85 93 95 88 97 99 92 81 84 79 81 84 79 100 101 94 101 103 95 62 67 70 49 54 57 46 51 54 50 55 58 62 67 70 45 50 53 59 64 67 59 64 67 57 62 65 43 48 51 50 55 58 53 58 61 43 48 51 59 64 67 58 63 66 47 52 55 44 49 52 51 56 59 58 63 66 63 68 71 52 57 60 58 63 66 44 49 52 53 58 61 58 63 66 50 55 58 44 49 52 63 68 71 57 62 65 57 62 65 59 64 67 44 49 52 49 54 57 45 50 53 63 68 71 49 54 57 48 53 56 62 67 70 40 45 48 52 57 60 53 58 61 62 67 70 41 46 49 55 60 63 42 47 50 41 46 49 55 60 63 47 52 55 42 47 50 41 46 49 44 49 52 58 63 66 57 62 65 57 62 65 47 52 55 49 54 57 46 51 54 57 62 65 54 59 62 56 61 64 50 55 58 50 55 58 48 53 56 55 60 63 40 45 48 52 57 60 47 52 55 54 59 62 45 50 53 56 61 64 43 48 51 53 58 61 60 65 68 44 49 52 49 54 57 62 67 70 55 60 63 44 49 52 42 47 50
22 26 27 22 26 27 22 26 27 89 93 93 74 78 78 70 74 74 22 26 27 76 80 80 85 89 89 92 96 96 75 79 79 22 26 27 74 78 78 87 91 91 82 86 86 72 76 76 91 91 91 81 81 81 85 85 85 83 83 83 90 90 90 87 87 87 86 86 86 84 84 84 91 91 91 90 90 90 82 82 82 93 93 93 126 107 149 89 89 89 91 91 91 92 92 92 91 91 91 26 26 24 26 26 24 26 26 24 26 26 24 214 183 48 210 179 48 214 177 48 210 179 48 212 176 48 215 180 48 208 182 48 205 180 48 216 183 48 16 18 18 16 18 18 16 18 18 209 176 48 211 177 48 214 182 48 214 180 48 210 183 48 212 177 48 206 180 48 208 184 48 213 179 48 16 18 18 16 18 18 16 18 18 207 183 48 207 181 48 205 184 48 215 177 48 208 180 48 210 179 48 212 179 48 16 18 18 16 18 18 16 18 18 210 184 48 214 182 48 207 176 48 213 184 48 216 183 48 207 185 48 205 176 48 16 18 18 16 18 18 16 18 18 216 177 48 208 184 48 206 182 48 206 182 48 213 182 48 215 177 48 209 185 48 212 183 48 216 180 48 208 176 48 215 180 48 205 185 48 207 177 48 213 182 48 211 183 48 208 177 48 212 182 48 207 180 48 212 176 48 216 179 48 213 178 48 208 183 48 216 176 48 208 176 48 208 184 48 26 26 24 26 26 24 26 26 24 26 26 24 93 93 93 89 89 89 82 82 82 92 92 92 142 105 145 91 91 91 92 92 92 92 92 92 92 92 92 93 93 93 85 85 85 90 90 90 89 89 89 91 91 91 88 88 88 22 26 27 22 26 27 22 26 27 22 26 27 22 26 27 22 26 27 22 26 27 22 26 27 22 26 27 106 108 99 95 97 90 92 94 87 89 92 86 89 92 85 107 108 99 109 110 101 88 91 85 99 101 93 91 94 87 85 87 82 95 97 90 102 104 96 95 97 90 22 26 27 22 26 27 22 26 27 93 95 88 88 91 85 82 85 80 99 101 93 110 111 102 22 26 27 22 26 27 22 26 27 22 26 27 92 94 88 92 94 87 105 107 98 101 103 95 89 91 85 97 99 91 110 111 102 102 104 96 87 89 83 103 104 96 98 100 92 98 100 93 106 108 99 105 106 98 103 104 96 104 106 98 109 111 102 54 59 62 46 51 54 56 61 64 49 54 57 51 56 59 42 47 50 48 53 56 62 67 70 57 62 65 41 46 49 41 46 49 53 58 61 41 46 49 44 49 52 53 58 61 45 50 53 51 56 59 55 60 63 51 56 59 45 50 53 59 64 67 47 52 55 61 66 69 52 57 60 53 58 61 48 53 56 60 65 68 45 50 53 57 62 65 62 67 70 60 65 68 57 62 65 56 61 64 56 61 64 61 66 69 50 55 58 47 52 55 54 59 62 59 64 67 47 52 55 57 62 65 43 48 51 41 46 49 43 48 51 52 57 60 57 62 65 42 47 50 57 62 65 51 56 59 48 53 56 46 51 54 48 53 56 45 50 53 54 59 62 46 51 54 43 48 51 47 52 55 45 50 53 57 62 65 64 69 72 51 56 59 59 64 67 56 61 64 55 60 63 57 62 65 45 50 53 40 45 48 52 57 60 60 65 68 46 51 54 54 59 62 57 62 65 43 48 51 62 67 70 58 63 66 58 63 66 44 49 52 48 53 56 51 56 59
22 26 27 22 26 27 22 26 27 87 91 91 76 80 80 89 93 93 22 26 27 74 78 78 72 76 76 86 90 90 71 75 75 22 26 27 77 81 81 70 74 74 73 77 77 80 84 84 90 90 90 117 103 144 92 92 92 91 91 91 92 92 92 91 91 91 84 84 84 86 86 86 83 83 83 83 83 83 88 88 88 82 82 82 89 89 89 87 87 87 82 82 82 84 84 84 82 82 82 26 26 24 26 26 24 26 26 24 26 26 24 211 180 48 215 183 48 216 179 48 208 183 48 215 181 48 208 181 48 206 178 48 208 184 48 211 176 48 16 18 18 16 18 18 16 18 18 209 183 48 214 185 48 205 179 48 211 176 48 215 182 48 209 182 48 213 180 48 206 184 48 207 181 48 16 18 18 16 18 18 16 18 18 208 180 48 209 185 48 205 180 48 210 177 48 216 182 48 205 184 48 216 181 48 16 18 18 16 18 18 16 18 18 205 182 48 213 177 48 216 177 48 211 178 48 214 184 48 209 180 48 209 181 48 16 18 18 16 18 18 16 18 18 209 184 48 216 176 48 211 184 48 212 180 48 210 177 48 215 179 48 210 179 48 215 176 48 215 178 48 215 182 48 206 179 48 214 184 48 206 179 48 211 185 48 216 181 48 208 185 48 205 181 48 212 185 48 213 181 48 210 185 48 213 177 48 209 179 48 205 182 48 216 183 48 206 177 48 26 26 24 26 26 24 26 26 24 26 26 24 83 83 83 91 91 91 79 79 79 81 81 81 131 101 140 88 88 88 87 87 87 86 86 86 91 91 91 86 86 86 84 84 84 91 91 91 91 91 91 84 84 84 87 87 87 22 26 27 22 26 27 22 26 27 22 26 27 22 26 27 22 26 27 22 26 27 22 26 27 22 26 27 94 96 89 94 96 89 107 108 100 80 83 78 107 108 100 89 92 85 108 110 101 94 96 89 94 96 89 85 88 82 93 95 88 109 110 102 107 108 99 100 102 94 22 26 27 22 26 27 22 26 27 87 89 83 109 110 101 89 92 86 97 99 92 88 90 84 22 26 27 22 26 27 22 26 27 22 26 27 102 103 95 105 107 98 109 110 101 92 94 87 87 89 83 95 97 90 89 92 85 97 99 92 105 106 98 102 104 96 91 93 87 98 100 92 81 84 79 84 87 81 86 89 83 104 105 97 107 108 99 61 66 69 49 54 57 51 56 59 51 56 59 55 60 63 42 47 50 55 60 63 44 49 52 56 61 64 42 47 50 57 62 65 54 59 62 57 62 65 64 69 72 41 46 49 61 66 69 42 47 50 60 65 68 43 48 51 47 52 55 60 65 68 50 55 58 50 55 58 49 54 57 50 55 58 50 55 58 62 67 70 40 45 48 42 47 50 42 47 50 60 65 68 48 53 56 56 61 64 47 52 55 55 60 63 58 63 66 50 55 58 49 54 57 52 57 60 64 69 72 53 58 61 61 66 69 42 47 50 49 54 57 50 55 58 41 46 49 56 61 64 43 48 51 54 59 62 60 65 68 49 54 57 64 69 72 48 53 56 62 67 70 62 67 70 62 67 70 42 47 50 41 46 49 55 60 63 55 60 63 58 63 66 51 56 59 44 49 52 50 55 58 62 67 70 53 58 61 58 63 66 55 60 63 42 47 50 49 54 57 50 55 58 63 68 71 55 60 63 56 61 64 57 62 65 43 48 51 49 54 57 51 56 59 50 55 58
22 26 27 22 26 27 22 26 27 78 82 82 91 95 95 84 88 88 22 26 27 92 96 96 75 79 79 81 85 85 81 85 85 22 26 27 81 85 85 71 75 75 91 95 95 91 95 95 86 86 86 73 73 73 75 75 75 86 86 86 88 88 88 83 83 83 88 88 88 84 84 84 88 88 88 86 86 86 87 87 87 89 89 89 77 77 77 132 94 131 78 78 78 110 96 137 81 81 81 26 26 24 26 26 24 26 26 24 26 26 24 208 181 48 213 181 48 207 185 48 216 178 48 207 182 48 215 180 48 206 178 48 205 181 48 208 179 48 16 18 18 16 18 18 16 18 18 215 182 48 214 178 48 215 179 48 206 180 48 216 182 48 213 176 48 206 185 48 209 179 48 209 184 48 16 18 18 16 18 18 16 18 18 212 176 48 211 178 48 214 183 48 211 181 48 210 178 48 207 185 48 213 181 48 16 18 18 16 18 18 16 18 18 216 184 48 212 177 48 209 180 48 208 180 48 210 184 48 206 176 48 214 177 48 16 18 18 16 18 18 16 18 18 208 178 48 208 180 48 214 176 48 214 180 48 210 182 48 210 176 48 209 178 48 213 178 48 209 176 48 214 182 48 210 182 48 212 183 48 207 182 48 209 179 48 216 181 48 212 181 48 213 181 48 207 185 48 214 178 48 210 184 48 209 177 48 206 185 48 215 176 48 215 182 48 215 181 48 26 26 24 26 26 24 26 26 24 26 26 24 134 93 130 87 87 87 78 78 78 86 86 86 74 74 74 90 90 90 75 75 75 84 84 84 90 90 90 77 77 77 88 88 88 75 75 75 77 77 77 80 80 80 89 89 89 22 26 27 22 26 27 22 26 27 22 26 27 22 26 27 22 26 27 22 26 27 22 26 27 22 26 27 80 83 78 88 91 85 90 93 86 91 94 87 96 98 91 90 93 86 103 105 97 99 101 93 107 108 100 94 96 89 98 100 92 84 87 81 94 96 89 91 94 87 22 26 27 22 26 27 22 26 27 101 103 95 99 100 93 97 99 92 82 85 80 95 97 90 22 26 27 22 26 27 22 26 27 22 26 27 22 26 27 22 26 27 22 26 27 22 26 27 22 26 27 22 26 27 22 26 27 22 26 27 22 26 27 22 26 27 22 26 27 22 26 27 22 26 27 22 26 27 22 26 27 22 26 27 22 26 27 47 52 55 50 55 58 62 67 70 42 47 50 64 69 72 47 52 55 44 49 52 55 60 63 45 50 53 51 56 59 54 59 62 51 56 59 42 47 50 41 46 49 45 50 53 57 62 65 62 67 70 61 66 69 55 60 63 46 51 54 59 64 67 59 64 67 49 54 57 54 59 62 58 63 66 57 62 65 61 66 69 49 54 57 47 52 55 49 54 57 61 66 69 59 64 67 42 47 50 48 53 56 62 67 70 55 60 63 51 56 59 41 46 49 54 59 62 48 53 56 60 65 68 40 45 48 59 64 67 48 53 56 53 58 61 53 58 61 59 64 67 54 59 62 63 68 71 53 58 61 53 58 61 54 59 62 61 66 69 44 49 52 63 68 71 63 68 71 48 53 56 60 65 68 48 53 56 63 68 71 59 64 67 58 63 66 49 54 57 46 51 54 49 54 57 61 66 69 61 66 69 61 66 69 48 53 56 62 67 70 52 57 60 55 60 63 44 49 52 41 46 49 61 66 69 44 49 52 42 47 50 41 46 49 59 64 67
22 26 27 22 26 27 22 26 27 76 80 80 78 82 82 81 85 85 22 26 27 70 74 74 70 74 74 75 79 79 75 79 79 22 26 27 92 96 96 81 85 85 73 77 77 78 82 82 78 78 78 82 82 82 68 68 68 69 69 69 76 76 76 85 85 85 80 80 80 71 71 71 72 72 72 78 78 78 117 89 127 78 78 78 68 68 68 85 85 85 69 69 69 84 84 84 85 85 85 26 26 24 26 26 24 26 26 24 26 26 24 210 181 48 210 184 48 213 177 48 212 184 48 211 177 48 212 178 48 214 182 48 207 185 48 211 185 48 16 18 18 16 18 18 16 18 18 209 179 48 213 179 48 209 177 48 209 184 48 216 185 48 206 177 48 210 177 48 211 179 48 213 183 48 16 18 18 16 18 18 16 18 18 211 185 48 215 180 48 215 182 48 215 183 48 213 185 48 207 178 48 213 183 48 16 18 18 16 18 18 16 18 18 212 178 48 213 183 48 214 176 48 208 178 48 213 184 48 214 178 48 213 176 48 16 18 18 16 18 18 16 18 18 205 180 48 208 184 48 212 182 48 212 177 48 205 181 48 213 177 48 208 181 48 206 184 48 211 179 48 216 182 48 207 184 48 214 180 48 205 180 48 214 183 48 216 184 48 214 179 48 207 180 48 215 177 48 209 181 48 214 181 48 209 180 48 205 179 48 211 183 48 216 185 48 216 177 48 26 26 24 26 26 24 26 26 24 26 26 24 81 81 81 126 88 124 78 78 78 73 73 73 72 72 72 82 82 82 85 85 85 77 77 77 82 82 82 78 78 78 69 69 69 73 73 73 86 86 86 71 71 71 123 88 125 22 26 27 22 26 27 22 26 27 22 26 27 22 26 27 22 26 27 22 26 27 22 26 27 22 26 27 86 89 83 99 101 93 95 97 90 85 87 82 92 94 87 103 104 96 89 91 85 89 91 85 104 105 97 92 94 88 99 100 93 102 103 96 86 89 83 86 89 83 22 26 27 22 26 27 22 26 27 90 92 86 83 85 80 91 93 86 91 93 87 100 101 94 22 26 27 22 26 27 22 26 27 22 26 27 22 26 27 22 26 27 22 26 27 22 26 27 22 26 27 22 26 27 22 26 27 22 26 27 22 26 27 22 26 27 22 26 27 22 26 27 22 26 27 22 26 27 22 26 27 22 26 27 22 26 27 48 53 56 43 48 51 47 52 55 49 54 57 44 49 52 53 58 61 46 51 54 60 65 68 59 64 67 64 69 72 42 47 50 58 63 66 44 49 52 58 63 66 64 69 72 56 61 64 55 60 63 61 66 69 62 67 70 50 55 58 46 51 54 55 60 63 59 64 67 49 54 57 52 57 60 45 50 53 64 69 72 40 45 48 62 67 70 55 60 63 58 63 66 48 53 56 55 60 63 57 62 65 60 65 68 41 46 49 51 56 59 45 50 53 41 46 49 48 53 56 43 48 51 49 54 57 45 50 53 48 53 56 51 56 59 58 63 66 56 61 64 48 53 56 61 66 69 58 63 66 48 53 56 53 58 61 40 45 48 63 68 71 58 63 66 53 58 61 53 58 61 63 68 71 63 68 71 51 56 59 43 48 51 57 62 65 61 66 69 59 64 67 57 62 65 51 56 59 60 65 68 60 65 68 55 60 63 55 60 63 54 59 62 56 61 64 41 46 49 58 63 66 46 51 54 46 51 54 53 58 61 49 54 57 43 48 51
22 26 27 22 26 27 22 26 27 78 82 82 90 94 94 88 92 92 22 26 27 80 84 84 72 76 76 71 75 75 70 74 74 22 26 27 88 92 92 82 86 86 92 96 96 78 82 82 79 79 79 99 86 125 80 80 80 82 82 82 65 65 65 78 78 78 71 71 71 80 80 80 71 71 71 78 78 78 68 68 68 77 77 77 72 72 72 81 81 81 76 76 76 72 72 72 71 71 71 26 26 24 26 26 24 26 26 24 26 26 24 209 183 48 208 181 48 210 177 48 208 181 48 210 180 48 206 183 48 214 182 48 209 176 48 208 181 48 16 18 18 16 18 18 16 18 18 209 179 48 209 182 48 216 180 48 208 182 48 216 181 48 212 180 48 208 180 48 215 179 48 208 183 48 16 18 18 16 18 18 16 18 18 212 180 48 207 178 48 205 182 48 209 181 48 205 183 48 216 181 48 207 177 48 16 18 18 16 18 18 16 18 18 208 178 48 214 178 48 211 180 48 208 183 48 207 180 48 209 177 48 212 181 48 16 18 18 16 18 18 16 18 18 210 179 48 212 184 48 216 176 48 214 184 48 208 178 48 210 181 48 210 180 48 211 183 48 215 185 48 206 181 48 212 179 48 205 180 48 207 179 48 205 185 48 210 182 48 216 177 48 212 181 48 209 183 48 211 180 48 208 179 48 215 178 48 215 185 48 205 179 48 206 182 48 209 180 48 26 26 24 26 26 24 26 26 24 26 26 24 66 66 66 76 76 76 79 79 79 72 72 72 64 64 64 116 84 121 80 80 80 108 85 123 81 81 81 79 79 79 78 78 78 75 75 75 71 71 71 82 82 82 69 69 69 22 26 27 22 26 27 22 26 27 22 26 27 22 26 27 22 26 27 22 26 27 22 26 27 22 26 27 89 92 85 81 84 79 102 103 95 107 109 100 89 92 85 93 95 88 86 89 83 105 106 98 109 111 102 96 97 90 99 101 94 88 90 84 108 109 100 108 109 100 22 26 27 22 26 27 22 26 27 103 105 97 101 102 94 81 84 79 86 88 83 92 94 88 22 26 27 22 26 27 22 26 27 22 26 27 22 26 27 22 26 27 22 26 27 22 26 27 22 26 27 22 26 27 22 26 27 22 26 27 22 26 27 22 26 27 22 26 27 22 26 27 22 26 27 22 26 27 22 26 27 22 26 27 22 26 27 54 59 62 58 63 66 61 66 69 64 69 72 43 48 51 43 48 51 52 57 60 48 53 56 62 67 70 41 46 49 53 58 61 62 67 70 46 51 54 63 68 71 56 61 64 61 66 69 44 49 52 49 54 57 43 48 51 44 49 52 51 56 59 48 53 56 55 60 63 57 62 65 56 61 64 47 52 55 62 67 70 47 52 55 52 57 60 56 61 64 63 68 71 62 67 70 51 56 59 64 69 72 50 55 58 43 48 51 63 68 71 55 60 63 41 46 49 64 69 72 59 64 67 47 52 55 63 68 71 55 60 63 59 64 67 54 59 62 40 45 48 63 68 71 54 59 62 59 64 67 46 51 54 59 64 67 48 53 56 41 46 49 48 53 56 57 62 65 50 55 58 40 45 48 63 68 71 56 61 64 45 50 53 44 49 52 58 63 66 60 65 68 52 57 60 42 47 50 48 53 56 52 57 60 59 64 67 54 59 62 48 53 56 59 64 67 53 58 61 50 55 58 48 53 56 63 68 71 49 54 57 44 49 52 62 67 70
22 26 27 22 26 27 22 26 27 81 85 85 93 97 97 75 79 79 22 26 27 89 93 93 82 86 86 77 81 81 91 95 95 22 26 27 84 88 88 81 85 85 85 89 89 85 89 89 96 83 122 76 76 76 78 78 78 62 62 62 63 63 63 74 74 74 65 65 65 75 75 75 63 63 63 67 67 67 71 71 71 71 71 71 70 70 70 67 67 67 78 78 78 71 71 71 101 83 121 26 26 24 26 26 24 26 26 24 26 26 24 211 182 48 207 182 48 206 183 48 213 183 48 210 183 48 205 177 48 211 183 48 212 179 48 206 180 48 16 18 18 16 18 18 16 18 18 213 179 48 213 182 48 216 185 48 216 185 48 213 177 48 216 180 48 216 181 48 206 183 48 206 179 48 16 18 18 16 18 18 16 18 18 211 185 48 205 177 48 211 184 48 216 182 48 216 176 48 216 178 48 211 180 48 16 18 18 16 18 18 16 18 18 205 182 48 212 181 48 207 184 48 215 177 48 211 185 48 216 178 48 214 180 48 16 18 18 16 18 18 16 18 18 209 180 48 212 184 48 212 181 48 210 182 48 216 176 48 215 184 48 211 180 48 210 178 48 205 176 48 214 184 48 212 185 48 208 182 48 213 180 48 209 178 48 213 178 48 216 179 48 210 179 48 212 178 48 207 180 48 213 183 48 205 185 48 214 177 48 216 183 48 213 185 48 210 179 48 26 26 24 26 26 24 26 26 24 26 26 24 78 78 78 63 63 63 70 70 70 77 77 77 76 76 76 74 74 74 70 70 70 73 73 73 74 74 74 77 77 77 70 70 70 65 65 65 75 75 75 64 64 64 72 72 72 22 26 27 22 26 27 22 26 27 22 26 27 22 26 27 22 26 27 22 26 27 22 26 27 22 26 27 82 84 79 86 88 83 89 91 85 104 105 97 86 89 83 105 106 98 95 97 90 91 93 87 96 98 91 102 103 96 82 85 79 105 106 98 103 105 97 99 101 93 22 26 27 22 26 27 22 26 27 98 100 93 83 86 80 94 96 89 86 89 83 96 98 91 22 26 27 22 26 27 22 26 27 22 26 27 22 26 27 22 26 27 22 26 27 22 26 27 22 26 27 22 26 27 22 26 27 22 26 27 22 26 27 22 26 27 22 26 27 22 26 27 22 26 27 22 26 27 22 26 27 22 26 27 22 26 27 59 64 67 42 47 50 45 50 53 64 69 72 62 67 70 42 47 50 45 50 53 57 62 65 42 47 50 52 57 60 62 67 70 59 64 67 52 57 60 55 60 63 56 61 64 58 63 66 48 53 56 41 46 49 41 46 49 54 59 62 45 50 53 63 68 71 56 61 64 63 68 71 50 55 58 56 61 64 55 60 63 59 64 67 47 52 55 44 49 52 44 49 52 63 68 71 62 67 70 56 61 64 62 67 70 53 58 61 50 55 58 60 65 68 64 69 72 48 53 56 62 67 70 44 49 52 49 54 57 55 60 63 41 46 49 59 64 67 59 64 67 51 56 59 61 66 69 62 67 70 47 52 55 45 50 53 53 58 61 63 68 71 42 47 50 43 48 51 41 46 49 60 65 68 51 56 59 45 50 53 56 61 64 56 61 64 43 48 51 54 59 62 59 64 67 47 52 55 61 66 69 49 54 57 58 63 66 50 55 58 62 67 70 48 53 56 59 64 67 59 64 67 50 55 58 53 58 61 49 54 57 61 66 69 47 52 55
22 26 27 22 26 27 22 26 27 87 91 91 92 96 96 77 81 81 22 26 27 92 96 96 89 93 93 82 86 86 85 89 89 22 26 27 84 88 88 91 95 95 82 86 86 72 76 76 70 70 70 65 65 65 67 67 67 72 72 72 62 62 62 68 68 68 78 78 78 78 78 78 62 62 62 75 75 75 68 68 68 71 71 71 60 60 60 73 73 73 79 79 79 68 68 68 77 77 77 26 26 24 26 26 24 26 26 24 26 26 24 213 181 48 210 179 48 210 179 48 209 178 48 209 183 48 215 178 48 208 182 48 214 181 48 215 176 48 16 18 18 16 18 18 16 18 18 208 179 48 211 180 48 212 181 48 215 181 48 214 185 48 216 184 48 205 179 48 208 176 48 206 176 48 16 18 18 16 18 18 16 18 18 216 181 48 207 178 48 216 179 48 212 182 48 215 177 48 213 183 48 209 185 48 16 18 18 16 18 18 16 18 18 208 182 48 210 176 48 206 181 48 215 185 48 206 176 48 215 183 48 208 185 48 16 18 18 16 18 18 16 18 18 211 185 48 211 184 48 216 179 48 209 184 48 212 181 48 205 181 48 209 176 48 209 182 48 205 182 48 213 180 48 211 185 48 206 180 48 214 179 48 205 183 48 206 180 48 207 178 48 207 184 48 216 181 48 210 182 48 209 179 48 213 185 48 212 182 48 205 179 48 208 185 48 210 180 48 26 26 24 26 26 24 26 26 24 26 26 24 79 79 79 76 76 76 75 75 75 78 78 78 66 66 66 78 78 78 77 77 77 72 72 72 60 60 60 70 70 70 64 64 64 79 79 79 114 79 115 77 77 77 64 64 64 22 26 27 22 26 27 22 26 27 22 26 27 22 26 27 22 26 27 22 26 27 22 26 27 22 26 27 98 99 92 89 92 85 110 111 102 91 94 87 93 95 88 85 88 82 95 97 90 95 97 90 98 100 92 107 108 99 99 101 93 97 99 91 81 84 79 93 95 88 22 26 27 22 26 27 22 26 27 92 94 88 84 87 81 88 90 84 95 97 90 109 110 101 22 26 27 22 26 27 22 26 27 22 26 27 22 26 27 22 26 27 22 26 27 22 26 27 22 26 27 22 26 27 22 26 27 22 26 27 22 26 27 22 26 27 22 26 27 22 26 27 22 26 27 22 26 27 22 26 27 22 26 27 22 26 27 49 54 57 46 51 54 50 55 58 44 49 52 45 50 53 53 58 61 44 49 52 62 67 70 63 68 71 47 52 55 45 50 53 46 51 54 48 53 56 61 66 69 62 67 70 82 82 85 81 82 85 64 65 68 73 75 78 72 73 76 67 69 72 56 58 61 59 61 64 55 57 60 62 64 67 67 68 71 57 58 61 65 66 69 75 76 79 66 67 70 72 73 76 55 60 63 42 47 50 47 52 55 49 54 57 62 67 70 57 62 65 58 63 66 64 69 72 41 46 49 58 63 66 62 67 70 53 58 61 56 61 64 52 57 60 61 66 69 54 59 62 53 58 61 60 65 68 41 46 49 59 64 67 61 66 69 61 66 69 41 46 49 58 63 66 44 49 52 46 51 54 63 68 71 46 51 54 43 48 51 43 48 51 60 65 68 47 52 55 63 68 71 61 66 69 55 60 63 46 51 54 52 57 60 40 45 48 49 54 57 59 64 67 60 65 68 43 48 51 59 64 67 55 60 63 53 58 61 52 57 60 62 67 70 40 45 48
22 26 27 22 26 27 22 26 27 82 86 86 72 76 76 73 77 77 22 26 27 70 74 74 85 89 89 78 82 82 87 91 91 22 26 27 73 77 77 81 85 85 82 86 86 70 74 74 103 78 115 67 67 67 60 60 60 65 65 65 70 70 70 64 64 64 77 77 77 73 73 73 116 76 111 60 60 60 61 61 61 76 76 76 67 67 67 66 66 66 76 76 76 77 77 77 61 61 61 26 26 24 26 26 24 26 26 24 26 26 24 215 181 48 206 179 48 208 181 48 210 180 48 208 176 48 205 182 48 216 183 48 209 181 48 208 183 48 16 18 18 16 18 18 16 18 18 208 183 48 213 177 48 209 185 48 207 179 48 208 183 48 210 185 48 211 184 48 207 176 48 205 183 48 16 18 18 16 18 18 16 18 18 211 184 48 206 181 48 207 176 48 211 180 48 209 185 48 210 176 48 216 181 48 16 18 18 16 18 18 16 18 18 209 179 48 213 178 48 207 180 48 207 179 48 212 185 48 216 185 48 207 178 48 16 18 18 16 18 18 16 18 18 212 179 48 205 177 48 205 179 48 208 179 48 216 185 48 209 181 48 209 177 48 216 181 48 210 184 48 212 177 48 207 183 48 212 184 48 205 176 48 210 180 48 206 182 48 214 183 48 207 177 48 206 184 48 209 182 48 215 180 48 213 184 48 206 183 48 214 182 48 208 180 48 216 182 48 26 26 24 26 26 24 26 26 24 26 26 24 110 77 113 77 77 77 60 60 60 106 77 114 74 74 74 63 63 63 71 71 71 74 74 74 71 71 71 75 75 75 77 77 77 66 66 66 61 61 61 77 77 77 59 59 59 22 26 27 22 26 27 22 26 27 22 26 27 22 26 27 22 26 27 22 26 27 22 26 27 22 26 27 85 87 82 83 85 80 89 92 85 108 109 101 81 83 78 87 89 83 97 99 92 86 89 83 99 101 93 96 98 90 99 101 93 96 98 91 87 90 84 101 103 95 22 26 27 22 26 27 22 26 27 84 87 81 86 89 83 93 95 88 86 89 83 91 93 87 22 26 27 22 26 27 22 26 27 22 26 27 22 26 27 22 26 27 22 26 27 22 26 27 22 26 27 22 26 27 22 26 27 22 26 27 22 26 27 22 26 27 22 26 27 22 26 27 22 26 27 22 26 27 22 26 27 22 26 27 22 26 27 54 59 62 59 64 67 51 56 59 49 54 57 40 45 48 64 69 72 47 52 55 60 65 68 53 58 61 73 74 77 74 75 78 64 66 69 65 67 70 74 77 80 71 73 76 64 67 70 63 66 69 53 57 60 61 65 68 59 63 66 49 53 56 56 61 64 58 63 66 51 56 59 66 70 73 47 51 54 59 63 66 57 60 63 68 71 74 70 73 76 72 75 78 59 62 65 68 70 73 61 63 66 73 74 77 69 70 73 67 68 71 41 46 49 53 58 61 44 49 52 60 65 68 46 51 54 59 64 67 51 56 59 48 53 56 53 58 61 52 57 60 61 66 69 51 56 59 47 52 55 50 55 58 47 52 55 51 56 59 48 53 56 61 66 69 56 61 64 57 62 65 56 61 64 40 45 48 59 64 67 49 54 57 44 49 52 50 55 58 62 67 70 59 64 67 60 65 68 52 57 60 58 63 66 61 66 69 43 48 51 40 45 48 48 53 56 53 58 61 50 55 58 54 59 62 62 67 70 50 55 58 61 66 69 43 48 51
22 26 27 22 26 27 22 26 27 71 75 75 74 78 78 93 97 97 22 26 27 70 74 74 69 73 73 90 94 94 81 85 85 22 26 27 90 94 94 87 91 91 92 96 96 72 76 76 71 71 71 60 60 60 59 59 59 73 73 73 104 74 110 66 66 66 59 59 59 58 58 58 72 72 72 69 69 69 72 72 72 103 74 110 59 59 59 74 74 74 98 74 111 74 74 74 61 61 61 26 26 24 26 26 24 26 26 24 26 26 24 209 185 48 215 182 48 206 183 48 213 181 48 212 185 48 207 176 48 216 177 48 212 180 48 210 184 48 16 18 18 16 18 18 16 18 18 206 180 48 205 178 48 213 181 48 210 185 48 215 181 48 212 176 48 214 183 48 210 183 48 207 182 48 16 18 18 16 18 18 16 18 18 215 180 48 211 177 48 211 177 48 210 185 48 211 183 48 207 182 48 212 177 48 16 18 18 16 18 18 16 18 18 205 181 48 206 182 48 211 179 48 212 179 48 213 180 48 214 183 48 216 184 48 16 18 18 16 18 18 16 18 18 205 176 48 216 185 48 213 180 48 208 181 48 215 183 48 215 182 48 210 178 48 206 184 48 212 185 48 211 183 48 216 179 48 211 176 48 207 176 48 213 179 48 214 177 48 207 178 48 214 181 48 215 181 48 210 178 48 214 179 48 208 185 48 205 179 48 213 177 48 216 182 48 215 183 48 26 26 24 26 26 24 26 26 24 26 26 24 68 68 68 70 70 70 68 68 68 57 57 57 65 65 65 56 56 56 64 64 64 72 72 72 58 58 58 73 73 73 61 61 61 57 57 57 59 59 59 61 61 61 60 60 60 22 26 27 22 26 27 22 26 27 22 26 27 22 26 27 22 26 27 22 26 27 22 26 27 22 26 27 97 98 91 89 91 85 104 105 97 105 106 98 109 110 101 97 99 92 92 94 88 92 95 88 108 109 100 102 104 96 107 109 100 81 84 79 98 100 92 94 96 89 22 26 27 22 26 27 22 26 27 102 103 95 83 86 81 109 110 101 104 105 97 108 110 101 22 26 27 22 26 27 22 26 27 22 26 27 22 26 27 22 26 27 22 26 27 22 26 27 22 26 27 22 26 27 22 26 27 22 26 27 22 26 27 22 26 27 22 26 27 22 26 27 22 26 27 22 26 27 22 26 27 22 26 27 22 26 27 43 48 51 52 57 60 50 55 58 47 52 55 49 54 57 60 61 64 76 78 81 57 59 62 55 58 61 55 58 61 57 61 64 58 62 65 41 46 49 43 48 51 63 67 70 61 65 68 64 68 71 61 64 67 52 56 59 53 56 59 57 60 63 71 74 77 71 74 77 60 63 66 65 68 71 64 67 70 66 69 72 59 62 65 47 50 53 55 59 62 59 63 66 49 53 56 60 65 68 56 61 64 55 59 62 58 61 64 60 63 66 54 56 59 59 61 64 63 64 67 80 81 84 60 65 68 63 68 71 47 52 55 60 65 68 51 56 59 64 69 72 52 57 60 51 56 59 58 63 66 40 45 48 58 63 66 53 58 61 41 46 49 61 66 69 58 63 66 42 47 50 46 51 54 52 57 60 47 52 55 53 58 61 62 67 70 44 49 52 62 67 70 50 55 58 63 68 71 45 50 53 62 67 70 63 68 71 44 49 52 40 45 48 57 62 65 57 62 65 58 63 66 59 64 67 48 53 56 45 50 53 63 68 71 59 64 67
22 26 27 22 26 27 22 26 27 76 80 80 84 88 88 74 78 78 22 26 27 93 97 97 82 86 86 70 74 74 84 88 88 22 26 27 92 96 96 71 75 75 75 79 79 81 85 85 63 63 63 61 61 61 66 66 66 60 60 60 60 60 60 64 64 64 54 54 54 54 54 54 56 56 56 70 70 70 57 57 57 56 56 56 98 68 104 63 63 63 68 68 68 63 63 63 65 65 65 26 26 24 26 26 24 26 26 24 26 26 24 208 176 48 208 178 48 212 179 48 215 178 48 209 182 48 214 183 48 207 179 48 211 185 48 215 181 48 16 18 18 16 18 18 16 18 18 211 181 48 212 183 48 216 182 48 211 185 48 213 176 48 207 184 48 207 183 48 207 178 48 211 182 48 16 18 18 16 18 18 16 18 18 207 182 48 214 177 48 210 177 48 208 178 48 213 180 48 211 183 48 215 185 48 16 18 18 16 18 18 16 18 18 215 183 48 212 178 48 205 185 48 206 176 48 207 184 48 213 184 48 215 178 48 16 18 18 16 18 18 16 18 18 215 185 48 206 180 48 213 182 48 216 176 48 216 177 48 209 179 48 215 184 48 212 184 48 205 176 48 215 184 48 210 185 48 211 180 48 215 183 48 205 181 48 205 176 48 209 183 48 209 183 48 215 176 48 212 184 48 205 183 48 211 184 48 209 185 48 215 183 48 209 185 48 215 177 48 26 26 24 26 26 24 26 26 24 26 26 24 53 53 53 55 55 55 71 71 71 62 62 62 52 52 52 70 70 70 54 54 54 58 58 58 63 63 63 56 56 56 99 68 104 69 69 69 70 70 70 55 55 55 56 56 56 22 26 27 22 26 27 22 26 27 22 26 27 22 26 27 22 26 27 22 26 27 22 26 27 22 26 27 103 104 96 102 104 96 107 109 100 108 110 101 81 84 79 104 106 97 108 109 100 80 83 78 83 86 81 86 89 83 80 83 78 106 107 99 95 97 90 94 97 90 22 26 27 22 26 27 22 26 27 90 92 86 106 108 99 102 104 96 109 110 101 100 102 94 22 26 27 22 26 27 22 26 27 22 26 27 22 26 27 22 26 27 22 26 27 22 26 27 22 26 27 22 26 27 22 26 27 22 26 27 22 26 27 22 26 27 22 26 27 22 26 27 22 26 27 22 26 27 22 26 27 22 26 27 22 26 27 52 57 60 69 70 73 77 78 81 67 68 71 64 67 70 58 62 65 60 64 67 45 50 53 53 57 60 51 55 58 52 55 58 60 63 66 53 55 58 62 64 67 59 61 64 76 78 81 78 79 82 65 66 69 81 82 85 63 63 66 76 77 80 70 71 74 74 75 78 82 83 86 69 70 73 78 78 81 61 62 65 60 61 64 67 68 71 79 80 83 79 80 83 58 60 63 70 72 75 50 52 55 66 69 72 47 51 54 50 54 57 41 46 49 50 54 57 61 65 68 65 68 71 54 57 60 57 58 61 66 67 70 51 56 59 57 62 65 57 62 65 48 53 56 44 49 52 63 68 71 41 46 49 54 59 62 41 46 49 47 52 55 55 60 63 43 48 51 54 59 62 44 49 52 59 64 67 54 59 62 45 50 53 61 66 69 55 60 63 46 51 54 46 51 54 43 48 51 45 50 53 51 56 59 45 50 53 61 66 69 52 57 60 63 68 71 45 50 53 61 66 69 58 63 66 51 56 59 57 62 65 57 62 65 46 51 54
22 26 27 22 26 27 22 26 27 76 80 80 90 94 94 91 95 95 22 26 27 90 94 94 76 80 80 74 78 78 69 73 73 22 26 27 80 84 84 80 84 84 77 81 81 88 92 92 52 52 52 77 64 102 49 49 49 56 56 56 63 63 63 66 66 66 58 58 58 61 61 61 51 51 51 85 63 99 58 58 58 54 54 54 58 58 58 49 49 49 58 58 58 65 65 65 51 51 51 26 26 24 26 26 24 26 26 24 26 26 24 210 179 48 208 183 48 205 177 48 216 178 48 206 177 48 208 179 48 207 181 48 216 184 48 212 184 48 16 18 18 16 18 18 16 18 18 208 183 48 205 179 48 211 176 48 216 179 48 207 184 48 207 178 48 216 184 48 215 182 48 213 180 48 16 18 18 16 18 18 16 18 18 209 179 48 206 180 48 212 181 48 216 180 48 209 179 48 215 182 48 210 176 48 16 18 18 16 18 18 16 18 18 213 181 48 207 181 48 210 180 48 216 177 48 211 184 48 212 184 48 216 183 48 16 18 18 16 18 18 16 18 18 207 184 48 211 182 48 215 181 48 212 184 48 214 178 48 206 183 48 209 180 48 215 183 48 214 181 48 215 185 48 207 176 48 210 183 48 205 181 48 205 176 48 214 177 48 207 181 48 214 177 48 205 181 48 216 184 48 216 177 48 216 183 48 207 177 48 210 184 48 208 180 48 205 181 48 26 26 24 26 26 24 26 26 24 26 26 24 64 64 64 52 52 52 65 65 65 58 58 58 62 62 62 50 50 50 58 58 58 61 61 61 62 62 62 55 55 55 62 62 62 48 48 48 66 66 66 59 59 59 66 66 66 22 26 27 22 26 27 22 26 27 22 26 27 22 26 27 22 26 27 22 26 27 22 26 27 22 26 27 85 87 82 89 91 85 93 95 88 108 109 100 97 99 92 92 94 88 91 93 87 86 89 83 109 110 101 85 88 82 88 90 84 95 97 90 89 91 85 89 91 85 22 26 27 22 26 27 22 26 27 86 88 82 92 94 88 101 102 94 99 101 93 93 95 88 22 26 27 22 26 27 22 26 27 22 26 27 22 26 27 22 26 27 22 26 27 22 26 27 22 26 27 22 26 27 22 26 27 22 26 27 22 26 27 22 26 27 22 26 27 22 26 27 22 26 27 22 26 27 22 26 27 22 26 27 22 26 27 65 67 70 71 74 77 68 71 74 67 71 74 57 62 65 58 62 65 64 68 71 70 73 76 71 73 76 68 70 73 68 69 72 83 84 87 74 75 78 67 67 70 79 78 81 83 83 86 84 83 86 71 71 74 67 66 69 77 76 79 69 68 71 80 79 82 69 68 71 68 67 70 67 66 69 83 82 85 79 78 81 71 70 73 66 66 69 80 79 82 84 84 87 74 74 77 62 62 65 66 66 69 76 77 80 75 76 79 66 68 71 61 64 67 49 52 55 51 55 58 43 48 51 55 60 63 49 53 56 65 68 71 74 76 79 78 79 82 61 62 65 56 61 64 64 69 72 60 65 68 46 51 54 44 49 52 60 65 68 42 47 50 54 59 62 52 57 60 58 63 66 48 53 56 60 65 68 61 66 69 48 53 56 64 69 72 60 65 68 44 49 52 56 61 64 45 50 53 50 55 58 41 46 49 60 65 68 46 51 54 40 45 48 48 53 56 57 62 65 61 66 69 60 65 68 42 47 50 48 53 56 60 65 68 42 47 50
22 26 27 22 26 27 22 26 27 81 85 85 83 87 87 76 80 80 22 26 27 83 87 87 72 76 76 85 89 89 82 86 86 22 26 27 80 84 84 74 78 78 72 76 76 71 75 75 49 49 49 47 47 47 63 63 63 62 62 62 46 46 46 59 59 59 56 56 56 58 58 58 47 47 47 58 58 58 53 53 53 61 61 61 63 63 63 62 62 62 88 58 93 62 62 62 51 51 51 26 26 24 26 26 24 26 26 24 26 26 24 216 182 48 212 177 48 206 179 48 215 185 48 207 179 48 205 181 48 214 177 48 213 179 48 214 177 48 16 18 18 16 18 18 16 18 18 212 179 48 216 181 48 213 185 48 211 185 48 211 177 48 214 181 48 208 177 48 206 178 48 207 183 48 16 18 18 16 18 18 16 18 18 206 176 48 211 184 48 214 176 48 207 177 48 215 180 48 208 181 48 208 183 48 16 18 18 16 18 18 16 18 18 216 182 48 216 183 48 214 178 48 205 182 48 206 177 48 215 180 48 206 185 48 16 18 18 16 18 18 16 18 18 213 177 48 210 184 48 216 181 48 211 178 48 216 184 48 214 184 48 206 182 48 214 180 48 211 178 48 212 178 48 214 182 48 215 182 48 215 177 48 211 182 48 216 180 48 212 182 48 207 177 48 214 179 48 212 182 48 207 177 48 209 176 48 211 184 48 205 181 48 210 180 48 205 182 48 26 26 24 26 26 24 26 26 24 26 26 24 47 47 47 50 50 50 47 47 47 57 57 57 50 50 50 62 62 62 58 58 58 58 58 58 57 57 57 62 62 62 55 55 55 47 47 47 54 54 54 47 47 47 50 50 50 22 26 27 22 26 27 22 26 27 22 26 27 22 26 27 22 26 27 22 26 27 22 26 27 22 26 27 86 89 83 94 96 89 95 97 90 85 88 82 107 108 100 104 105 97 86 89 83 99 101 93 108 109 100 80 83 78 94 96 89 97 99 92 107 108 99 90 92 86 22 26 27 22 26 27 22 26 27 97 99 92 91 93 87 97 99 92 84 87 82 87 89 83 22 26 27 22 26 27 22 26 27 22 26 27 22 26 27 22 26 27 22 26 27 22 26 27 22 26 27 22 26 27 22 26 27 22 26 27 22 26 27 22 26 27 22 26 27 22 26 27 22 26 27 22 26 27 22 26 27 22 26 27 22 26 27 63 67 70 51 56 59 58 62 65 56 60 63 59 61 64 68 70 73 74 75 78 64 64 67 76 76 79 79 79 82 65 65 68 89 88 91 75 74 77 78 77 80 75 74 77 82 81 84 80 79 82 73 72 75 83 82 85 67 67 70 70 70 73 69 68 71 80 79 82 72 71 74 65 64 67 80 80 83 75 74 77 84 83 86 86 85 88 74 73 76 72 71 74 89 88 91 68 67 70 75 74 77 71 70 73 71 70 73 77 77 80 62 62 65 71 72 75 66 67 70 55 57 60 56 59 62 57 61 64 61 66 69 63 68 71 66 70 73 65 68 71 64 66 69 65 66 69 60 65 68 47 52 55 51 56 59 54 59 62 62 67 70 64 69 72 41 46 49 57 62 65 63 68 71 60 65 68 60 65 68 51 56 59 50 55 58 59 64 67 64 69 72 57 62 65 49 54 57 46 51 54 57 62 65 42 47 50 40 45 48 41 46 49 44 49 52 41 46 49 63 68 71 59 64 67 51 56 59 59 64 67 44 49 52 56 61 64
22 26 27 22 26 27 22 26 27 82 86 86 83 87 87 77 81 81 22 26 27 73 77 77 77 81 81 75 79 79 83 87 87 22 26 27 85 89 89 74 78 78 85 89 89 74 78 78 60 60 60 63 63 63 48 48 48 57 57 57 62 62 62 48 48 48 59 59 59 62 62 62 57 57 57 51 51 51 53 53 53 56 56 56 52 52 52 60 60 60 55 55 55 55 55 55 53 53 53 26 26 24 26 26 24 26 26 24 26 26 24 209 178 48 207 180 48 215 185 48 205 177 48 208 178 48 209 185 48 216 183 48 209 177 48 212 176 48 16 18 18 16 18 18 16 18 18 214 178 48 206 178 48 211 179 48 208 185 48 208 177 48 206 182 48 209 179 48 210 178 48 207 178 48 16 18 18 16 18 18 16 18 18 215 180 48 207 176 48 212 183 48 214 183 48 215 185 48 209 177 48 216 180 48 16 18 18 16 18 18 16 18 18 207 181 48 210 185 48 211 182 48 206 179 48 208 176 48 213 180 48 216 182 48 16 18 18 16 18 18 16 18 18 213 180 48 210 185 48 206 181 48 213 185 48 208 181 48 206 183 48 207 180 48 210 177 48 212 176 48 210 182 48 209 185 48 208 180 48 215 184 48 214 179 48 214 178 48 215 177 48 214 183 48 205 178 48 215 179 48 216 182 48 209 184 48 209 183 48 215 185 48 206 176 48 208 184 48 26 26 24 26 26 24 26 26 24 26 26 24 57 57 57 62 62 62 59 59 59 57 57 57 60 60 60 59 59 59 57 57 57 55 55 55 62 62 62 62 62 62 58 58 58 49 49 49 49 49 49 49 49 49 46 46 46 22 26 27 22 26 27 22 26 27 22 26 27 22 26 27 22 26 27 22 26 27 22 26 27 22 26 27 85 87 82 99 101 93 82 85 80 82 85 79 94 96 89 87 89 83 88 90 84 84 87 82 92 95 88 84 87 82 103 104 96 102 104 96 101 103 95 104 106 98 22 26 27 22 26 27 22 26 27 91 93 86 90 92 86 87 89 83 84 86 81 102 103 95 22 26 27 22 26 27 22 26 27 22 26 27 22 26 27 22 26 27 22 26 27 22 26 27 22 26 27 22 26 27 22 26 27 22 26 27 22 26 27 22 26 27 22 26 27 22 26 27 22 26 27 22 26 27 22 26 27 22 26 27 22 26 27 69 73 76 53 56 59 75 77 80 79 80 83 80 80 83 71 70 73 87 87 90 74 73 76 85 84 87 77 76 79 68 67 70 88 87 90 83 82 85 72 72 75 64 63 66 63 63 66 70 70 73 77 77 80 84 84 87 81 82 85 66 66 69 73 73 76 79 80 83 69 69 72 68 68 71 84 84 87 70 70 73 68 68 71 67 67 70 86 85 88 70 70 73 88 88 91 76 75 78 76 76 79 70 69 72 87 86 89 72 71 74 86 86 89 75 74 77 65 65 68 85 85 88 62 63 66 78 79 82 69 71 74 66 69 72 63 67 70 50 55 58 51 55 58 67 70 73 69 71 74 74 75 78 61 66 69 58 63 66 50 55 58 47 52 55 42 47 50 42 47 50 61 66 69 57 62 65 57 62 65 56 61 64 57 62 65 56 61 64 45 50 53 55 60 63 46 51 54 47 52 55 50 55 58 47 52 55 47 52 55 62 67 70 51 56 59 53 58 61 47 52 55 49 54 57 58 63 66 53 58 61 54 59 62 58 63 66
22 26 27 22 26 27 22 26 27 69 73 73 73 77 77 75 79 79 22 26 27 81 85 85 90 94 94 79 83 83 84 88 88 22 26 27 89 93 93 76 80 80 92 96 96 81 85 85 51 51 51 77 64 102 51 51 51 54 54 54 61 61 61 94 62 97 65 65 65 50 50 50 56 56 56 58 58 58 52 52 52 49 49 49 51 51 51 55 55 55 56 56 56 62 62 62 59 59 59 26 26 24 26 26 24 26 26 24 26 26 24 206 180 48 209 184 48 212 181 48 211 177 48 215 184 48 211 181 48 216 176 48 210 181 48 215 182 48 16 18 18 16 18 18 16 18 18 216 177 48 211 182 48 206 185 48 211 178 48 212 183 48 210 176 48 205 178 48 208 185 48 213 182 48 16 18 18 16 18 18 16 18 18 210 177 48 215 184 48 205 182 48 207 180 48 213 179 48 216 176 48 216 176 48 16 18 18 16 18 18 16 18 18 214 184 48 209 180 48 216 180 48 212 178 48 214 184 48 205 181 48 206 184 48 16 18 18 16 18 18 16 18 18 206 182 48 211 184 48 205 182 48 213 184 48 213 176 48 207 185 48 209 181 48 206 179 48 216 184 48 206 184 48 205 185 48 214 185 48 205 184 48 210 181 48 206 179 48 215 178 48 216 177 48 213 182 48 206 177 48 206 177 48 215 184 48 213 183 48 206 183 48 215 178 48 215 181 48 26 26 24 26 26 24 26 26 24 26 26 24 59 59 59 65 65 65 55 55 55 63 63 63 90 62 98 58 58 58 52 52 52 63 63 63 57 57 57 51 51 51 63 63 63 74 65 102 65 65 65 52 52 52 60 60 60 22 26 27 22 26 27 22 26 27 22 26 27 22 26 27 22 26 27 22 26 27 22 26 27 22 26 27 88 91 85 87 90 84 107 109 100 93 95 88 84 86 81 90 92 86 91 93 87 89 91 85 84 87 81 106 108 99 91 93 87 90 92 86 101 103 95 101 103 95 22 26 27 22 26 27 22 26 27 100 102 94 84 87 81 100 102 94 99 101 93 96 98 91 22 26 27 22 26 27 22 26 27 22 26 27 22 26 27 22 26 27 22 26 27 22 26 27 22 26 27 22 26 27 22 26 27 22 26 27 22 26 27 22 26 27 22 26 27 22 26 27 22 26 27 22 26 27 22 26 27 22 26 27 22 26 27 68 69 72 76 76 79 86 86 89 78 78 81 72 72 75 75 74 77 90 89 92 72 72 75 82 81 84 66 65 68 82 82 85 64 64 67 67 68 71 60 60 63 60 61 64 68 69 72 70 72 75 66 68 71 70 73 76 71 74 77 53 55 58 64 67 70 56 59 62 61 64 67 50 52 55 54 57 60 57 59 62 71 73 76 76 78 81 76 78 81 71 73 76 70 71 74 65 65 68 60 60 63 75 75 78 80 80 83 66 66 69 88 87 90 71 70 73 73 72 75 69 68 71 68 67 70 80 80 83 84 84 87 72 73 76 77 78 81 64 67 70 62 66 69 64 69 72 58 62 65 71 74 77 58 60 63 72 73 76 59 64 67 62 67 70 64 69 72 59 64 67 63 68 71 47 52 55 49 54 57 47 52 55 56 61 64 49 54 57 60 65 68 52 57 60 52 57 60 51 56 59 51 56 59 61 66 69 48 53 56 62 67 70 61 66 69 41 46 49 45 50 53 46 51 54 48 53 56 41 46 49 53 58 61 60 65 68
22 26 27 22 26 27 22 26 27 76 80 80 82 86 86 70 74 74 22 26 27 78 82 82 77 81 81 81 85 85 75 79 79 22 26 27 82 86 86 72 76 76 87 91 91 82 86 86 68 68 68 60 60 60 67 67 67 67 67 67 68 68 68 57 57 57 82 70 108 54 54 54 61 61 61 80 71 109 64 64 64 56 56 56 66 66 66 69 69 69 62 62 62 62 62 62 68 68 68 26 26 24 26 26 24 26 26 24 26 26 24 209 177 48 216 176 48 209 185 48 209 181 48 212 179 48 216 183 48 208 176 48 215 183 48 209 177 48 16 18 18 16 18 18 16 18 18 211 182 48 205 179 48 205 182 48 213 182 48 209 177 48 209 177 48 208 185 48 207 182 48 211 177 48 16 18 18 16 18 18 16 18 18 206 177 48 208 177 48 208 183 48 210 185 48 205 185 48 216 185 48 210 176 48 16 18 18 16 18 18 16 18 18 215 185 48 209 179 48 206 185 48 205 184 48 210 180 48 208 179 48 213 183 48 16 18 18 16 18 18 16 18 18 210 182 48 207 180 48 207 178 48 214 182 48 214 180 48 210 176 48 213 176 48 206 177 48 212 185 48 206 181 48 206 182 48 205 181 48 211 181 48 208 181 48 206 182 48 214 185 48 210 185 48 216 185 48 207 183 48 216 177 48 207 179 48 210 179 48 216 179 48 211 185 48 209 182 48 26 26 24 26 26 24 26 26 24 26 26 24 56 56 56 67 67 67 55 55 55 53 53 53 60 60 60 67 67 67 54 54 54 56 56 56 56 56 56 109 67 101 103 68 103 65 65 65 56 56 56 63 63 63 70 70 70 22 26 27 22 26 27 22 26 27 22 26 27 22 26 27 22 26 27 22 26 27 22 26 27 22 26 27 89 92 85 103 104 96 104 106 97 87 89 83 90 92 86 102 103 95 90 92 86 103 104 96 81 84 79 105 106 98 104 105 97 100 102 94 83 86 81 96 98 91 22 26 27 22 26 27 22 26 27 98 100 93 108 109 100 94 96 89 98 100 92 86 89 83 22 26 27 22 26 27 22 26 27 22 26 27 22 26 27 22 26 27 22 26 27 22 26 27 22 26 27 22 26 27 22 26 27 22 26 27 22 26 27 22 26 27 22 26 27 22 26 27 22 26 27 22 26 27 22 26 27 22 26 27 22 26 27 83 83 86 85 84 87 83 82 85 88 87 90 67 67 70 77 77 80 66 65 68 72 72 75 72 72 75 60 61 64 66 68 71 65 68 71 55 58 61 57 60 63 53 57 60 52 56 59 59 64 67 44 49 52 48 53 56 48 53 56 43 47 50 61 65 68 44 48 51 46 50 53 64 68 71 57 62 65 58 63 66 60 65 68 61 66 69 58 63 66 51 55 58 50 54 57 62 65 68 68 70 73 75 77 80 69 71 74 82 83 86 68 68 71 76 76 79 76 75 78 89 88 91 76 75 78 73 72 75 71 71 74 83 83 86 70 70 73 73 74 77 61 63 66 69 71 74 46 50 53 59 64 67 64 68 71 55 58 61 58 60 63 71 72 75 47 52 55 55 60 63 43 48 51 60 65 68 64 69 72 61 66 69 54 59 62 59 64 67 48 53 56 45 50 53 51 56 59 49 54 57 46 51 54 56 61 64 55 60 63 64 69 72 40 45 48 48 53 56 58 63 66 48 53 56 60 65 68 51 56 59 51 56 59 49 54 57
22 26 27 22 26 27 22 26 27 73 77 77 83 87 87 77 81 81 22 26 27 72 76 76 72 76 76 81 85 85 87 91 91 22 26 27 70 74 74 76 80 80 89 93 93 86 90 90 67 67 67 63 63 63 57 57 57 69 69 69 73 73 73 64 64 64 67 67 67 74 74 74 74 74 74 74 74 74 66 66 66 57 57 57 73 73 73 106 73 109 101 74 111 88 76 114 58 58 58 26 26 24 26 26 24 26 26 24 26 26 24 215 176 48 205 182 48 208 179 48 205 185 48 205 183 48 212 178 48 209 182 48 211 180 48 205 180 48 16 18 18 16 18 18 16 18 18 215 178 48 212 176 48 209 182 48 213 182 48 216 185 48 215 182 48 211 183 48 206 178 48 205 178 48 16 18 18 16 18 18 16 18 18 215 181 48 215 185 48 215 184 48 214 183 48 206 181 48 206 181 48 207 181 48 16 18 18 16 18 18 16 18 18 206 184 48 210 180 48 209 182 48 210 182 48 209 176 48 213 185 48 205 176 48 16 18 18 16 18 18 16 18 18 207 180 48 210 185 48 209 178 48 205 185 48 206 184 48 212 181 48 205 177 48 212 180 48 216 185 48 207 184 48 209 177 48 208 177 48 208 176 48 209 184 48 205 185 48 210 179 48 206 176 48 214 183 48 208 176 48 207 177 48 210 180 48 215 180 48 210 179 48 209 179 48 211 178 48 26 26 24 26 26 24 26 26 24 26 26 24 68 68 68 74 74 74 66 66 66 69 69 69 61 61 61 70 70 70 67 67 67 73 73 73 64 64 64 66 66 66 67 67 67 66 66 66 72 72 72 69 69 69 61 61 61 22 26 27 22 26 27 22 26 27 22 26 27 22 26 27 22 26 27 22 26 27 22 26 27 22 26 27 93 95 88 82 85 80 98 100 92 89 91 85 105 106 98 94 96 89 91 93 87 102 104 96 92 94 88 100 101 94 108 109 100 109 110 102 104 105 97 85 87 82 22 26 27 22 26 27 22 26 27 98 100 92 104 105 97 83 86 80 86 89 83 88 91 85 22 26 27 22 26 27 22 26 27 22 26 27 22 26 27 22 26 27 22 26 27 22 26 27 22 26 27 22 26 27 22 26 27 22 26 27 22 26 27 22 26 27 22 26 27 22 26 27 22 26 27 22 26 27 22 26 27 22 26 27 22 26 27 72 71 74 90 89 92 70 69 72 72 72 75 84 84 87 74 75 78 70 72 75 56 58 61 69 72 75 60 63 66 64 68 71 40 45 48 57 61 64 63 67 70 54 58 61 66 69 72 68 70 73 62 64 67 60 62 65 63 65 68 68 70 73 77 78 81 61 62 65 76 77 80 74 75 78 78 80 83 74 76 79 65 67 70 53 56 59 59 61 64 60 63 66 61 65 68 44 48 51 62 67 70 62 66 69 48 51 54 67 70 73 63 65 68 61 63 66 68 69 72 78 78 81 83 83 86 72 72 75 82 82 85 69 68 71 87 86 89 79 79 82 76 76 79 80 81 84 57 59 62 53 56 59 52 56 59 62 67 70 67 71 74 66 68 71 60 61 64 45 50 53 44 49 52 44 49 52 60 65 68 50 55 58 60 65 68 55 60 63 57 62 65 47 52 55 48 53 56 45 50 53 55 60 63 60 65 68 62 67 70 50 55 58 62 67 70 51 56 59 46 51 54 48 53 56 62 67 70 51 56 59 41 46 49 48 53 56
22 26 27 22 26 27 22 26 27 87 91 91 86 90 90 73 77 77 22 26 27 69 73 73 77 81 81 86 90 90 86 90 90 22 26 27 76 80 80 72 76 76 93 97 97 87 91 91 71 71 71 67 67 67 67 67 67 112 77 112 69 69 69 75 75 75 72 72 72 65 65 65 71 71 71 68 68 68 72 72 72 60 60 60 62 62 62 60 60 60 77 77 77 61 61 61 66 66 66 26 26 24 26 26 24 26 26 24 26 26 24 211 177 48 206 184 48 212 182 48 214 182 48 215 185 48 215 183 48 210 177 48 205 182 48 207 176 48 208 180 48 208 179 48 216 182 48 16 18 18 16 18 18 16 18 18 16 18 18 16 18 18 16 18 18 16 18 18 16 18 18 16 18 18 214 185 48 215 180 48 207 176 48 215 176 48 16 18 18 16 18 18 16 18 18 16 18 18 16 18 18 16 18 18 16 18 18 16 18 18 16 18 18 16 18 18 16 18 18 16 18 18 16 18 18 16 18 18 16 18 18 213 177 48 16 18 18 16 18 18 16 18 18 215 181 48 206 182 48 214 179 48 205 184 48 209 176 48 205 182 48 205 180 48 214 177 48 215 184 48 206 176 48 215 178 48 215 178 48 214 179 48 208 176 48 205 183 48 212 182 48 207 180 48 209 183 48 206 184 48 205 179 48 208 180 48 211 179 48 208 176 48 215 181 48 207 177 48 26 26 24 26 26 24 26 26 24 26 26 24 70 70 70 74 74 74 64 64 64 71 71 71 67 67 67 62 62 62 67 67 67 60 60 60 60 60 60 61 61 61 76 76 76 61 61 61 112 77 112 90 79 118 94 79 117 22 26 27 22 26 27 22 26 27 22 26 27 22 26 27 22 26 27 22 26 27 22 26 27 22 26 27 109 110 101 88 90 84 102 103 95 92 94 87 108 109 100 95 97 90 99 100 93 108 109 101 98 100 93 98 100 93 99 101 93 98 100 93 87 90 84 82 85 80 22 26 27 22 26 27 22 26 27 85 87 82 91 93 87 100 102 94 90 92 86 94 96 89 22 26 27 22 26 27 22 26 27 22 26 27 22 26 27 22 26 27 22 26 27 22 26 27 22 26 27 22 26 27 22 26 27 22 26 27 22 26 27 22 26 27 22 26 27 22 26 27 22 26 27 22 26 27 22 26 27 22 26 27 22 26 27 82 82 85 62 62 65 77 78 81 75 76 79 72 74 77 49 53 56 47 51 54 50 55 58 43 47 50 47 51 54 67 70 73 65 67 70 55 57 60 61 62 65 71 72 75 76 77 80 75 76 79 68 68 71 80 80 83 77 77 80 87 87 90 64 64 67 86 86 89 86 86 89 74 74 77 77 76 79 81 81 84 70 70 73 83 83 86 65 65 68 59 60 63 61 62 65 79 80 83 71 73 76 72 75 78 65 69 72 54 58 61 61 66 69 50 54 57 53 56 59 58 60 63 67 68 71 61 62 65 82 82 85 87 86 89 80 79 82 73 72 75 87 86 89 75 75 78 69 69 72 67 68 71 77 79 82 60 63 66 50 54 57 62 67 70 54 57 60 61 62 65 56 61 64 46 51 54 56 61 64 59 64 67 50 55 58 43 48 51 53 58 61 47 52 55 49 54 57 56 61 64 61 66 69 41 46 49 58 63 66 49 54 57 62 67 70 60 65 68 64 69 72 54 59 62 44 49 52 41 46 49 51 56 59 46 51 54
22 26 27 22 26 27 22 26 27 74 78 78 69 73 73 92 96 96 22 26 27 75 79 79 70 74 74 84 88 88 89 93 93 22 26 27 82 86 86 83 87 87 86 90 90 82 86 86 77 77 77 63 63 63 75 75 75 75 75 75 73 73 73 77 77 77 73 73 73 71 71 71 73 73 73 68 68 68 69 69 69 66 66 66 65 65 65 68 68 68 73 73 73 73 73 73 62 62 62 26 26 24 26 26 24 26 26 24 26 26 24 208 181 48 207 183 48 211 183 48 215 176 48 209 177 48 207 185 48 213 183 48 207 185 48 207 185 48 205 183 48 206 177 48 216 184 48 16 18 18 16 18 18 16 18 18 16 18 18 16 18 18 16 18 18 16 18 18 16 18 18 16 18 18 207 182 48 215 177 48 211 183 48 211 182 48 16 18 18 16 18 18 16 18 18 16 18 18 16 18 18 16 18 18 16 18 18 16 18 18 16 18 18 16 18 18 16 18 18 16 18 18 16 18 18 16 18 18 16 18 18 216 185 48 16 18 18 16 18 18 16 18 18 216 180 48 209 179 48 214 185 48 208 179 48 209 180 48 215 177 48 215 182 48 208 179 48 205 181 48 206 176 48 214 177 48 210 176 48 210 177 48 213 184 48 214 178 48 206 179 48 207 179 48 209 184 48 212 181 48 205 182 48 215 185 48 205 177 48 214 184 48 209 182 48 211 177 48 26 26 24 26 26 24 26 26 24 26 26 24 78 78 78 73 73 73 61 61 61 61 61 61 72 72 72 65 65 65 78 78 78 72 72 72 67 67 67 62 62 62 67 67 67 104 80 117 74 74 74 67 67 67 72 72 72 22 26 27 22 26 27 22 26 27 22 26 27 22 26 27 22 26 27 22 26 27 22 26 27 22 26 27 89 91 85 88 91 85 98 100 92 85 88 82 96 98 90 92 94 88 93 95 88 104 105 97 96 98 91 82 85 80 105 107 98 87 90 84 88 90 84 90 92 86 22 26 27 22 26 27 22 26 27 90 92 86 89 92 86 81 84 79 104 105 97 100 102 94 22 26 27 22 26 27 22 26 27 22 26 27 22 26 27 22 26 27 22 26 27 22 26 27 22 26 27 22 26 27 22 26 27 22 26 27 22 26 27 22 26 27 22 26 27 22 26 27 22 26 27 22 26 27 22 26 27 22 26 27 22 26 27 64 64 67 61 62 65 56 58 61 66 70 73 59 63 66 58 62 65 53 56 59 69 72 75 58 59 62 61 63 66 76 76 79 74 74 77 63 63 66 70 69 72 87 87 90 78 77 80 87 86 89 78 77 80 90 89 92 78 77 80 88 87 90 85 84 87 68 67 70 85 84 87 89 88 91 77 76 79 78 77 80 78 77 80 76 75 78 68 67 70 87 86 89 66 65 68 86 86 89 71 71 74 83 83 86 63 64 67 79 80 83 55 57 60 50 53 56 48 52 55 58 63 66 68 72 75 52 55 58 59 61 64 69 70 73 71 71 74 77 77 80 69 68 71 78 77 80 76 75 78 79 78 81 78 78 81 81 82 85 66 68 71 50 53 56 57 61 64 60 63 66 64 66 69 78 79 82 53 58 61 45 50 53 52 57 60 62 67 70 60 65 68 60 65 68 64 69 72 49 54 57 47 52 55 62 67 70 56 61 64 59 64 67 63 68 71 51 56 59 48 53 56 43 48 51 57 62 65 53 58 61 58 63 66 54 59 62
22 26 27 22 26 27 22 26 27 89 93 93 77 81 81 91 95 95 22 26 27 84 88 88 83 87 87 89 93 93 73 77 77 22 26 27 86 90 90 85 89 89 86 90 90 80 84 84 70 70 70 78 78 78 66 66 66 72 72 72 74 74 74 67 67 67 70 70 70 71 71 71 77 77 77 64 64 64 77 77 77 72 72 72 77 77 77 72 72 72 79 79 79 75 75 75 77 77 77 26 26 24 26 26 24 26 26 24 26 26 24 214 183 48 210 178 48 213 181 48 208 181 48 213 181 48 208 183 48 205 176 48 209 184 48 214 182 48 206 178 48 214 181 48 207 183 48 16 18 18 16 18 18 16 18 18 16 18 18 16 18 18 16 18 18 16 18 18 16 18 18 16 18 18 211 178 48 215 183 48 209 183 48 209 178 48 16 18 18 16 18 18 16 18 18 16 18 18 16 18 18 16 18 18 16 18 18 16 18 18 16 18 18 16 18 18 16 18 18 16 18 18 16 18 18 16 18 18 16 18 18 215 185 48 16 18 18 16 18 18 16 18 18 211 185 48 208 179 48 210 184 48 205 178 48 207 184 48 216 180 48 210 182 48 213 182 48 210 184 48 213 183 48 205 184 48 211 177 48 212 185 48 211 183 48 207 177 48 214 184 48 212 176 48 214 177 48 205 181 48 209 181 48 207 185 48 211 180 48 209 178 48 211 178 48 208 184 48 26 26 24 26 26 24 26 26 24 26 26 24 78 78 78 66 66 66 79 79 79 62 62 62 79 79 79 72 72 72 76 76 76 69 69 69 107 82 119 67 67 67 66 66 66 77 77 77 77 77 77 71 71 71 65 65 65 22 26 27 22 26 27 22 26 27 22 26 27 22 26 27 22 26 27 22 26 27 22 26 27 22 26 27 84 87 82 95 97 90 99 101 93 102 104 96 101 103 95 98 100 92 108 109 101 86 89 83 93 95 88 103 105 97 83 86 81 96 98 91 96 98 91 88 91 85 22 26 27 22 26 27 22 26 27 81 84 79 87 90 84 89 91 85 91 94 87 102 103 95 22 26 27 22 26 27 22 26 27 22 26 27 22 26 27 22 26 27 22 26 27 22 26 27 22 26 27 22 26 27 22 26 27 22 26 27 22 26 27 22 26 27 22 26 27 22 26 27 22 26 27 22 26 27 22 26 27 22 26 27 22 26 27 58 61 64 55 59 62 54 59 62 54 58 61 58 61 64 62 64 67 68 70 73 74 75 78 71 71 74 79 78 81 74 73 76 78 77 80 68 67 70 90 89 92 69 68 71 72 72 75 74 73 76 81 81 84 84 83 86 71 70 73 80 80 83 65 65 68 68 68 71 74 74 77 64 64 67 75 75 78 70 69 72 68 68 71 75 74 77 73 72 75 80 79 82 78 77 80 68 67 70 70 69 72 65 64 67 71 70 73 77 77 80 72 73 76 69 70 73 67 69 72 54 57 60 61 65 68 43 48 51 61 66 69 71 74 77 67 69 72 79 79 82 84 84 87 84 83 86 72 71 74 70 69 72 66 65 68 71 70 73 67 67 70 72 74 77 69 72 75 57 61 64 50 54 57 73 76 79 71 72 75 54 59 62 47 52 55 57 62 65 61 66 69 58 63 66 60 65 68 54 59 62 52 57 60 41 46 49 41 46 49 41 46 49 55 60 63 63 68 71 62 67 70 59 64 67 49 54 57 45 50 53 63 68 71 41 46 49
22 26 27 22 26 27 22 26 27 86 90 90 86 90 90 73 77 77 22 26 27 72 76 76 82 86 86 72 76 76 74 78 78 22 26 27 69 73 73 89 93 93 79 83 83 91 95 95 70 70 70 68 68 68 75 75 75 70 70 70 75 75 75 67 67 67 79 79 79 79 79 79 75 75 75 73 73 73 77 77 77 82 82 82 73 73 73 79 79 79 68 68 68 78 78 78 114 84 121 26 26 24 26 26 24 26 26 24 26 26 24 213 182 48 216 182 48 208 184 48 214 184 48 214 185 48 210 179 48 211 180 48 209 176 48 214 184 48 207 180 48 208 176 48 205 177 48 16 18 18 16 18 18 16 18 18 16 18 18 16 18 18 16 18 18 16 18 18 16 18 18 16 18 18 216 179 48 205 184 48 213 176 48 209 185 48 16 18 18 16 18 18 16 18 18 16 18 18 16 18 18 16 18 18 16 18 18 16 18 18 16 18 18 16 18 18 16 18 18 16 18 18 16 18 18 16 18 18 16 18 18 209 183 48 16 18 18 16 18 18 16 18 18 215 178 48 205 176 48 208 180 48 215 179 48 206 181 48 206 176 48 207 184 48 211 179 48 213 183 48 207 177 48 213 178 48 216 179 48 214 178 48 212 185 48 216 182 48 205 177 48 206 181 48 207 176 48 209 178 48 213 176 48 209 180 48 208 185 48 214 180 48 206 177 48 206 179 48 26 26 24 26 26 24 26 26 24 26 26 24 71 71 71 73 73 73 80 80 80 73 73 73 103 85 124 67 67 67 69 69 69 79 79 79 104 85 124 80 80 80 70 70 70 65 65 65 82 82 82 78 78 78 115 84 121 22 26 27 22 26 27 22 26 27 22 26 27 22 26 27 22 26 27 22 26 27 22 26 27 22 26 27 105 106 98 106 107 99 96 98 91 108 109 101 93 95 88 89 92 86 103 105 97 83 85 80 103 104 96 85 88 82 87 89 84 85 88 82 99 100 93 91 93 87 22 26 27 22 26 27 22 26 27 87 90 84 107 108 100 107 108 100 103 104 96 105 106 98 22 26 27 22 26 27 22 26 27 22 26 27 22 26 27 22 26 27 22 26 27 22 26 27 22 26 27 22 26 27 22 26 27 22 26 27 22 26 27 22 26 27 22 26 27 22 26 27 22 26 27 22 26 27 22 26 27 22 26 27 22 26 27 46 51 54 57 61 64 60 63 66 56 58 61 59 60 63 67 67 70 70 70 73 71 70 73 89 88 91 72 71 74 72 71 74 70 69 72 74 74 77 86 86 89 71 71 74 81 82 85 80 81 84 60 61 64 74 75 78 69 70 73 55 57 60 69 70 73 61 62 65 69 70 73 70 72 75 78 79 82 77 79 82 81 82 85 71 72 75 68 68 71 63 63 66 76 76 79 75 74 77 76 75 78 84 83 86 71 70 73 80 79 82 70 69 72 68 67 70 81 81 84 76 77 80 61 62 65 59 61 64 56 59 62 58 62 65 61 65 68 53 56 59 62 64 67 80 80 83 65 65 68 86 85 88 86 85 88 87 86 89 68 67 70 67 68 71 60 62 65 62 64 67 58 62 65 51 55 58 68 71 74 78 80 83 63 68 71 42 47 50 44 49 52 45 50 53 46 51 54 50 55 58 62 67 70 64 69 72 62 67 70 56 61 64 41 46 49 47 52 55 62 67 70 53 58 61 56 61 64 47 52 55 42 47 50 48 53 56
22 26 27 22 26 27 22 26 27 87 91 91 74 78 78 91 95 95 22 26 27 74 78 78 70 74 74 69 73 73 71 75 75 22 26 27 87 91 91 76 80 80 82 86 86 91 95 95 77 77 77 116 89 127 80 80 80 85 85 85 76 76 76 77 77 77 79 79 79 68 68 68 86 86 86 86 86 86 75 75 75 84 84 84 120 88 126 81 81 81 122 88 125 83 83 83 77 77 77 26 26 24 26 26 24 26 26 24 26 26 24 210 181 48 208 179 48 209 178 48 206 185 48 209 179 48 205 178 48 207 182 48 209 184 48 206 181 48 206 185 48 216 182 48 216 176 48 16 18 18 16 18 18 16 18 18 16 18 18 16 18 18 16 18 18 16 18 18 16 18 18 16 18 18 215 179 48 215 182 48 216 184 48 208 184 48 16 18 18 16 18 18 16 18 18 16 18 18 16 18 18 16 18 18 16 18 18 16 18 18 16 18 18 16 18 18 16 18 18 16 18 18 16 18 18 16 18 18 16 18 18 206 183 48 16 18 18 16 18 18 16 18 18 215 182 48 205 180 48 210 178 48 205 178 48 207 178 48 214 181 48 206 181 48 206 177 48 212 184 48 207 180 48 208 184 48 206 184 48 209 179 48 216 177 48 214 178 48 212 177 48 215 185 48 213 181 48 213 179 48 210 185 48 211 183 48 207 181 48 210 183 48 214 185 48 215 182 48 26 26 24 26 26 24 26 26 24 26 26 24 80 80 80 76 76 76 80 80 80 75 75 75 73 73 73 77 77 77 85 85 85 121 88 126 80 80 80 79 79 79 81 81 81 74 74 74 82 82 82 77 77 77 80 80 80 22 26 27 22 26 27 22 26 27 22 26 27 22 26 27 22 26 27 22 26 27 22 26 27 22 26 27 105 106 98 88 90 84 104 105 97 94 96 89 104 105 97 101 102 95 91 94 87 84 86 81 82 85 80 106 107 99 104 105 97 98 100 92 86 89 83 93 95 88 22 26 27 22 26 27 22 26 27 83 86 80 83 86 81 88 90 84 80 83 78 100 101 94 22 26 27 22 26 27 22 26 27 22 26 27 22 26 27 22 26 27 22 26 27 22 26 27 22 26 27 22 26 27 22 26 27 22 26 27 22 26 27 22 26 27 22 26 27 22 26 27 22 26 27 22 26 27 22 26 27 22 26 27 22 26 27 51 54 57 71 73 76 67 68 71 63 63 66 73 72 75 70 70 73 71 70 73 86 85 88 81 80 83 67 67 70 68 68 71 79 79 82 81 82 85 59 61 64 76 78 81 51 53 56 53 56 59 50 53 56 48 51 54 60 64 67 56 60 63 66 70 73 55 59 62 62 66 69 58 63 66 51 55 58 64 68 71 60 64 67 58 61 64 57 60 63 74 76 79 59 61 64 56 58 61 68 68 71 61 61 64 86 86 89 69 69 72 71 70 73 89 88 91 89 88 91 89 88 91 74 73 76 78 78 81 72 73 76 67 70 73 61 65 68 48 53 56 69 72 75 68 71 74 66 68 71 77 77 80 88 87 90 67 66 69 90 89 92 73 73 76 77 77 80 67 68 71 68 70 73 62 66 69 52 56 59 59 62 65 70 71 74 53 58 61 45 50 53 55 60 63 53 58 61 64 69 72 44 49 52 54 59 62 42 47 50 63 68 71 48 53 56 43 48 51 45 50 53 41 46 49 54 59 62 48 53 56 42 47 50 64 69 72
22 26 27 22 26 27 22 26 27 76 80 80 92 96 96 74 78 78 22 26 27 80 84 84 75 79 79 74 78 78 80 84 84 22 26 27 86 90 90 93 97 97 80 84 84 76 80 80 80 80 80 90 90 90 87 87 87 76 76 76 120 95 134 73 73 73 74 74 74 74 74 74 74 74 74 89 89 89 80 80 80 84 84 84 77 77 77 74 74 74 85 85 85 76 76 76 75 75 75 26 26 24 26 26 24 26 26 24 26 26 24 209 182 48 207 180 48 209 185 48 208 181 48 205 177 48 210 183 48 213 181 48 206 180 48 207 180 48 208 183 48 210 178 48 210 178 48 16 18 18 16 18 18 16 18 18 16 18 18 16 18 18 16 18 18 16 18 18 16 18 18 16 18 18 205 179 48 210 184 48 208 180 48 214 183 48 16 18 18 16 18 18 16 18 18 16 18 18 16 18 18 16 18 18 16 18 18 16 18 18 16 18 18 16 18 18 16 18 18 16 18 18 16 18 18 16 18 18 16 18 18 212 182 48 16 18 18 16 18 18 16 18 18 214 178 48 211 181 48 209 177 48 208 176 48 206 185 48 213 181 48 208 177 48 210 177 48 206 177 48 212 179 48 208 181 48 207 184 48 210 178 48 205 185 48 212 177 48 214 184 48 207 180 48 212 178 48 205 181 48 207 179 48 214 182 48 214 180 48 207 177 48 210 179 48 215 184 48 26 26 24 26 26 24 26 26 24 26 26 24 82 82 82 86 86 86 130 94 132 81 81 81 87 87 87 88 88 88 89 89 89 79 79 79 74 74 74 77 77 77 88 88 88 76 76 76 80 80 80 75 75 75 90 90 90 22 26 27 22 26 27 22 26 27 22 26 27 22 26 27 22 26 27 22 26 27 22 26 27 22 26 27 83 86 80 95 97 90 81 84 79 96 98 91 101 103 95 89 92 86 88 91 85 107 108 99 93 96 89 103 105 96 104 105 97 88 90 84 83 86 80 107 109 100 22 26 27 22 26 27 22 26 27 97 99 92 83 86 80 99 101 93 105 107 98 88 90 84 22 26 27 22 26 27 22 26 27 22 26 27 22 26 27 22 26 27 22 26 27 22 26 27 22 26 27 22 26 27 22 26 27 22 26 27 22 26 27 22 26 27 22 26 27 22 26 27 22 26 27 22 26 27 22 26 27 22 26 27 22 26 27 77 78 81 68 68 71 74 73 76 75 74 77 78 77 80 81 81 84 66 66 69 72 72 75 73 74 77 64 65 68 76 78 81 61 64 67 48 51 54 59 63 66 46 51 54 59 64 67 63 68 71 50 54 57 70 73 76 52 55 58 50 53 56 52 55 58 67 69 72 49 52 55 66 69 72 49 52 55 66 70 73 62 65 68 46 50 53 61 66 69 47 52 55 64 68 71 55 59 62 68 71 74 52 54 57 61 63 66 63 64 67 74 74 77 73 73 76 67 66 69 80 79 82 68 67 70 73 72 75 67 67 70 59 60 63 69 70 73 73 75 78 44 48 51 65 70 73 65 68 71 66 68 71 70 71 74 78 78 81 80 80 83 79 78 81 76 75 78 80 80 83 77 78 81 55 58 61 44 48 51 52 56 59 70 73 76 66 68 71 55 60 63 59 64 67 47 52 55 42 47 50 57 62 65 43 48 51 45 50 53 49 54 57 41 46 49 61 66 69 48 53 56 62 67 70 62 67 70 45 50 53 55 60 63 54 59 62
22 26 27 22 26 27 22 26 27 78 82 82 74 78 78 81 85 85 22 26 27 80 84 84 72 76 76 78 82 82 72 76 76 22 26 27 76 80 80 83 87 87 90 94 94 86 90 90 79 79 79 89 89 89 87 87 87 87 87 87 90 90 90 91 91 91 92 92 92 91 91 91 92 92 92 77 77 77 82 82 82 92 92 92 81 81 81 91 91 91 90 90 90 82 82 82 83 83 83 26 26 24 26 26 24 26 26 24 26 26 24 210 182 48 216 179 48 212 183 48 214 182 48 215 183 48 215 176 48 213 177 48 208 180 48 211 178 48 211 184 48 214 177 48 214 179 48 16 18 18 16 18 18 16 18 18 16 18 18 16 18 18 16 18 18 16 18 18 16 18 18 16 18 18 210 179 48 206 184 48 205 176 48 207 185 48 16 18 18 16 18 18 16 18 18 16 18 18 16 18 18 16 18 18 16 18 18 16 18 18 16 18 18 16 18 18 16 18 18 16 18 18 16 18 18 16 18 18 16 18 18 213 184 48 16 18 18 16 18 18 16 18 18 215 177 48 213 181 48 206 177 48 215 182 48 212 177 48 208 181 48 206 183 48 210 179 48 208 176 48 216 184 48 207 183 48 215 183 48 215 178 48 213 183 48 208 176 48 206 184 48 213 177 48 207 177 48 216 184 48 214 178 48 206 176 48 206 184 48 214 182 48 216 183 48 206 180 48 26 26 24 26 26 24 26 26 24 26 26 24 90 90 90 88 88 88 91 91 91 83 83 83 91 91 91 90 90 90 92 92 92 82 82 82 88 88 88 83 83 83 83 83 83 91 91 91 90 90 90 91 91 91 86 86 86 22 26 27 22 26 27 22 26 27 22 26 27 22 26 27 22 26 27 22 26 27 22 26 27 22 26 27 84 87 81 91 93 87 106 108 99 101 103 95 86 88 83 96 98 91 92 94 88 88 91 84 96 98 90 86 89 83 107 108 100 83 86 81 97 99 92 108 109 100 22 26 27 22 26 27 22 26 27 89 92 85 97 99 91 90 93 86 87 89 83 103 104 96 22 26 27 22 26 27 22 26 27 22 26 27 22 26 27 22 26 27 22 26 27 22 26 27 22 26 27 22 26 27 22 26 27 22 26 27 22 26 27 22 26 27 22 26 27 22 26 27 22 26 27 22 26 27 22 26 27 22 26 27 22 26 27 73 73 76 88 87 90 68 67 70 72 72 75 68 67 70 68 69 72 65 66 69 70 71 74 56 58 61 56 59 62 57 61 64 62 67 70 54 58 61 67 70 73 62 65 68 60 62 65 66 67 70 65 67 70 74 75 78 61 61 64 67 68 71 63 63 66 75 75 78 74 74 77 62 63 66 63 63 66 62 63 66 70 71 74 58 60 63 68 69 72 74 77 80 60 63 66 64 67 70 43 48 51 58 63 66 67 71 74 53 56 59 66 68 71 70 71 74 70 71 74 70 70 73 88 87 90 82 81 84 71 70 73 77 77 80 79 79 82 68 69 72 60 62 65 66 70 73 61 66 69 64 67 70 72 74 77 73 74 77 69 69 72 74 73 76 86 85 88 75 74 77 64 64 67 80 81 84 68 71 74 46 50 53 60 64 67 67 70 73 68 69 72 62 67 70 50 55 58 61 66 69 62 67 70 48 53 56 54 59 62 48 53 56 49 54 57 47 52 55 64 69 72 43 48 51 58 63 66 46 51 54 59 64 67 40 45 48
22 26 27 22 26 27 22 26 27 84 88 88 78 82 82 72 76 76 22 26 27 72 76 76 76 80 80 77 81 81 73 77 77 22 26 27 92 96 96 70 74 74 88 92 92 72 76 76 87 87 87 91 91 91 84 84 84 82 82 82 84 84 84 85 85 85 82 82 82 94 94 94 85 85 85 87 87 87 86 86 86 132 107 147 93 93 93 91 91 91 93 93 93 90 90 90 91 91 91 26 26 24 26 26 24 26 26 24 26 26 24 211 182 48 206 184 48 214 185 48 214 181 48 213 183 48 209 184 48 214 178 48 213 180 48 213 177 48 212 176 48 208 180 48 214 182 48 16 18 18 16 18 18 16 18 18 16 18 18 16 18 18 16 18 18 16 18 18 16 18 18 16 18 18 213 179 48 213 178 48 213 183 48 213 176 48 16 18 18 16 18 18 16 18 18 16 18 18 16 18 18 16 18 18 16 18 18 16 18 18 16 18 18 16 18 18 16 18 18 16 18 18 16 18 18 16 18 18 16 18 18 205 178 48 16 18 18 16 18 18 16 18 18 208 185 48 214 182 48 214 176 48 211 181 48 210 180 48 216 185 48 208 179 48 206 177 48 207 178 48 209 181 48 207 181 48 213 181 48 208 183 48 208 176 48 215 185 48 211 176 48 213 179 48 213 180 48 206 181 48 215 184 48 215 180 48 205 176 48 215 180 48 212 177 48 205 177 48 26 26 24 26 26 24 26 26 24 26 26 24 91 91 91 91 91 91 82 82 82 93 93 93 92 92 92 86 86 86 86 86 86 91 91 91 88 88 88 81 81 81 92 92 92 92 92 92 92 92 92 93 93 93 82 82 82 22 26 27 22 26 27 22 26 27 22 26 27 22 26 27 22 26 27 22 26 27 22 26 27 22 26 27 84 87 81 87 89 84 88 91 85 95 97 90 84 86 81 90 92 86 93 95 88 91 93 87 86 88 82 91 94 87 92 95 88 105 106 98 86 89 83 93 96 89 22 26 27 22 26 27 22 26 27 96 98 91 94 96 89 89 92 85 109 110 102 100 102 94 22 26 27 22 26 27 22 26 27 22 26 27 22 26 27 22 26 27 22 26 27 22 26 27 22 26 27 22 26 27 22 26 27 22 26 27 22 26 27 22 26 27 22 26 27 22 26 27 22 26 27 22 26 27 22 26 27 22 26 27 22 26 27 68 67 70 88 87 90 68 68 71 85 85 88 80 81 84 70 72 75 54 56 59 62 66 69 50 55 58 66 70 73 62 65 68 66 68 71 76 78 81 60 61 64 62 62 65 73 73 76 84 84 87 87 86 89 66 66 69 68 67 70 86 85 88 87 86 89 87 86 89 70 69 72 86 85 88 85 84 87 70 69 72 73 72 75 83 83 86 76 76 79 85 85 88 65 65 68 59 60 63 64 66 69 62 65 68 64 68 71 48 52 55 57 61 64 49 52 55 69 71 74 75 76 79 71 71 74 77 76 79 86 86 89 68 67 70 76 75 78 73 73 76 70 71 74 65 67 70 67 70 73 50 54 57 62 66 69 63 65 68 62 63 66 85 85 88 79 78 81 87 86 89 71 70 73 78 78 81 61 62 65 54 56 59 54 59 62 63 67 70 69 72 75 67 68 71 55 60 63 56 61 64 48 53 56 63 68 71 51 56 59 50 55 58 53 58 61 61 66 69 54 59 62 57 62 65 64 69 72 60 65 68 50 55 58 56 61 64
22 26 27 22 26 27 22 26 27 78 82 82 71 75 75 86 90 90 22 26 27 82 86 86 69 73 73 78 82 82 74 78 78 22 26 27 92 96 96 86 90 90 80 84 84 74 78 78 92 92 92 85 85 85 85 85 85 92 92 92 93 93 93 83 83 83 90 90 90 91 91 91 145 108 147 93 93 93 90 90 90 86 86 86 128 110 152 92 92 92 91 91 91 94 94 94 92 92 92 26 26 24 26 26 24 26 26 24 26 26 24 212 177 48 206 184 48 210 177 48 209 183 48 211 176 48 207 184 48 208 184 48 206 184 48 214 180 48 213 177 48 216 178 48 206 185 48 16 18 18 16 18 18 16 18 18 16 18 18 16 18 18 16 18 18 16 18 18 16 18 18 16 18 18 207 183 48 212 183 48 216 185 48 205 182 48 16 18 18 16 18 18 16 18 18 16 18 18 16 18 18 16 18 18 16 18 18 16 18 18 16 18 18 16 18 18 16 18 18 16 18 18 16 18 18 16 18 18 16 18 18 211 179 48 16 18 18 16 18 18 16 18 18 207 184 48 206 182 48 205 177 48 207 182 48 210 182 48 212 183 48 212 185 48 207 179 48 211 184 48 213 183 48 205 182 48 206 176 48 212 180 48 215 176 48 209 178 48 208 181 48 209 183 48 216 178 48 208 180 48 211 176 48 206 183 48 206 183 48 212 183 48 208 179 48 211 181 48 26 26 24 26 26 24 26 26 24 26 26 24 83 83 83 93 93 93 91 91 91 92 92 92 91 91 91 88 88 88 92 92 92 92 92 92 89 89 89 86 86 86 93 93 93 91 91 91 92 92 92 94 94 94 91 91 91 22 26 27 22 26 27 22 26 27 22 26 27 22 26 27 22 26 27 22 26 27 22 26 27 22 26 27 100 102 94 93 95 88 95 97 90 80 83 78 107 108 100 97 99 92 86 89 83 86 89 83 83 86 81 90 92 86 86 88 82 100 102 94 99 101 93 86 88 83 22 26 27 22 26 27 22 26 27 104 106 97 95 97 90 101 103 95 86 88 83 103 104 96 22 26 27 22 26 27 22 26 27 22 26 27 22 26 27 22 26 27 22 26 27 22 26 27 22 26 27 22 26 27 22 26 27 22 26 27 22 26 27 22 26 27 22 26 27 22 26 27 22 26 27 22 26 27 22 26 27 22 26 27 22 26 27 87 86 89 77 77 80 68 68 71 72 74 77 63 66 69 47 51 54 55 59 62 63 66 69 51 54 57 69 71 74 61 62 65 80 80 83 77 77 80 88 88 91 84 83 86 69 68 71 84 83 86 78 77 80 72 71 74 69 68 71 75 75 78 82 81 84 76 75 78 66 65 68 72 71 74 79 79 82 77 76 79 80 79 82 88 87 90 73 72 75 72 72 75 75 74 77 66 66 69 74 75 78 75 76 79 65 66 69 68 70 73 62 66 69 57 62 65 65 69 72 64 67 70 66 68 71 82 83 86 75 75 78 83 82 85 89 88 91 78 77 80 68 67 70 82 83 86 59 61 64 57 60 63 54 58 61 60 64 67 70 73 76 67 68 71 65 65 68 69 68 71 72 71 74 66 65 68 67 68 71 58 60 63 51 53 56 52 57 60 50 53 56 66 68 71 77 78 81 48 53 56 51 56 59 47 52 55 45 50 53 40 45 48 48 53 56 48 53 56 49 54 57 50 55 58 45 50 53 50 55 58 64 69 72 57 62 65
22 26 27 22 26 27 22 26 27 82 86 86 82 86 86 88 92 92 22 26 27 73 77 77 72 76 76 88 92 92 86 90 90 22 26 27 83 87 87 93 97 97 70 74 74 73 77 77 92 92 92 91 91 91 93 93 93 94 94 94 91 91 91 94 94 94 92 92 92 91 91 91 88 88 88 94 94 94 88 88 88 93 93 93 89 89 89 93 93 93 86 86 86 86 86 86 91 91 91 26 26 24 26 26 24 26 26 24 26 26 24 212 182 48 212 180 48 215 185 48 213 181 48 211 183 48 207 179 48 205 184 48 211 182 48 213 181 48 207 185 48 214 183 48 214 181 48 16 18 18 16 18 18 16 18 18 16 18 18 16 18 18 16 18 18 16 18 18 16 18 18 16 18 18 211 184 48 207 184 48 209 180 48 208 180 48 16 18 18 16 18 18 16 18 18 16 18 18 16 18 18 16 18 18 16 18 18 16 18 18 16 18 18 16 18 18 16 18 18 16 18 18 16 18 18 16 18 18 16 18 18 207 182 48 16 18 18 16 18 18 16 18 18 206 181 48 208 185 48 213 180 48 210 176 48 213 179 48 216 181 48 214 177 48 214 180 48 208 179 48 212 179 48 208 179 48 211 176 48 211 181 48 209 179 48 209 180 48 208 179 48 207 179 48 205 176 48 205 177 48 214 178 48 207 177 48 206 178 48 212 177 48 213 181 48 216 179 48 26 26 24 26 26 24 26 26 24 26 26 24 83 83 83 93 93 93 83 83 83 88 88 88 85 85 85 93 93 93 92 92 92 83 83 83 92 92 92 82 82 82 84 84 84 93 93 93 89 89 89 93 93 93 85 85 85 22 26 27 22 26 27 22 26 27 22 26 27 22 26 27 22 26 27 22 26 27 22 26 27 22 26 27 97 99 91 102 103 95 81 84 79 90 92 86 89 91 85 94 96 89 103 104 96 94 96 89 83 86 81 106 107 99 97 99 92 95 97 90 89 91 85 109 110 101 22 26 27 22 26 27 22 26 27 91 94 87 94 96 89 108 109 101 87 89 83 108 109 101 22 26 27 22 26 27 22 26 27 22 26 27 22 26 27 22 26 27 22 26 27 22 26 27 22 26 27 22 26 27 22 26 27 22 26 27 22 26 27 22 26 27 22 26 27 22 26 27 22 26 27 22 26 27 22 26 27 22 26 27 22 26 27 67 67 70 77 77 80 65 68 71 56 59 62 52 57 60 55 59 62 74 77 80 71 73 76 73 74 77 65 65 68 80 79 82 81 81 84 67 66 69 72 71 74 83 83 86 78 77 80 66 65 68 72 72 75 82 82 85 61 61 64 68 68 71 74 75 78 74 75 78 68 69 72 79 79 82 70 71 74 74 74 77 78 78 81 72 72 75 69 69 72 78 77 80 77 76 79 80 79 82 84 83 86 74 73 76 80 80 83 75 75 78 70 72 75 75 77 80 54 57 60 55 60 63 67 71 74 54 57 60 79 80 83 82 83 86 83 82 85 81 80 83 79 78 81 70 70 73 68 68 71 72 73 76 51 54 57 62 66 69 67 71 74 64 66 69 74 75 78 83 83 86 66 65 68 77 76 79 79 79 82 71 71 74 72 74 77 55 58 61 56 61 64 48 51 54 70 71 74 42 47 50 44 49 52 42 47 50 41 46 49 47 52 55 56 61 64 60 65 68 53 58 61 49 54 57 49 54 57 46 51 54 52 57 60 47 52 55
22 26 27 22 26 27 22 26 27 93 97 97 87 91 91 71 75 75 22 26 27 89 93 93 77 81 81 91 95 95 82 86 86 22 26 27 75 79 79 89 93 93 82 86 86 75 79 79 93 93 93 86 86 86 92 92 92 80 80 80 83 83 83 93 93 93 93 93 93 93 93 93 90 90 90 89 89 89 84 84 84 92 92 92 82 82 82 88 88 88 93 93 93 88 88 88 82 82 82 26 26 24 26 26 24 26 26 24 26 26 24 206 182 48 207 182 48 206 185 48 207 179 48 205 183 48 215 176 48 214 184 48 215 184 48 209 176 48 213 184 48 214 182 48 207 183 48 16 18 18 16 18 18 16 18 18 16 18 18 16 18 18 16 18 18 16 18 18 16 18 18 16 18 18 211 181 48 211 185 48 206 178 48 206 180 48 16 18 18 16 18 18 16 18 18 16 18 18 16 18 18 16 18 18 16 18 18 16 18 18 16 18 18 16 18 18 16 18 18 16 18 18 16 18 18 16 18 18 16 18 18 216 185 48 16 18 18 16 18 18 16 18 18 214 185 48 207 178 48 212 178 48 213 180 48 205 183 48 214 178 48 214 177 48 212 176 48 214 182 48 213 180 48 213 179 48 213 179 48 215 184 48 206 180 48 206 179 48 212 180 48 207 182 48 213 178 48 214 183 48 206 181 48 214 176 48 208 177 48 206 185 48 208 182 48 213 182 48 26 26 24 26 26 24 26 26 24 26 26 24 91 91 91 90 90 90 79 79 79 90 90 90 92 92 92 92 92 92 90 90 90 89 89 89 86 86 86 84 84 84 91 91 91 92 92 92 85 85 85 92 92 92 79 79 79 22 26 27 22 26 27 22 26 27 22 26 27 22 26 27 22 26 27 22 26 27 22 26 27 22 26 27 108 109 100 98 100 92 106 108 99 83 86 81 81 84 79 85 88 82 84 87 81 82 85 80 90 92 86 105 106 98 101 102 95 88 91 85 81 84 79 92 94 87 22 26 27 22 26 27 22 26 27 86 89 83 86 89 83 94 96 89 102 104 96 101 102 94 22 26 27 22 26 27 22 26 27 22 26 27 22 26 27 22 26 27 22 26 27 22 26 27 22 26 27 22 26 27 22 26 27 22 26 27 22 26 27 22 26 27 22 26 27 22 26 27 22 26 27 22 26 27 22 26 27 22 26 27 22 26 27 74 75 78 53 56 59 54 58 61 51 56 59 64 67 70 55 57 60 79 80 83 63 63 66 75 75 78 68 67 70 77 76 79 73 73 76 79 79 82 81 80 83 82 82 85 60 61 64 76 77 80 64 66 69 53 55 58 55 57 60 53 55 58 58 61 64 65 68 71 51 54 57 50 53 56 63 66 69 74 76 79 75 77 80 70 72 75 62 63 66 61 61 64 70 70 73 70 69 72 79 78 81 82 81 84 80 79 82 81 80 83 83 83 86 78 78 81 71 72 75 54 57 60 45 48 51 43 47 50 63 66 69 72 74 77 62 63 66 75 75 78 83 83 86 68 67 70 89 88 91 64 64 67 65 66 69 57 59 62 56 61 64 57 61 64 68 70 73 63 64 67 81 81 84 84 83 86 79 78 81 80 79 82 72 73 76 67 69 72 61 64 67 43 48 51 59 62 65 74 75 78 58 63 66 55 60 63 52 57 60 52 57 60 47 52 55 61 66 69 54 59 62 56 61 64 63 68 71 62 67 70 60 65 68 54 59 62
22 26 27 22 26 27 22 26 27 81 85 85 82 86 86 84 88 88 22 26 27 90 94 94 85 89 89 92 96 96 88 92 92 22 26 27 76 80 80 89 93 93 80 84 84 82 86 86 91 91 91 85 85 85 87 87 87 83 83 83 82 82 82 81 81 81 80 80 80 82 82 82 87 87 87 77 77 77 91 91 91 79 79 79 79 79 79 80 80 80 77 77 77 88 88 88 89 89 89 26 26 24 26 26 24 26 26 24 26 26 24 213 183 48 207 185 48 206 181 48 216 181 48 210 182 48 207 178 48 213 184 48 211 180 48 213 176 48 206 178 48 205 177 48 208 181 48 16 18 18 16 18 18 16 18 18 16 18 18 16 18 18 16 18 18 16 18 18 16 18 18 16 18 18 211 176 48 213 180 48 215 181 48 208 177 48 16 18 18 16 18 18 16 18 18 16 18 18 16 18 18 16 18 18 16 18 18 16 18 18 16 18 18 16 18 18 16 18 18 16 18 18 16 18 18 16 18 18 16 18 18 211 182 48 16 18 18 16 18 18 16 18 18 210 181 48 205 179 48 211 178 48 216 185 48 211 183 48 206 182 48 208 180 48 213 177 48 213 178 48 206 180 48 210 176 48 209 179 48 216 180 48 213 184 48 205 180 48 211 183 48 216 177 48 211 178 48 210 184 48 213 184 48 212 181 48 205 177 48 211 182 48 211 179 48 214 178 48 26 26 24 26 26 24 26 26 24 26 26 24 92 92 92 90 90 90 75 75 75 85 85 85 76 76 76 77 77 77 84 84 84 77 77 77 76 76 76 91 91 91 83 83 83 83 83 83 87 87 87 83 83 83 90 90 90 22 26 27 22 26 27 22 26 27 22 26 27 22 26 27 22 26 27 22 26 27 22 26 27 22 26 27 109 110 101 83 86 81 99 101 94 97 99 92 90 92 86 92 95 88 96 98 91 93 96 89 84 86 81 86 89 83 91 93 87 81 84 79 105 106 98 102 103 96 22 26 27 22 26 27 22 26 27 107 108 99 96 98 91 104 105 97 93 95 89 104 105 97 22 26 27 22 26 27 22 26 27 22 26 27 22 26 27 22 26 27 22 26 27 22 26 27 22 26 27 22 26 27 22 26 27 22 26 27 22 26 27 22 26 27 22 26 27 22 26 27 22 26 27 22 26 27 22 26 27 22 26 27 22 26 27 55 58 61 46 51 54 50 54 57 62 64 67 80 81 84 70 70 73 79 78 81 74 73 76 71 70 73 83 82 85 68 67 70 68 68 71 67 68 71 64 66 69 72 74 77 60 64 67 66 70 73 54 58 61 51 55 58 54 59 62 46 50 53 60 65 68 59 63 66 46 50 53 55 59 62 47 51 54 50 55 58 51 55 58 63 67 70 54 58 61 66 68 71 55 57 60 68 69 72 82 83 86 65 65 68 88 87 90 79 78 81 87 86 89 82 81 84 67 67 70 62 63 66 54 56 59 67 70 73 40 45 48 58 61 64 75 77 80 60 60 63 68 68 71 79 79 82 86 85 88 75 75 78 68 68 71 63 65 68 55 58 61 54 59 62 58 61 64 70 72 75 69 69 72 69 68 71 89 88 91 78 78 81 79 78 81 73 74 77 66 68 71 46 50 53 50 54 57 61 63 66 82 83 86 55 60 63 58 63 66 55 60 63 44 49 52 53 58 61 63 68 71 52 57 60 46 51 54 63 68 71 51 56 59 59 64 67
22 26 27 22 26 27 22 26 27 83 87 87 91 95 95 70 74 74 22 26 27 70 74 74 77 81 81 74 78 78 71 75 75 22 26 27 89 93 93 71 75 75 77 81 81 70 74 74 85 85 85 85 85 85 81 81 81 81 81 81 70 70 70 75 75 75 83 83 83 82 82 82 75 75 75 85 85 85 87 87 87 124 92 130 74 74 74 78 78 78 73 73 73 77 77 77 88 88 88 26 26 24 26 26 24 26 26 24 26 26 24 206 180 48 214 182 48 216 183 48 211 178 48 205 184 48 207 183 48 207 176 48 207 185 48 216 184 48 209 178 48 205 178 48 215 180 48 16 18 18 16 18 18 16 18 18 16 18 18 16 18 18 16 18 18 16 18 18 16 18 18 16 18 18 205 184 48 215 183 48 212 176 48 208 184 48 16 18 18 16 18 18 16 18 18 16 18 18 16 18 18 16 18 18 16 18 18 16 18 18 16 18 18 16 18 18 16 18 18 16 18 18 16 18 18 16 18 18 16 18 18 209 179 48 16 18 18 16 18 18 16 18 18 212 185 48 213 178 48 208 180 48 211 180 48 216 176 48 216 182 48 214 177 48 216 178 48 213 185 48 216 181 48 211 185 48 205 178 48 209 184 48 208 182 48 214 178 48 205 184 48 213 178 48 214 176 48 212 178 48 216 179 48 208 180 48 205 179 48 207 180 48 214 177 48 206 177 48 26 26 24 26 26 24 26 26 24 26 26 24 71 71 71 76 76 76 118 92 131 72 72 72 74 74 74 88 88 88 84 84 84 83 83 83 122 92 130 83 83 83 80 80 80 88 88 88 82 82 82 82 82 82 81 81 81 22 26 27 22 26 27 22 26 27 22 26 27 22 26 27 22 26 27 22 26 27 22 26 27 22 26 27 102 104 96 102 104 96 95 97 90 94 96 89 85 87 82 82 85 79 93 95 88 89 91 85 83 86 80 110 111 102 100 101 94 91 93 86 104 105 97 106 108 99 22 26 27 22 26 27 22 26 27 81 84 79 108 109 100 81 83 78 96 98 91 98 100 92 22 26 27 22 26 27 22 26 27 22 26 27 22 26 27 22 26 27 22 26 27 22 26 27 22 26 27 22 26 27 22 26 27 22 26 27 22 26 27 22 26 27 22 26 27 22 26 27 22 26 27 22 26 27 22 26 27 22 26 27 22 26 27 63 68 71 69 72 75 70 72 75 71 72 75 73 73 76 68 67 70 67 66 69 89 88 91 65 64 67 67 67 70 65 66 69 68 69 72 55 58 61 69 73 76 61 66 69 62 66 69 66 70 73 51 54 57 67 70 73 57 59 62 60 62 65 56 58 61 71 73 76 58 60 63 59 60 63 66 67 70 59 61 64 51 54 57 61 65 68 52 56 59 53 58 61 63 68 71 53 56 59 65 67 70 62 63 66 72 72 75 67 67 70 89 88 91 74 73 76 73 73 76 71 71 74 63 64 67 66 68 71 57 60 63 50 55 58 53 57 60 63 65 68 73 73 76 83 83 86 86 86 89 81 80 83 70 69 72 82 82 85 62 64 67 64 67 70 50 55 58 50 53 56 77 78 81 69 69 72 84 83 86 66 65 68 71 70 73 66 66 69 55 56 59 65 69 72 48 53 56 52 55 58 66 67 70 50 55 58 44 49 52 54 59 62 43 48 51 57 62 65 53 58 61 45 50 53 50 55 58 49 54 57 55 60 63 63 68 71
22 26 27 22 26 27 22 26 27 73 77 77 70 74 74 77 81 81 22 26 27 70 74 74 76 80 80 91 95 95 88 92 92 22 26 27 75 79 79 82 86 86 89 93 93 74 78 78 69 69 69 81 81 81 74 74 74 84 84 84 83 83 83 78 78 78 69 69 69 73 73 73 71 71 71 79 79 79 71 71 71 77 77 77 78 78 78 78 78 78 66 66 66 67 67 67 82 82 82 26 26 24 26 26 24 26 26 24 26 26 24 212 183 48 207 185 48 212 185 48 206 184 48 214 182 48 209 182 48 210 182 48 208 183 48 212 179 48 208 185 48 209 178 48 215 181 48 16 18 18 16 18 18 16 18 18 16 18 18 16 18 18 16 18 18 16 18 18 16 18 18 16 18 18 206 183 48 208 184 48 216 180 48 214 179 48 16 18 18 16 18 18 16 18 18 16 18 18 16 18 18 16 18 18 16 18 18 16 18 18 16 18 18 16 18 18 16 18 18 16 18 18 16 18 18 16 18 18 16 18 18 208 185 48 16 18 18 16 18 18 16 18 18 212 179 48 211 185 48 214 179 48 215 180 48 213 177 48 210 176 48 205 177 48 207 176 48 211 178 48 216 184 48 210 176 48 206 184 48 214 177 48 215 179 48 214 181 48 209 180 48 206 178 48 209 178 48 208 181 48 214 184 48 213 180 48 210 176 48 210 178 48 211 183 48 211 179 48 26 26 24 26 26 24 26 26 24 26 26 24 73 73 73 103 88 128 70 70 70 83 83 83 70 70 70 76 76 76 67 67 67 71 71 71 67 67 67 81 81 81 84 84 84 82 82 82 83 83 83 125 85 122 84 84 84 22 26 27 22 26 27 22 26 27 22 26 27 22 26 27 22 26 27 22 26 27 22 26 27 22 26 27 92 94 88 87 89 83 90 92 86 87 90 84 87 89 83 108 109 100 94 96 89 86 88 83 96 98 91 94 96 89 99 101 93 108 109 100 80 83 78 94 96 89 22 26 27 22 26 27 22 26 27 109 110 101 104 106 97 93 95 88 101 103 95 87 90 84 22 26 27 22 26 27 22 26 27 22 26 27 22 26 27 22 26 27 22 26 27 22 26 27 22 26 27 22 26 27 22 26 27 22 26 27 22 26 27 22 26 27 22 26 27 22 26 27 22 26 27 22 26 27 22 26 27 22 26 27 22 26 27 55 59 62 71 73 76 82 83 86 79 78 81 85 84 87 70 69 72 85 84 87 82 81 84 79 80 83 72 74 77 67 70 73 57 61 64 51 56 59 70 74 77 57 60 63 70 72 75 57 58 61 75 76 79 70 70 73 81 81 84 78 77 80 80 80 83 77 77 80 64 64 67 81 81 84 72 72 75 69 69 72 65 65 68 68 69 72 69 70 73 64 66 69 63 66 69 62 66 69 58 63 66 58 62 65 66 68 71 63 64 67 78 78 81 78 78 81 75 74 77 83 82 85 74 73 76 65 65 68 56 57 60 67 70 73 49 54 57 51 55 58 60 62 65 68 69 72 71 71 74 89 88 91 67 66 69 75 75 78 60 60 63 73 75 78 56 60 63 52 57 60 66 69 72 58 59 62 79 79 82 73 72 75 79 78 81 80 80 83 81 82 85 71 73 76 64 68 71 56 60 63 66 68 71 68 69 72 58 63 66 59 64 67 43 48 51 53 58 61 51 56 59 54 59 62 45 50 53 53 58 61 63 68 71 43 48 51
22 26 27 22 26 27 22 26 27 80 84 84 91 95 95 87 91 91 22 26 27 81 85 85 81 85 85 90 94 94 75 79 79 22 26 27 74 78 78 69 73 73 87 91 91 77 81 81 66 66 66 81 81 81 75 75 75 66 66 66 79 79 79 79 79 79 75 75 75 68 68 68 67 67 67 78 78 78 120 82 118 95 85 125 68 68 68 66 66 66 78 78 78 109 83 121 68 68 68 26 26 24 26 26 24 26 26 24 26 26 24 215 177 48 216 183 48 216 180 48 215 181 48 211 181 48 213 176 48 208 177 48 211 179 48 206 176 48 206 178 48 205 185 48 216 176 48 208 184 48 214 176 48 207 185 48 207 185 48 214 178 48 207 176 48 215 180 48 205 176 48 215 177 48 205 179 48 214 185 48 206 184 48 216 181 48 205 185 48 210 176 48 215 178 48 213 180 48 216 182 48 213 180 48 213 184 48 207 178 48 216 177 48 215 180 48 208 185 48 213 185 48 216 184 48 206 176 48 207 181 48 210 182 48 215 183 48 207 183 48 206 181 48 211 183 48 212 177 48 207 178 48 214 179 48 208 180 48 216 178 48 206 181 48 214 182 48 208 185 48 205 177 48 212 177 48 210 176 48 215 184 48 212 184 48 212 178 48 213 182 48 207 182 48 206 181 48 212 180 48 209 185 48 215 181 48 206 183 48 207 182 48 210 181 48 205 179 48 26 26 24 26 26 24 26 26 24 26 26 24 67 67 67 79 79 79 64 64 64 115 83 119 80 80 80 107 84 121 113 83 120 75 75 75 80 80 80 79 79 79 66 66 66 80 80 80 75 75 75 80 80 80 78 78 78 22 26 27 22 26 27 22 26 27 22 26 27 22 26 27 22 26 27 22 26 27 22 26 27 22 26 27 97 99 92 81 84 79 91 94 87 105 106 98 108 109 100 108 109 100 106 107 99 103 104 96 81 84 79 88 91 85 80 83 78 105 107 98 108 109 100 103 105 96 22 26 27 22 26 27 22 26 27 81 84 79 83 86 81 83 85 80 109 110 101 98 99 92 22 26 27 22 26 27 22 26 27 22 26 27 22 26 27 22 26 27 22 26 27 22 26 27 22 26 27 22 26 27 22 26 27 22 26 27 22 26 27 22 26 27 22 26 27 22 26 27 22 26 27 22 26 27 22 26 27 22 26 27 22 26 27 69 71 74 59 60 63 69 69 72 82 82 85 80 79 82 78 77 80 71 71 74 74 75 78 74 76 79 51 54 57 41 46 49 55 59 62 63 66 69 73 74 77 60 61 64 76 76 79 82 81 84 79 78 81 67 66 69 67 66 69 88 87 90 85 84 87 80 79 82 68 67 70 75 74 77 71 70 73 81 80 83 70 69 72 73 73 76 75 74 77 69 69 72 66 67 70 63 65 68 51 54 57 47 52 55 60 64 67 54 56 59 64 66 69 62 62 65 79 78 81 70 69 72 68 67 70 75 74 77 84 84 87 59 60 63 51 54 57 60 65 68 61 65 68 77 78 81 65 66 69 79 79 82 67 66 69 68 67 70 74 74 77 66 67 70 58 61 64 64 69 72 57 60 63 74 76 79 75 76 79 69 69 72 76 75 78 68 67 70 71 71 74 77 79 82 67 71 74 56 61 64 68 71 74 76 77 80 57 62 65 54 59 62 41 46 49 58 63 66 50 55 58 48 53 56 42 47 50 47 52 55 58 63 66 58 63 66
22 26 27 22 26 27 22 26 27 92 96 96 92 96 96 75 79 79 22 26 27 91 95 95 79 83 83 72 76 76 77 81 81 22 26 27 88 92 92 70 74 74 78 82 82 83 87 87 61 61 61 66 66 66 78 78 78 64 64 64 75 75 75 70 70 70 64 64 64 116 80 116 76 76 76 98 82 121 62 62 62 67 67 67 67 67 67 65 65 65 68 68 68 79 79 79 67 67 67 26 26 24 26 26 24 26 26 24 26 26 24 209 185 48 206 183 48 205 185 48 213 182 48 208 181 48 215 182 48 216 183 48 205 183 48 211 179 48 205 182 48 209 181 48 213 179 48 215 181 48 214 180 48 214 180 48 211 177 48 211 181 48 205 181 48 216 180 48 210 179 48 216 183 48 214 177 48 209 176 48 206 182 48 210 180 48 210 177 48 206 181 48 208 184 48 210 181 48 215 185 48 211 177 48 210 185 48 208 176 48 207 177 48 208 183 48 213 183 48 208 185 48 208 178 48 210 179 48 216 185 48 214 178 48 213 181 48 207 176 48 206 183 48 209 178 48 215 176 48 210 180 48 207 182 48 215 185 48 209 184 48 215 178 48 216 181 48 216 180 48 209 177 48 216 180 48 208 176 48 214 176 48 206 185 48 209 178 48 206 180 48 216 176 48 212 184 48 205 176 48 207 183 48 212 177 48 211 182 48 205 180 48 211 184 48 215 185 48 26 26 24 26 26 24 26 26 24 26 26 24 78 78 78 67 67 67 78 78 78 67 67 67 72 72 72 71 71 71 75 75 75 62 62 62 75 75 75 70 70 70 74 74 74 65 65 65 75 75 75 67 67 67 75 75 75 22 26 27 22 26 27 22 26 27 22 26 27 22 26 27 22 26 27 22 26 27 22 26 27 22 26 27 91 93 87 89 91 85 103 104 96 85 88 82 99 101 94 86 89 83 84 87 81 94 96 89 81 83 78 100 102 94 96 98 91 100 102 94 95 97 90 104 105 97 22 26 27 22 26 27 22 26 27 109 110 101 102 103 95 94 96 89 84 87 81 106 108 99 22 26 27 22 26 27 22 26 27 22 26 27 22 26 27 22 26 27 22 26 27 22 26 27 22 26 27 22 26 27 22 26 27 22 26 27 22 26 27 22 26 27 22 26 27 22 26 27 22 26 27 22 26 27 22 26 27 22 26 27 22 26 27 68 69 72 80 80 83 80 79 82 74 73 76 80 79 82 61 61 64 74 76 79 54 57 60 59 63 66 55 59 62 54 57 60 62 63 66 62 63 66 65 65 68 85 84 87 72 71 74 87 86 89 74 73 76 70 69 72 69 69 72 84 84 87 68 68 71 67 66 69 72 72 75 85 85 88 83 82 85 74 73 76 71 71 74 70 69 72 84 83 86 75 74 77 75 75 78 77 78 81 62 64 67 51 54 57 47 51 54 55 60 63 53 56 59 69 71 74 64 64 67 66 65 68 76 75 78 74 73 76 71 70 73 82 83 86 56 58 61 67 71 74 59 63 66 58 60 63 73 75 78 64 64 67 72 71 74 75 74 77 71 71 74 83 83 86 70 71 74 50 54 57 45 50 53 61 63 66 67 68 71 85 85 88 67 66 69 85 84 87 81 81 84 78 79 82 73 75 78 66 70 73 60 64 67 58 60 63 53 58 61 59 64 67 49 54 57 44 49 52 45 50 53 54 59 62 48 53 56 64 69 72 41 46 49 42 47 50
22 26 27 22 26 27 22 26 27 74 78 78 77 81 81 88 92 92 22 26 27 85 89 89 80 84 84 81 85 85 73 77 77 22 26 27 90 94 94 83 87 87 88 92 92 77 81 81 74 74 74 98 80 118 74 74 74 76 76 76 74 74 74 73 73 73 72 72 72 68 68 68 78 78 78 62 62 62 61 61 61 63 63 63 62 62 62 64 64 64 63 63 63 74 74 74 60 60 60 26 26 24 26 26 24 26 26 24 26 26 24 206 181 48 206 177 48 214 183 48 209 181 48 211 185 48 213 179 48 211 179 48 207 183 48 206 180 48 205 185 48 208 177 48 208 179 48 206 176 48 215 176 48 213 180 48 206 180 48 209 176 48 207 176 48 210 179 48 214 176 48 214 184 48 216 178 48 214 177 48 210 184 48 211 182 48 208 182 48 215 181 48 213 180 48 211 185 48 211 178 48 211 180 48 205 178 48 207 177 48 211 183 48 214 180 48 213 182 48 213 180 48 206 182 48 210 182 48 212 179 48 213 181 48 214 178 48 205 180 48 211 180 48 214 182 48 209 185 48 206 183 48 214 184 48 206 184 48 210 179 48 212 182 48 205 178 48 207 179 48 205 185 48 207 185 48 207 176 48 209 177 48 205 181 48 211 181 48 210 184 48 210 185 48 207 178 48 209 177 48 212 181 48 208 185 48 209 185 48 216 178 48 212 177 48 214 179 48 26 26 24 26 26 24 26 26 24 26 26 24 63 63 63 73 73 73 65 65 65 67 67 67 71 71 71 71 71 71 65 65 65 90 81 120 64 64 64 73 73 73 112 78 114 64 64 64 77 77 77 69 69 69 71 71 71 22 26 27 22 26 27 22 26 27 22 26 27 22 26 27 22 26 27 22 26 27 22 26 27 22 26 27 95 97 90 90 92 86 95 97 90 91 93 87 105 106 98 101 102 94 106 107 99 87 89 83 87 89 83 88 90 84 83 86 80 92 94 87 109 110 101 83 86 80 22 26 27 22 26 27 22 26 27 93 95 88 100 101 94 110 111 102 107 108 100 103 105 97 22 26 27 22 26 27 22 26 27 22 26 27 22 26 27 22 26 27 22 26 27 22 26 27 22 26 27 22 26 27 22 26 27 22 26 27 22 26 27 22 26 27 22 26 27 22 26 27 22 26 27 22 26 27 22 26 27 22 26 27 22 26 27 73 73 76 75 74 77 74 73 76 68 67 70 78 78 81 61 63 66 59 62 65 48 52 55 55 59 62 58 60 63 68 69 72 75 75 78 65 65 68 81 80 83 66 65 68 73 72 75 83 82 85 67 67 70 73 74 77 70 71 74 64 65 68 59 60 63 73 75 78 72 74 77 75 77 80 73 74 77 83 83 86 65 65 68 78 78 81 71 70 73 79 78 81 85 84 87 71 70 73 82 82 85 58 59 62 72 74 77 52 55 58 44 49 52 58 62 65 56 58 61 61 61 64 72 71 74 85 84 87 84 83 86 82 82 85 74 75 78 74 77 80 62 66 69 55 59 62 60 63 66 74 75 78 73 72 75 68 67 70 87 87 90 75 75 78 66 67 70 71 74 77 60 64 67 60 63 66 76 77 80 67 67 70 71 70 73 68 67 70 78 78 81 79 80 83 68 70 73 69 72 75 49 53 56 62 65 68 63 64 67 47 52 55 58 63 66 48 53 56 50 55 58 40 45 48 46 51 54 58 63 66 45 50 53 64 69 72
22 26 27 22 26 27 22 26 27 74 78 78 85 89 89 70 74 74 22 26 27 73 77 77 87 91 91 76 80 80 86 90 90 22 26 27 82 86 86 80 84 84 85 89 89 72 76 76 58 58 58 110 75 111 75 75 75 64 64 64 61 61 61 67 67 67 70 70 70 61 61 61 59 59 59 66 66 66 59 59 59 72 72 72 72 72 72 71 71 71 60 60 60 61 61 61 72 72 72 26 26 24 26 26 24 26 26 24 26 26 24 216 181 48 210 184 48 210 178 48 213 183 48 212 182 48 205 185 48 214 182 48 205 181 48 208 182 48 214 177 48 210 181 48 208 179 48 205 182 48 210 184 48 205 179 48 209 181 48 209 179 48 215 177 48 216 177 48 213 183 48 212 181 48 208 179 48 214 181 48 206 185 48 212 177 48 212 184 48 210 182 48 212 185 48 212 178 48 216 185 48 209 180 48 214 180 48 216 177 48 208 185 48 207 185 48 210 184 48 205 181 48 209 182 48 215 183 48 207 184 48 214 178 48 211 177 48 205 183 48 207 185 48 212 185 48 212 183 48 209 183 48 213 184 48 205 181 48 209 178 48 215 183 48 209 184 48 205 176 48 212 183 48 207 182 48 210 181 48 205 177 48 216 185 48 211 183 48 215 183 48 216 177 48 210 178 48 215 179 48 213 176 48 212 179 48 215 185 48 206 179 48 205 177 48 205 180 48 26 26 24 26 26 24 26 26 24 26 26 24 72 72 72 66 66 66 76 76 76 74 74 74 67 67 67 65 65 65 62 62 62 74 74 74 67 67 67 75 75 75 75 75 75 72 72 72 99 77 114 68 68 68 64 64 64 22 26 27 22 26 27 22 26 27 22 26 27 22 26 27 22 26 27 22 26 27 22 26 27 22 26 27 109 110 101 101 102 95 102 103 95 92 95 88 93 95 88 83 86 80 88 90 84 92 94 88 91 93 87 91 94 87 96 98 91 99 101 94 92 94 88 97 99 92 22 26 27 22 26 27 22 26 27 81 84 78 106 107 99 104 105 97 108 110 101 100 102 94 22 26 27 22 26 27 22 26 27 22 26 27 22 26 27 22 26 27 22 26 27 22 26 27 22 26 27 22 26 27 22 26 27 22 26 27 22 26 27 22 26 27 22 26 27 22 26 27 22 26 27 22 26 27 22 26 27 22 26 27 22 26 27 68 67 70 79 78 81 85 85 88 74 74 77 75 75 78 56 58 61 61 65 68 67 71 74 66 69 72 76 77 80 77 77 80 88 87 90 69 68 71 70 70 73 84 83 86 72 72 75 63 64 67 53 55 58 66 69 72 70 73 76 47 51 54 44 48 51 7 12 15 56 60 63 57 61 64 51 55 58 60 63 66 60 62 65 78 79 82 73 74 77 71 70 73 67 66 69 69 68 71 85 85 88 79 79 82 83 84 87 70 71 74 49 52 55 62 67 70 68 71 74 58 60 63 69 69 72 71 70 73 81 80 83 66 65 68 64 64 67 79 80 83 61 64 67 47 52 55 68 71 74 75 76 79 66 66 69 86 85 88 67 66 69 76 76 79 64 64 67 73 75 78 67 71 74 64 68 71 60 62 65 73 73 76 82 81 84 67 66 69 82 81 84 83 83 86 62 63 66 72 75 78 42 47 50 63 66 69 64 65 68 42 47 50 41 46 49 52 57 60 53 58 61 45 50 53 52 57 60 58 63 66 46 51 54 53 58 61
22 26 27 22 26 27 22 26 27 92 96 96 80 84 84 86 90 90 22 26 27 78 82 82 85 89 89 90 94 94 82 86 86 22 26 27 84 88 88 92 96 96 80 84 84 76 80 80 66 66 66 58 58 58 60 60 60 93 73 110 70 70 70 72 72 72 57 57 57 67 67 67 65 65 65 69 69 69 71 71 71 68 68 68 55 55 55 71 71 71 65 65 65 62 62 62 68 68 68 26 26 24 26 26 24 26 26 24 26 26 24 216 176 48 212 181 48 213 185 48 214 178 48 207 178 48 211 179 48 216 179 48 205 184 48 214 179 48 213 181 48 206 184 48 215 178 48 211 181 48 211 184 48 213 178 48 215 176 48 209 182 48 214 177 48 208 180 48 209 184 48 209 179 48 205 183 48 216 176 48 211 183 48 215 184 48 216 181 48 209 178 48 209 182 48 212 185 48 212 181 48 211 176 48 213 182 48 207 177 48 210 180 48 206 184 48 209 181 48 209 182 48 205 183 48 214 176 48 215 178 48 210 179 48 216 176 48 211 181 48 206 182 48 210 180 48 212 182 48 211 181 48 209 184 48 213 178 48 208 177 48 216 181 48 208 184 48 215 182 48 206 178 48 216 177 48 215 181 48 207 179 48 207 184 48 211 177 48 211 176 48 214 178 48 208 182 48 207 182 48 206 180 48 210 178 48 211 176 48 212 181 48 205 184 48 207 177 48 26 26 24 26 26 24 26 26 24 26 26 24 70 70 70 59 59 59 62 62 62 68 68 68 72 72 72 110 71 105 70 70 70 72 72 72 58 58 58 61 61 61 71 71 71 59 59 59 66 66 66 72 72 72 57 57 57 22 26 27 22 26 27 22 26 27 22 26 27 22 26 27 22 26 27 22 26 27 22 26 27 22 26 27 97 98 91 94 96 89 101 103 95 81 84 79 91 94 87 96 98 91 96 98 91 95 97 90 106 107 99 100 102 94 91 93 87 105 106 98 103 104 96 97 98 91 22 26 27 22 26 27 22 26 27 85 88 82 96 98 91 108 109 100 95 97 90 88 91 84 22 26 27 22 26 27 22 26 27 22 26 27 22 26 27 22 26 27 22 26 27 22 26 27 22 26 27 22 26 27 22 26 27 22 26 27 22 26 27 22 26 27 22 26 27 22 26 27 22 26 27 22 26 27 22 26 27 22 26 27 22 26 27 71 70 73 85 84 87 65 64 67 77 78 81 73 75 78 60 63 66 45 50 53 65 68 71 65 66 69 70 70 73 70 69 72 76 75 78 66 65 68 73 73 76 62 63 66 66 68 71 59 62 65 64 69 72 13 18 21 22 26 29 22 25 28 30 33 36 22 25 28 13 15 18 14 17 20 11 15 18 5 9 12 23 27 30 51 55 58 56 58 61 71 72 75 75 75 78 74 74 77 88 87 90 77 76 79 73 73 76 62 62 65 61 63 66 62 66 69 51 55 58 58 60 63 69 70 73 79 78 81 75 75 78 83 82 85 69 68 71 80 80 83 56 58 61 61 65 68 48 51 54 77 79 82 61 62 65 82 81 84 83 82 85 75 74 77 84 84 87 68 69 72 54 57 60 63 67 70 54 57 60 76 77 80 75 75 78 83 83 86 87 86 89 84 84 87 73 74 77 75 77 80 65 70 73 54 58 61 67 69 72 59 64 67 46 51 54 59 64 67 45 50 53 54 59 62 49 54 57 46 51 54 60 65 68 57 62 65
22 26 27 22 26 27 22 26 27 83 87 87 81 85 85 71 75 75 22 26 27 69 73 73 84 88 88 91 95 95 90 94 94 22 26 27 75 79 79 78 82 82 88 92 92 83 87 87 65 65 65 56 56 56 68 68 68 64 64 64 60 60 60 66 66 66 51 51 51 65 65 65 58 58 58 58 58 58 53 53 53 56 56 56 64 64 64 65 65 65 57 57 57 61 61 61 51 51 51 26 26 24 26 26 24 26 26 24 26 26 24 215 181 48 214 180 48 208 182 48 215 184 48 206 181 48 205 177 48 211 185 48 208 183 48 206 176 48 206 179 48 211 185 48 205 177 48 206 179 48 205 179 48 208 179 48 208 184 48 213 176 48 213 179 48 216 179 48 205 177 48 209 183 48 211 176 48 207 182 48 212 183 48 211 178 48 211 180 48 213 181 48 216 177 48 205 178 48 215 180 48 210 178 48 213 176 48 206 180 48 208 180 48 215 180 48 211 181 48 210 185 48 208 183 48 213 180 48 208 182 48 216 176 48 212 177 48 209 185 48 211 179 48 213 179 48 214 179 48 216 181 48 211 182 48 216 178 48 207 185 48 216 179 48 211 181 48 207 177 48 208 182 48 208 183 48 215 185 48 211 178 48 216 184 48 212 177 48 205 180 48 211 182 48 216 177 48 216 182 48 205 181 48 209 177 48 211 184 48 214 178 48 210 183 48 206 181 48 26 26 24 26 26 24 26 26 24 26 26 24 91 66 103 51 51 51 57 57 57 66 66 66 62 62 62 64 64 64 53 53 53 53 53 53 67 67 67 57 57 57 57 57 57 52 52 52 51 51 51 66 66 66 64 64 64 22 26 27 22 26 27 22 26 27 22 26 27 22 26 27 22 26 27 22 26 27 22 26 27 22 26 27 104 105 97 88 90 84 91 93 87 88 91 85 101 103 95 90 93 86 102 103 95 103 104 96 103 104 96 103 105 97 97 99 92 95 97 90 93 95 88 103 105 97 22 26 27 22 26 27 22 26 27 84 87 82 100 101 94 92 94 87 91 94 87 110 111 102 22 26 27 22 26 27 22 26 27 22 26 27 22 26 27 22 26 27 22 26 27 22 26 27 22 26 27 22 26 27 22 26 27 22 26 27 22 26 27 22 26 27 22 26 27 22 26 27 22 26 27 22 26 27 22 26 27 22 26 27 22 26 27 80 79 82 76 75 78 70 70 73 79 80 83 60 63 66 54 59 62 70 74 77 75 76 79 83 83 86 76 76 79 74 73 76 74 73 76 83 83 86 73 74 77 56 58 61 55 59 62 19 24 27 16 19 22 16 18 21 18 20 23 37 38 41 28 29 32 29 29 32 22 22 25 38 38 41 36 38 41 34 36 39 27 30 33 13 18 21 50 54 57 66 69 72 65 67 70 74 74 77 80 80 83 75 74 77 71 70 73 70 70 73 75 76 79 56 59 62 52 57 60 66 70 73 74 76 79 72 72 75 86 86 89 74 73 76 71 70 73 75 75 78 78 80 83 69 73 76 43 48 51 53 55 58 80 81 84 72 71 74 79 78 81 70 69 72 86 86 89 74 75 78 70 73 76 61 65 68 61 64 67 63 64 67 85 85 88 73 72 75 78 77 80 74 74 77 78 78 81 68 70 73 65 69 72 67 71 74 59 61 64 61 61 64 52 57 60 47 52 55 43 48 51 42 47 50 55 60 63 63 68 71 59 64 67 57 62 65
22 26 27 22 26 27 22 26 27 78 82 82 92 96 96 83 87 87 22 26 27 77 81 81 82 86 86 81 85 85 88 92 92 22 26 27 86 90 90 92 96 96 71 75 75 81 85 85 61 61 61 57 57 57 60 60 60 47 47 47 54 54 54 54 54 54 53 53 53 46 46 46 56 56 56 56 56 56 52 52 52 57 57 57 60 60 60 58 58 58 56 56 56 60 60 60 63 63 63 26 26 24 26 26 24 26 26 24 26 26 24 216 182 48 211 181 48 216 176 48 210 182 48 207 177 48 208 184 48 215 181 48 215 179 48 212 180 48 216 179 48 214 178 48 211 181 48 207 178 48 214 178 48 207 184 48 211 182 48 216 185 48 213 183 48 205 185 48 215 181 48 212 176 48 212 178 48 213 181 48 213 181 48 214 177 48 210 177 48 212 177 48 214 183 48 214 183 48 205 182 48 214 184 48 211 179 48 208 185 48 211 184 48 214 185 48 205 181 48 211 182 48 205 183 48 213 177 48 207 184 48 209 185 48 216 179 48 207 180 48 212 177 48 213 180 48 207 177 48 207 185 48 211 185 48 211 178 48 209 177 48 210 179 48 215 182 48 210 181 48 214 178 48 208 179 48 207 177 48 209 180 48 211 185 48 215 178 48 210 178 48 205 182 48 209 185 48 211 176 48 206 178 48 211 179 48 213 177 48 212 179 48 215 182 48 210 177 48 26 26 24 26 26 24 26 26 24 26 26 24 54 54 54 61 61 61 53 53 53 59 59 59 60 60 60 63 63 63 62 62 62 63 63 63 64 64 64 57 57 57 59 59 59 62 62 62 52 52 52 61 61 61 63 63 63 22 26 27 22 26 27 22 26 27 22 26 27 22 26 27 22 26 27 22 26 27 22 26 27 22 26 27 85 87 82 87 89 83 89 91 85 100 101 94 104 106 97 93 95 88 104 105 97 96 98 91 102 104 96 93 95 88 103 104 96 93 95 89 96 98 91 101 103 95 22 26 27 22 26 27 22 26 27 102 103 96 81 84 79 105 106 98 110 111 102 81 84 79 22 26 27 22 26 27 22 26 27 22 26 27 22 26 27 22 26 27 22 26 27 22 26 27 22 26 27 22 26 27 22 26 27 22 26 27 22 26 27 22 26 27 22 26 27 22 26 27 22 26 27 22 26 27 22 26 27 22 26 27 22 26 27 75 74 77 85 85 88 79 79 82 72 74 77 67 71 74 46 51 54 63 66 69 77 78 81 84 84 87 72 71 74 75 74 77 81 81 84 74 75 78 67 69 72 65 69 72 4 8 11 22 24 27 24 26 29 41 41 44 31 30 33 43 43 46 25 24 27 45 45 48 25 24 27 24 23 26 28 28 31 30 30 33 28 29 32 11 13 16 16 20 23 21 25 28 49 52 55 78 79 82 65 66 69 75 74 77 75 74 77 81 81 84 72 73 76 76 78 81 63 67 70 63 68 71 58 61 64 78 79 82 71 71 74 73 72 75 72 71 74 72 71 74 70 71 74 64 67 70 59 64 67 47 51 54 71 73 76 80 80 83 86 85 88 76 75 78 69 68 71 65 66 69 54 56 59 55 59 62 51 55 58 61 63 66 61 61 64 81 81 84 85 84 87 77 76 79 64 64 67 59 61 64 62 66 69 54 58 61 52 55 58 69 70 73 47 52 55 59 64 67 45 50 53 55 60 63 57 62 65 63 68 71 53 58 61 60 65 68
22 26 27 22 26 27 22 26 27 84 88 88 91 95 95 75 79 79 22 26 27 84 88 88 79 83 83 86 90 90 86 90 90 22 26 27 79 83 83 91 95 95 77 81 81 78 82 82 58 58 58 49 49 49 62 62 62 46 46 46 61 61 61 58 58 58 51 51 51 50 50 50 44 44 44 61 61 61 49 49 49 60 60 60 56 56 56 45 45 45 57 57 57 89 57 92 54 54 54 26 26 24 26 26 24 26 26 24 26 26 24 216 185 48 213 181 48 215 182 48 215 177 48 211 180 48 210 182 48 216 176 48 209 185 48 206 182 48 209 176 48 206 180 48 208 178 48 205 184 48 216 176 48 216 176 48 214 183 48 211 180 48 214 184 48 214 177 48 214 180 48 206 176 48 213 184 48 211 178 48 209 184 48 212 179 48 214 185 48 208 182 48 211 179 48 216 182 48 214 179 48 210 179 48 210 182 48 209 179 48 212 176 48 216 183 48 208 182 48 213 181 48 212 176 48 212 181 48 214 180 48 206 180 48 208 180 48 211 176 48 207 181 48 214 182 48 212 182 48 207 181 48 215 179 48 208 180 48 215 183 48 214 181 48 212 185 48 215 185 48 206 183 48 214 182 48 206 178 48 210 183 48 210 185 48 205 181 48 215 181 48 207 184 48 206 185 48 209 184 48 216 184 48 213 185 48 212 179 48 205 183 48 214 182 48 214 181 48 26 26 24 26 26 24 26 26 24 26 26 24 50 50 50 47 47 47 50 50 50 53 53 53 55 55 55 56 56 56 75 59 96 50 50 50 48 48 48 46 46 46 58 58 58 60 60 60 60 60 60 58 58 58 72 60 97 22 26 27 22 26 27 22 26 27 22 26 27 22 26 27 22 26 27 22 26 27 22 26 27 22 26 27 89 91 85 108 109 101 109 110 101 100 102 94 103 105 96 105 106 98 89 92 85 94 96 89 102 104 96 95 97 90 82 85 80 93 95 88 91 94 87 92 95 88 22 26 27 22 26 27 22 26 27 105 106 98 98 100 92 99 101 93 91 93 87 97 99 92 22 26 27 22 26 27 22 26 27 22 26 27 22 26 27 22 26 27 22 26 27 22 26 27 22 26 27 22 26 27 22 26 27 22 26 27 22 26 27 22 26 27 22 26 27 22 26 27 22 26 27 22 26 27 22 26 27 22 26 27 22 26 27 75 74 77 75 75 78 79 80 83 70 72 75 64 69 72 56 60 63 70 72 75 70 70 73 73 72 75 78 77 80 66 65 68 64 65 68 72 74 77 58 61 64 9 14 17 16 19 22 25 26 29 31 31 34 30 30 33 47 46 49 31 30 33 27 27 30 28 27 30 24 23 26 38 37 40 32 31 34 38 37 40 39 39 42 26 27 30 31 33 36 14 18 21 59 63 66 53 55 58 70 71 74 64 64 67 84 83 86 88 88 91 78 78 81 80 81 84 50 53 56 58 63 66 62 65 68 71 73 76 65 66 69 73 72 75 80 79 82 67 66 69 63 64 67 65 67 70 50 54 57 53 57 60 58 60 63 68 68 71 77 77 80 73 72 75 86 85 88 64 65 68 65 67 70 53 57 60 59 64 67 74 76 79 66 66 69 75 74 77 67 66 69 75 74 77 71 71 74 55 57 60 64 68 71 45 49 52 57 60 63 80 81 84 64 69 72 50 55 58 63 68 71 61 66 69 40 45 48 47 52 55 61 66 69 48 53 56
22 26 27 22 26 27 22 26 27 72 76 76 82 86 86 92 96 96 22 26 27 74 78 78 86 90 90 80 84 84 89 93 93 22 26 27 84 88 88 92 96 96 82 86 86 92 96 96 57 57 57 55 55 55 63 63 63 60 60 60 51 51 51 51 51 51 50 50 50 50 50 50 46 46 46 54 54 54 58 58 58 63 63 63 51 51 51 55 55 55 62 62 62 61 61 61 58 58 58 26 26 24 26 26 24 26 26 24 26 26 24 212 183 48 214 181 48 206 181 48 210 177 48 207 177 48 215 183 48 209 178 48 212 179 48 208 185 48 216 181 48 215 179 48 206 179 48 211 178 48 208 182 48 209 176 48 215 177 48 207 184 48 214 178 48 209 177 48 215 179 48 209 178 48 206 183 48 208 181 48 212 180 48 210 180 48 214 180 48 206 184 48 210 185 48 205 180 48 212 182 48 206 177 48 205 184 48 210 182 48 214 179 48 213 185 48 214 185 48 210 181 48 207 178 48 208 184 48 212 177 48 209 177 48 207 178 48 208 180 48 210 185 48 215 180 48 206 183 48 209 177 48 205 183 48 216 183 48 214 180 48 205 180 48 214 178 48 209 177 48 212 184 48 209 182 48 207 184 48 208 178 48 211 177 48 216 183 48 214 184 48 206 181 48 214 182 48 207 177 48 207 184 48 212 185 48 205 179 48 216 176 48 216 178 48 211 179 48 26 26 24 26 26 24 26 26 24 26 26 24 53 53 53 46 46 46 63 63 63 56 56 56 47 47 47 57 57 57 52 52 52 50 50 50 49 49 49 51 51 51 87 60 95 46 46 46 50 50 50 55 55 55 56 56 56 22 26 27 22 26 27 22 26 27 22 26 27 22 26 27 22 26 27 22 26 27 22 26 27 22 26 27 87 89 83 105 107 98 80 83 78 101 102 94 95 97 90 103 104 96 86 89 83 106 108 99 102 104 96 80 83 78 97 99 92 105 106 98 106 108 99 104 106 97 22 26 27 22 26 27 22 26 27 94 96 89 102 103 95 107 108 100 89 91 85 81 83 78 22 26 27 22 26 27 22 26 27 22 26 27 22 26 27 22 26 27 22 26 27 22 26 27 22 26 27 22 26 27 22 26 27 22 26 27 22 26 27 22 26 27 22 26 27 22 26 27 22 26 27 22 26 27 22 26 27 22 26 27 22 26 27 87 87 90 84 84 87 63 65 68 56 59 62 56 61 64 71 74 77 56 58 61 73 73 76 82 82 85 80 79 82 79 79 82 67 68 71 67 70 73 52 56 59 10 13 16 31 32 35 19 19 22 44 44 47 34 33 36 24 24 27 39 39 42 78 79 82 83 83 86 87 87 90 38 38 41 30 29 32 46 45 48 35 34 37 34 34 37 27 28 31 25 28 31 6 11 14 69 72 75 64 65 68 80 80 83 66 65 68 76 75 78 82 81 84 79 79 82 75 77 80 60 64 67 52 55 58 74 76 79 80 81 84 68 67 70 86 85 88 85 85 88 62 62 65 68 70 73 50 54 57 55 59 62 59 61 64 69 70 73 79 78 81 74 73 76 73 72 75 78 78 81 63 64 67 63 66 69 47 52 55 67 69 72 64 65 68 65 65 68 82 81 84 65 64 67 73 73 76 79 80 83 71 74 77 65 70 73 56 59 62 78 79 82 54 59 62 44 49 52 47 52 55 61 66 69 63 68 71 59 64 67 43 48 51 47 52 55
22 26 27 22 26 27 22 26 27 78 82 82 73 77 77 87 91 91 22 26 27 79 83 83 89 93 93 86 90 90 84 88 88 22 26 27 80 84 84 83 87 87 80 84 84 84 88 88 53 53 53 50 50 50 66 66 66 56 56 56 50 50 50 63 63 63 62 62 62 63 63 63 64 64 64 50 50 50 53 53 53 60 60 60 57 57 57 52 52 52 61 61 61 49 49 49 52 52 52 26 26 24 26 26 24 26 26 24 26 26 24 213 184 48 205 176 48 207 182 48 212 183 48 212 182 48 214 185 48 211 178 48 216 181 48 214 184 48 205 180 48 205 185 48 207 185 48 208 182 48 206 176 48 207 176 48 206 181 48 205 183 48 208 182 48 207 177 48 214 180 48 205 180 48 205 178 48 214 185 48 213 183 48 211 185 48 213 176 48 214 180 48 206 176 48 210 184 48 213 181 48 215 178 48 213 178 48 207 178 48 213 184 48 209 183 48 206 185 48 205 177 48 213 180 48 212 184 48 207 181 48 209 182 48 205 181 48 215 180 48 207 183 48 207 179 48 216 183 48 216 185 48 216 177 48 211 176 48 215 185 48 205 185 48 207 184 48 207 182 48 213 183 48 210 183 48 211 183 48 214 182 48 215 176 48 205 177 48 212 180 48 207 180 48 214 182 48 208 179 48 207 177 48 214 177 48 208 178 48 212 178 48 216 183 48 210 185 48 26 26 24 26 26 24 26 26 24 26 26 24 58 58 58 81 66 104 60 60 60 61 61 61 56 56 56 64 64 64 60 60 60 51 51 51 52 52 52 58 58 58 58 58 58 62 62 62 53 53 53 50 50 50 58 58 58 22 26 27 22 26 27 22 26 27 22 26 27 22 26 27 22 26 27 22 26 27 22 26 27 22 26 27 81 84 79 83 86 81 106 108 99 93 95 89 90 93 86 102 104 96 99 101 93 109 110 101 105 106 98 86 89 83 107 108 99 87 89 83 86 88 83 107 108 99 22 26 27 22 26 27 22 26 27 104 106 98 110 111 102 107 108 99 100 102 94 80 83 78 22 26 27 22 26 27 22 26 27 22 26 27 22 26 27 22 26 27 22 26 27 22 26 27 22 26 27 22 26 27 22 26 27 22 26 27 22 26 27 22 26 27 22 26 27 22 26 27 22 26 27 22 26 27 22 26 27 22 26 27 22 26 27 69 68 71 76 76 79 57 58 61 56 59 62 44 49 52 65 67 70 58 59 62 75 75 78 72 71 74 83 82 85 79 78 81 72 73 76 64 67 70 16 20 23 19 22 25 16 17 20 22 22 25 29 28 31 30 29 32 24 23 26 84 85 88 82 84 87 70 73 76 78 80 83 77 78 81 32 32 35 24 24 27 35 34 37 23 23 26 34 35 38 12 15 18 13 17 20 48 52 55 60 62 65 68 68 71 65 64 67 78 77 80 83 83 86 65 66 69 57 59 62 49 53 56 56 60 63 73 75 78 81 81 84 82 82 85 86 85 88 86 85 88 79 80 83 60 62 65 56 59 62 51 55 58 53 55 58 74 74 77 77 76 79 72 71 74 69 68 71 62 62 65 60 62 65 51 54 57 65 69 72 73 76 79 75 76 79 65 65 68 73 72 75 84 84 87 63 63 66 72 73 76 59 63 66 59 64 67 67 70 73 74 75 78 58 63 66 62 67 70 64 69 72 45 50 53 45 50 53 41 46 49 57 62 65 55 60 63
22 26 27 22 26 27 22 26 27 84 88 88 77 81 81 73 77 77 22 26 27 74 78 78 86 90 90 82 86 86 73 77 77 22 26 27 73 77 77 76 80 80 90 94 94 81 85 85 72 72 72 71 71 71 58 58 58 63 63 63 68 68 68 66 66 66 64 64 64 60 60 60 55 55 55 67 67 67 55 55 55 56 56 56 69 69 69 56 56 56 60 60 60 69 69 69 57 57 57 26 26 24 26 26 24 26 26 24 26 26 24 206 178 48 207 181 48 214 185 48 212 183 48 211 184 48 211 182 48 207 179 48 208 176 48 216 179 48 212 183 48 205 183 48 212 179 48 211 176 48 216 180 48 213 180 48 210 177 48 215 179 48 208 177 48 208 183 48 212 179 48 216 179 48 207 185 48 205 178 48 207 182 48 211 182 48 213 177 48 216 178 48 207 180 48 208 179 48 211 181 48 205 180 48 211 184 48 211 177 48 215 176 48 211 176 48 209 178 48 214 182 48 211 184 48 216 176 48 212 176 48 214 180 48 216 177 48 215 185 48 209 184 48 215 184 48 212 185 48 206 176 48 207 182 48 216 176 48 214 183 48 211 181 48 211 180 48 212 185 48 216 177 48 207 178 48 213 178 48 205 177 48 212 181 48 209 184 48 207 181 48 215 184 48 207 179 48 211 181 48 205 182 48 215 185 48 216 183 48 212 182 48 210 184 48 214 181 48 26 26 24 26 26 24 26 26 24 26 26 24 58 58 58 68 68 68 59 59 59 55 55 55 54 54 54 58 58 58 70 70 70 68 68 68 70 70 70 69 69 69 110 69 104 62 62 62 65 65 65 67 67 67 68 68 68 22 26 27 22 26 27 22 26 27 22 26 27 22 26 27 22 26 27 22 26 27 22 26 27 22 26 27 97 99 91 84 87 81 82 85 79 99 101 93 85 88 82 84 87 81 84 87 81 102 104 96 100 102 94 84 87 81 106 107 99 86 89 83 89 92 86 87 90 84 22 26 27 22 26 27 22 26 27 83 86 81 105 106 98 84 87 81 104 106 97 81 84 79 22 26 27 22 26 27 22 26 27 22 26 27 22 26 27 22 26 27 22 26 27 22 26 27 22 26 27 22 26 27 22 26 27 22 26 27 22 26 27 22 26 27 22 26 27 22 26 27 22 26 27 22 26 27 22 26 27 22 26 27 22 26 27 87 86 89 79 79 82 70 71 74 64 67 70 43 48 51 70 73 76 65 66 69 63 63 66 79 78 81 79 78 81 67 67 70 59 60 63 63 66 69 19 24 27 22 26 29 17 18 21 34 34 37 33 33 36 43 42 45 43 43 46 69 70 73 64 66 69 61 65 68 66 69 72 87 88 91 72 72 75 26 25 28 25 24 27 23 22 25 41 41 44 30 33 36 19 23 26 57 61 64 65 67 70 81 81 84 73 72 75 69 68 71 82 82 85 82 82 85 63 65 68 58 62 65 63 67 70 71 73 76 82 82 85 80 80 83 80 79 82 75 74 77 72 72 75 63 65 68 67 70 73 52 56 59 57 59 62 61 61 64 74 73 76 70 69 72 86 85 88 62 62 65 63 65 68 63 67 70 52 56 59 73 76 79 77 78 81 77 77 80 82 81 84 71 71 74 81 81 84 60 62 65 53 56 59 61 66 69 67 70 73 59 60 63 56 61 64 50 55 58 45 50 53 42 47 50 45 50 53 45 50 53 45 50 53 59 64 67
22 26 27 22 26 27 22 26 27 91 95 95 71 75 75 83 87 87 22 26 27 79 83 83 78 82 82 69 73 73 69 73 73 22 26 27 69 73 73 75 79 79 72 76 76 81 85 85 58 58 58 74 74 74 70 70 70 58 58 58 67 67 67 62 62 62 59 59 59 63 63 63 58 58 58 62 62 62 73 73 73 69 69 69 62 62 62 70 70 70 60 60 60 60 60 60 73 73 73 26 26 24 26 26 24 26 26 24 26 26 24 211 179 48 215 179 48 214 183 48 205 179 48 206 178 48 210 180 48 209 184 48 210 177 48 216 177 48 214 182 48 213 183 48 206 177 48 212 176 48 213 181 48 216 181 48 207 178 48 207 178 48 213 180 48 210 177 48 215 180 48 213 182 48 206 183 48 216 177 48 208 178 48 212 183 48 212 181 48 213 183 48 214 181 48 216 184 48 208 180 48 210 176 48 206 184 48 216 180 48 211 185 48 209 180 48 205 181 48 213 176 48 208 177 48 209 181 48 208 185 48 213 184 48 208 178 48 205 179 48 208 180 48 210 176 48 210 179 48 215 181 48 211 179 48 211 179 48 216 182 48 205 183 48 214 178 48 207 180 48 216 184 48 214 176 48 206 178 48 209 177 48 210 177 48 216 182 48 206 177 48 210 184 48 215 177 48 210 179 48 209 181 48 214 182 48 212 177 48 211 184 48 210 180 48 215 178 48 26 26 24 26 26 24 26 26 24 26 26 24 109 75 111 71 71 71 68 68 68 62 62 62 74 74 74 69 69 69 68 68 68 76 76 76 73 73 73 64 64 64 74 74 74 64 64 64 63 63 63 76 76 76 63 63 63 22 26 27 22 26 27 22 26 27 22 26 27 22 26 27 22 26 27 22 26 27 22 26 27 22 26 27 90 93 86 85 88 82 95 97 90 104 105 97 87 90 84 87 90 84 109 110 101 85 88 82 107 109 100 94 96 89 80 83 78 83 86 81 99 101 93 101 103 95 22 26 27 22 26 27 22 26 27 84 86 81 100 101 94 106 107 99 104 106 97 108 109 100 22 26 27 22 26 27 22 26 27 22 26 27 22 26 27 22 26 27 22 26 27 22 26 27 22 26 27 22 26 27 22 26 27 22 26 27 22 26 27 22 26 27 22 26 27 22 26 27 22 26 27 22 26 27 22 26 27 22 26 27 22 26 27 71 71 74 82 82 85 64 65 68 55 58 61 51 56 59 52 55 58 58 59 62 86 86 89 77 76 79 87 86 89 85 85 88 66 67 70 55 58 61 9 13 16 26 29 32 36 37 40 25 25 28 33 32 35 32 31 34 27 26 29 31 31 34 72 73 76 79 80 83 73 74 77 76 77 80 30 29 32 29 28 31 40 40 43 21 21 24 22 23 26 32 34 37 4 9 12 58 62 65 58 60 63 84 84 87 74 73 76 85 84 87 83 82 85 65 66 69 56 58 61 47 51 54 53 57 60 58 60 63 68 69 72 68 68 71 77 76 79 84 84 87 80 81 84 59 61 64 64 68 71 56 60 63 66 68 71 79 80 83 70 69 72 87 86 89 67 66 69 69 69 72 77 78 81 47 50 53 49 54 57 68 70 73 81 82 85 82 82 85 80 79 82 87 87 90 79 79 82 73 74 77 64 67 70 49 53 56 55 58 61 63 64 67 41 46 49 50 55 58 62 67 70 59 64 67 52 57 60 45 50 53 61 66 69 50 55 58
22 26 27 22 26 27 22 26 27 84 88 88 74 78 78 70 74 74 22 26 27 84 88 88 90 94 94 75 79 79 78 82 82 22 26 27 88 92 92 83 87 87 91 95 95 77 81 81 67 67 67 74 74 74 75 75 75 106 78 115 78 78 78 69 69 69 68 68 68 61 61 61 74 74 74 77 77 77 75 75 75 72 72 72 77 77 77 63 63 63 68 68 68 63 63 63 65 65 65 26 26 24 26 26 24 26 26 24 26 26 24 212 179 48 205 179 48 207 183 48 206 182 48 209 183 48 211 184 48 214 182 48 207 185 48 216 177 48 216 180 48 207 176 48 216 178 48 213 179 48 207 181 48 206 176 48 214 178 48 208 178 48 213 182 48 212 179 48 208 177 48 205 178 48 210 176 48 213 183 48 216 180 48 210 177 48 206 184 48 212 184 48 207 179 48 207 181 48 206 185 48 216 176 48 210 177 48 216 183 48 212 185 48 213 181 48 215 183 48 215 179 48 206 184 48 211 185 48 216 179 48 213 178 48 212 178 48 213 184 48 211 178 48 212 181 48 216 180 48 205 182 48 211 185 48 216 181 48 216 179 48 215 185 48 205 180 48 209 179 48 209 177 48 215 182 48 209 179 48 210 184 48 206 180 48 215 177 48 206 181 48 212 183 48 216 181 48 208 178 48 207 185 48 215 176 48 210 183 48 212 176 48 215 178 48 208 180 48 26 26 24 26 26 24 26 26 24 26 26 24 61 61 61 77 77 77 76 76 76 72 72 72 78 78 78 64 64 64 61 61 61 73 73 73 62 62 62 74 74 74 102 79 117 63 63 63 78 78 78 71 71 71 64 64 64 22 26 27 22 26 27 22 26 27 22 26 27 22 26 27 22 26 27 22 26 27 22 26 27 22 26 27 107 108 100 90 92 86 105 107 98 91 94 87 88 90 84 98 99 92 92 94 88 103 105 97 91 93 87 93 95 88 83 85 80 98 99 92 96 98 91 87 90 84 22 26 27 22 26 27 22 26 27 102 103 95 103 105 97 87 89 83 107 108 100 101 103 95 22 26 27 22 26 27 22 26 27 22 26 27 22 26 27 22 26 27 22 26 27 22 26 27 22 26 27 22 26 27 22 26 27 22 26 27 22 26 27 22 26 27 22 26 27 22 26 27 22 26 27 22 26 27 22 26 27 22 26 27 22 26 27 81 80 83 67 67 70 69 70 73 71 74 77 61 66 69 51 55 58 61 63 66 84 84 87 81 80 83 81 80 83 65 65 68 71 71 74 71 73 76 69 73 76 8 12 15 11 13 16 25 26 29 37 37 40 46 45 48 44 43 46 42 42 45 35 35 38 28 27 30 34 33 36 44 43 46 37 36 39 35 34 37 34 33 36 30 31 34 28 30 33 15 19 22 21 26 29 72 75 78 66 66 69 79 79 82 86 85 88 86 85 88 80 80 83 66 66 69 53 56 59 52 56 59 61 64 67 69 70 73 85 85 88 85 84 87 78 77 80 78 77 80 70 71 74 63 66 69 45 49 52 64 68 71 60 62 65 67 67 70 87 87 90 68 67 70 87 86 89 64 64 67 62 64 67 57 61 64 50 54 57 54 57 60 76 76 79 67 66 69 68 67 70 80 79 82 82 82 85 66 68 71 63 66 69 58 63 66 63 66 69 78 79 82 52 57 60 44 49 52 64 69 72 56 61 64 47 52 55 63 68 71 40 45 48 43 48 51
22 26 27 22 26 27 22 26 27 75 79 79 82 86 86 78 82 82 22 26 27 88 92 92 72 76 76 88 92 92 84 88 88 22 26 27 90 94 94 87 91 91 84 88 88 75 79 79 62 62 62 72 72 72 78 78 78 75 75 75 79 79 79 70 70 70 75 75 75 62 62 62 68 68 68 70 70 70 63 63 63 77 77 77 77 77 77 67 67 67 73 73 73 63 63 63 77 77 77 26 26 24 26 26 24 26 26 24 26 26 24 211 180 48 216 184 48 210 178 48 215 185 48 216 180 48 215 179 48 214 177 48 214 185 48 207 179 48 206 179 48 215 179 48 211 179 48 215 185 48 207 181 48 212 178 48 209 185 48 214 184 48 212 181 48 214 176 48 207 180 48 209 176 48 206 178 48 213 179 48 206 177 48 207 183 48 212 176 48 211 182 48 205 179 48 216 177 48 213 180 48 210 180 48 214 179 48 208 177 48 208 181 48 207 179 48 216 176 48 209 179 48 215 184 48 214 182 48 209 185 48 213 184 48 208 181 48 209 178 48 208 185 48 214 176 48 214 179 48 207 180 48 208 180 48 207 179 48 211 180 48 212 181 48 212 183 48 213 185 48 206 176 48 208 183 48 209 183 48 213 180 48 210 183 48 215 178 48 211 185 48 206 179 48 210 178 48 216 181 48 213 184 48 215 176 48 215 180 48 211 184 48 206 181 48 216 180 48 26 26 24 26 26 24 26 26 24 26 26 24 72 72 72 66 66 66 97 82 120 69 69 69 71 71 71 77 77 77 71 71 71 74 74 74 62 62 62 68 68 68 79 79 79 79 79 79 64 64 64 71 71 71 64 64 64 22 26 27 22 26 27 22 26 27 22 26 27 22 26 27 22 26 27 22 26 27 22 26 27 22 26 27 105 107 98 90 92 86 99 100 93 95 97 90 108 110 101 100 102 94 97 98 91 105 106 98 96 98 91 95 97 90 81 84 79 106 107 99 109 110 101 83 86 80 22 26 27 22 26 27 22 26 27 22 26 27 22 26 27 22 26 27 22 26 27 22 26 27 22 26 27 22 26 27 22 26 27 22 26 27 22 26 27 22 26 27 22 26 27 22 26 27 22 26 27 22 26 27 22 26 27 22 26 27 22 26 27 22 26 27 22 26 27 22 26 27 22 26 27 22 26 27 22 26 27 22 26 27 22 26 27 72 71 74 84 83 86 63 64 67 75 77 80 58 62 65 61 65 68 55 57 60 69 70 73 81 80 83 88 87 90 87 86 89 78 78 81 75 76 79 67 70 73 21 25 28 18 22 25 30 32 35 22 23 26 40 40 43 32 32 35 34 34 37 36 35 38 25 24 27 27 26 29 31 30 33 28 27 30 35 34 37 20 21 24 17 19 22 8 11 14 11 16 19 63 67 70 62 63 66 83 84 87 87 87 90 67 66 69 74 73 76 82 82 85 57 59 62 58 62 65 44 49 52 70 73 76 58 59 62 71 71 74 67 67 70 76 75 78 66 66 69 68 69 72 70 72 75 65 70 73 60 63 66 69 70 73 77 77 80 85 84 87 78 77 80 86 86 89 69 69 72 74 76 79 61 64 67 48 52 55 73 75 78 80 81 84 67 67 70 90 89 92 83 82 85 83 83 86 74 76 79 57 61 64 65 70 73 63 65 68 65 66 69 59 64 67 47 52 55 63 68 71 51 56 59 47 52 55 63 68 71 52 57 60 61 66 69
22 26 27 22 26 27 22 26 27 91 95 95 76 80 80 89 93 93 22 26 27 92 96 96 92 96 96 76 80 80 72 76 76 22 26 27 92 96 96 74 78 78 90 94 94 83 87 87 69 69 69 68 68 68 66 66 66 72 72 72 74 74 74 79 79 79 79 79 79 67 67 67 63 63 63 72 72 72 74 74 74 68 68 68 69 69 69 75 75 75 63 63 63 68 68 68 105 83 121 26 26 24 26 26 24 26 26 24 26 26 24 210 181 48 207 180 48 213 184 48 207 176 48 212 182 48 212 185 48 216 183 48 212 176 48 211 179 48 211 183 48 215 178 48 214 181 48 206 184 48 215 177 48 215 176 48 206 176 48 212 184 48 209 178 48 205 183 48 214 180 48 207 178 48 211 181 48 211 182 48 208 183 48 211 176 48 207 184 48 209 176 48 215 177 48 215 181 48 212 179 48 211 185 48 212 185 48 211 181 48 209 176 48 211 178 48 205 185 48 209 183 48 215 178 48 213 180 48 209 185 48 206 182 48 213 182 48 205 179 48 214 176 48 214 184 48 206 185 48 209 182 48 210 184 48 210 180 48 210 184 48 209 180 48 211 180 48 215 179 48 215 185 48 216 184 48 210 178 48 214 177 48 211 185 48 209 179 48 205 185 48 207 178 48 205 179 48 208 183 48 209 184 48 209 182 48 215 176 48 215 178 48 214 181 48 216 185 48 26 26 24 26 26 24 26 26 24 26 26 24 74 74 74 75 75 75 78 78 78 65 65 65 79 79 79 78 78 78 67 67 67 77 77 77 79 79 79 78 78 78 63 63 63 65 65 65 69 69 69 80 80 80 71 71 71 22 26 27 22 26 27 22 26 27 22 26 27 22 26 27 22 26 27 22 26 27 22 26 27 22 26 27 89 92 86 87 90 84 97 99 92 86 89 83 95 97 90 95 97 90 108 109 100 93 95 89 84 87 81 109 110 101 87 89 84 97 99 92 85 87 82 95 97 90 22 26 27 22 26 27 22 26 27 22 26 27 22 26 27 22 26 27 22 26 27 22 26 27 22 26 27 22 26 27 22 26 27 22 26 27 22 26 27 22 26 27 22 26 27 22 26 27 22 26 27 22 26 27 22 26 27 22 26 27 22 26 27 22 26 27 22 26 27 22 26 27 22 26 27 22 26 27 22 26 27 22 26 27 22 26 27 74 73 76 81 80 83 79 79 82 71 73 76 52 55 58 47 52 55 62 65 68 68 69 72 65 65 68 77 76 79 84 83 86 74 73 76 83 83 86 78 79 82 53 56 59 10 14 17 24 28 31 18 21 24 17 18 21 36 37 40 21 22 25 37 37 40 27 27 30 31 31 34 30 30 33 23 24 27 19 20 23 26 28 31 23 27 30 0 3 6 55 58 61 67 69 72 74 75 78 80 80 83 86 85 88 82 81 84 65 65 68 81 82 85 74 76 79 62 66 69 50 54 57 69 71 74 72 73 76 72 71 74 82 81 84 70 69 72 66 66 69 71 72 75 52 55 58 60 65 68 58 61 64 80 82 85 67 67 70 77 77 80 82 81 84 77 77 80 69 70 73 75 78 81 49 53 56 55 59 62 60 62 65 81 81 84 75 74 77 88 87 90 86 86 89 81 81 84 75 77 80 63 67 70 48 52 55 57 59 62 74 75 78 61 66 69 47 52 55 53 58 61 58 63 66 55 60 63 61 66 69 45 50 53 46 51 54
22 26 27 22 26 27 22 26 27 93 97 97 80 84 84 79 83 83 22 26 27 83 87 87 78 82 82 77 81 81 70 74 74 22 26 27 70 74 74 90 94 94 84 88 88 81 85 85 82 82 82 69 69 69 72 72 72 67 67 67 70 70 70 68 68 68 74 74 74 79 79 79 66 66 66 67 67 67 100 88 127 82 82 82 80 80 80 79 79 79 78 78 78 66 66 66 116 86 123 26 26 24 26 26 24 26 26 24 26 26 24 215 184 48 208 179 48 207 185 48 210 183 48 209 178 48 212 176 48 207 178 48 205 184 48 214 182 48 215 183 48 213 180 48 215 183 48 213 185 48 208 178 48 215 176 48 209 177 48 208 184 48 213 184 48 215 183 48 209 180 48 216 184 48 216 183 48 215 181 48 216 184 48 207 184 48 208 178 48 213 180 48 213 180 48 210 181 48 214 183 48 208 184 48 208 177 48 213 184 48 214 179 48 210 183 48 206 183 48 205 181 48 213 179 48 206 178 48 216 182 48 215 179 48 208 185 48 206 184 48 206 182 48 209 180 48 208 185 48 214 184 48 214 185 48 210 183 48 215 176 48 209 182 48 205 177 48 205 184 48 205 184 48 209 182 48 215 183 48 211 182 48 208 181 48 214 177 48 207 183 48 214 178 48 207 183 48 216 182 48 216 182 48 210 180 48 208 184 48 215 183 48 209 184 48 206 180 48 26 26 24 26 26 24 26 26 24 26 26 24 69 69 69 72 72 72 66 66 66 74 74 74 83 83 83 79 79 79 74 74 74 83 83 83 83 83 83 71 71 71 83 83 83 68 68 68 72 72 72 82 82 82 68 68 68 22 26 27 22 26 27 22 26 27 22 26 27 22 26 27 22 26 27 22 26 27 22 26 27 22 26 27 93 95 89 85 87 82 88 91 85 81 84 79 95 97 90 92 94 88 84 87 82 87 89 84 103 105 97 102 103 96 84 86 81 81 84 79 106 107 99 98 100 93 22 26 27 22 26 27 22 26 27 22 26 27 22 26 27 22 26 27 22 26 27 22 26 27 22 26 27 22 26 27 22 26 27 22 26 27 22 26 27 22 26 27 22 26 27 22 26 27 22 26 27 22 26 27 22 26 27 22 26 27 22 26 27 22 26 27 22 26 27 22 26 27 22 26 27 22 26 27 22 26 27 22 26 27 22 26 27 69 68 71 69 68 71 79 79 82 70 71 74 55 57 60 62 66 69 67 71 74 72 74 77 60 61 64 79 79 82 76 76 79 76 75 78 86 86 89 66 66 69 63 65 68 67 69 72 63 67 70 19 24 27 23 27 30 17 21 24 23 26 29 17 19 22 23 24 27 16 18 21 13 15 18 26 28 31 15 19 22 19 23 26 66 71 74 49 52 55 63 65 68 82 83 86 77 77 80 80 79 82 83 82 85 84 83 86 71 71 74 67 69 72 57 60 63 57 62 65 61 64 67 66 67 70 81 81 84 79 78 81 76 75 78 73 72 75 74 74 77 69 71 74 53 57 60 53 58 61 63 65 68 76 76 79 78 78 81 79 78 81 84 84 87 64 64 67 59 61 64 59 62 65 42 47 50 57 60 63 60 61 64 79 79 82 84 83 86 68 67 70 88 87 90 59 59 62 70 73 76 48 52 55 63 66 69 75 77 80 55 60 63 52 57 60 41 46 49 50 55 58 42 47 50 43 48 51 50 55 58 52 57 60 53 58 61
22 26 27 22 26 27 22 26 27 84 88 88 73 77 77 93 97 97 22 26 27 85 89 89 76 80 80 92 96 96 82 86 86 22 26 27 72 76 76 76 80 80 91 95 95 91 95 95 87 87 87 117 91 130 85 85 85 71 71 71 85 85 85 84 84 84 72 72 72 75 75 75 77 77 77 87 87 87 108 92 132 75 75 75 80 80 80 87 87 87 80 80 80 74 74 74 70 70 70 26 26 24 26 26 24 26 26 24 26 26 24 208 185 48 208 177 48 213 179 48 206 179 48 206 176 48 212 183 48 213 180 48 213 183 48 209 176 48 211 179 48 206 183 48 216 183 48 211 181 48 211 182 48 210 182 48 215 185 48 212 178 48 207 182 48 213 176 48 213 180 48 207 176 48 208 176 48 216 177 48 212 178 48 206 177 48 212 180 48 205 181 48 208 184 48 205 184 48 211 184 48 214 184 48 209 179 48 207 176 48 209 185 48 206 178 48 208 182 48 208 181 48 209 179 48 205 176 48 206 181 48 216 181 48 209 176 48 214 184 48 207 183 48 216 184 48 207 177 48 206 185 48 215 185 48 212 177 48 209 180 48 214 182 48 206 181 48 212 181 48 214 181 48 210 181 48 210 180 48 206 179 48 207 178 48 209 176 48 213 180 48 208 177 48 213 179 48 208 177 48 205 177 48 207 181 48 214 179 48 210 184 48 208 183 48 215 182 48 26 26 24 26 26 24 26 26 24 26 26 24 86 86 86 79 79 79 70 70 70 72 72 72 73 73 73 69 69 69 83 83 83 70 70 70 85 85 85 71 71 71 75 75 75 87 87 87 83 83 83 83 83 83 87 87 87 22 26 27 22 26 27 22 26 27 22 26 27 22 26 27 22 26 27 22 26 27 22 26 27 22 26 27 100 101 94 101 103 95 84 87 81 93 95 88 94 96 89 81 84 79 102 103 95 81 84 79 104 106 97 104 106 97 84 87 81 92 94 87 98 100 93 91 93 87 22 26 27 22 26 27 22 26 27 22 26 27 22 26 27 22 26 27 22 26 27 22 26 27 22 26 27 22 26 27 22 26 27 22 26 27 22 26 27 22 26 27 22 26 27 22 26 27 22 26 27 22 26 27 22 26 27 22 26 27 22 26 27 22 26 27 22 26 27 22 26 27 22 26 27 22 26 27 22 26 27 22 26 27 22 26 27 78 78 81 80 79 82 67 66 69 69 69 72 78 79 82 66 69 72 61 65 68 69 73 76 56 58 61 76 77 80 74 74 77 78 78 81 80 79 82 75 74 77 84 84 87 61 61 64 77 78 81 71 74 77 51 55 58 51 55 58 2 6 9 2 7 10 8 12 15 9 14 17 11 16 19 12 17 20 47 51 54 62 65 68 75 77 80 63 64 67 76 76 79 66 65 68 68 67 70 75 74 77 76 76 79 82 82 85 75 77 80 63 66 69 49 54 57 68 71 74 59 61 64 79 79 82 79 78 81 85 84 87 77 76 79 68 68 71 69 70 73 62 65 68 62 67 70 64 67 70 74 75 78 69 69 72 80 79 82 79 78 81 80 80 83 72 73 76 65 67 70 53 57 60 53 57 60 56 58 61 82 83 86 70 70 73 78 77 80 72 72 75 76 76 79 70 71 74 52 55 58 61 66 69 68 71 74 72 73 76 55 60 63 57 62 65 58 63 66 46 51 54 59 64 67 40 45 48 61 66 69 59 64 67 55 60 63
22 26 27 22 26 27 22 26 27 80 84 84 70 74 74 90 94 94 22 26 27 75 79 79 84 88 88 88 92 92 72 76 76 22 26 27 86 90 90 81 85 85 87 91 91 78 82 82 91 91 91 86 86 86 86 86 86 86 86 86 74 74 74 85 85 85 77 77 77 87 87 87 82 82 82 88 88 88 75 75 75 76 76 76 79 79 79 84 84 84 75 75 75 86 86 86 77 77 77 26 26 24 26 26 24 26 26 24 26 26 24 211 182 48 215 177 48 212 176 48 212 176 48 211 181 48 205 185 48 211 183 48 211 180 48 206 180 48 212 177 48 208 182 48 210 180 48 213 181 48 212 182 48 212 177 48 211 177 48 215 183 48 214 184 48 207 180 48 208 182 48 212 179 48 207 179 48 212 179 48 210 176 48 214 182 48 207 179 48 210 183 48 205 185 48 211 181 48 209 176 48 205 180 48 213 180 48 215 176 48 206 184 48 212 176 48 209 185 48 214 185 48 212 185 48 214 177 48 205 183 48 210 176 48 209 177 48 211 176 48 210 180 48 205 178 48 208 177 48 208 178 48 212 183 48 211 182 48 216 177 48 208 185 48 207 185 48 205 178 48 208 184 48 212 177 48 211 177 48 213 185 48 205 177 48 205 181 48 212 177 48 207 184 48 213 176 48 210 182 48 208 183 48 208 183 48 211 181 48 216 183 48 214 183 48 208 182 48 26 26 24 26 26 24 26 26 24 26 26 24 75 75 75 86 86 86 80 80 80 89 89 89 83 83 83 91 91 91 87 87 87 80 80 80 81 81 81 77 77 77 78 78 78 89 89 89 77 77 77 75 75 75 125 97 136 22 26 27 22 26 27 22 26 27 22 26 27 22 26 27 22 26 27 22 26 27 22 26 27 22 26 27 103 104 96 108 109 100 91 93 87 98 100 92 102 104 96 87 89 83 106 107 99 101 102 95 96 98 91 110 111 102 101 102 94 94 96 89 99 101 93 86 89 83 22 26 27 22 26 27 22 26 27 22 26 27 22 26 27 22 26 27 22 26 27 22 26 27 22 26 27 22 26 27 22 26 27 22 26 27 22 26 27 22 26 27 22 26 27 22 26 27 22 26 27 22 26 27 22 26 27 22 26 27 22 26 27 22 26 27 22 26 27 22 26 27 22 26 27 22 26 27 22 26 27 22 26 27 22 26 27 65 65 68 71 70 73 76 75 78 76 76 79 83 84 87 76 77 80 59 62 65 51 55 58 58 61 64 69 71 74 73 73 76 79 78 81 81 80 83 68 67 70 72 71 74 78 78 81 74 74 77 66 67 70 76 77 80 67 69 72 69 72 75 60 63 66 70 72 75 68 70 73 72 74 77 54 55 58 66 67 70 80 81 84 81 81 84 84 84 87 75 74 77 82 81 84 88 87 90 85 84 87 80 81 84 59 61 64 64 67 70 65 70 73 49 53 56 71 74 77 66 67 70 70 70 73 84 83 86 80 79 82 84 83 86 77 78 81 59 61 64 61 65 68 62 66 69 74 76 79 71 72 75 66 66 69 76 75 78 73 72 75 79 79 82 64 65 68 59 61 64 52 56 59 54 57 60 63 65 68 73 73 76 73 73 76 78 77 80 77 76 79 70 70 73 70 71 74 48 51 54 59 63 66 66 69 72 80 80 83 42 47 50 47 52 55 63 68 71 60 65 68 45 50 53 46 51 54 55 60 63 41 46 49 53 58 61
22 26 27 22 26 27 22 26 27 93 97 97 79 83 83 81 85 85 22 26 27 87 91 91 80 84 84 88 92 92 78 82 82 22 26 27 73 77 77 83 87 87 92 96 96 77 81 81 92 92 92 91 91 91 88 88 88 93 93 93 90 90 90 88 88 88 79 79 79 87 87 87 80 80 80 83 83 83 80 80 80 91 91 91 80 80 80 90 90 90 93 93 93 93 93 93 82 82 82 26 26 24 26 26 24 26 26 24 26 26 24 212 183 48 208 176 48 215 183 48 205 183 48 206 180 48 212 183 48 210 184 48 211 178 48 216 183 48 205 182 48 211 181 48 216 177 48 206 178 48 210 178 48 210 176 48 210 177 48 215 180 48 211 180 48 206 176 48 214 185 48 213 178 48 216 184 48 213 181 48 208 176 48 216 176 48 208 178 48 207 179 48 210 180 48 210 178 48 206 183 48 206 179 48 212 185 48 209 176 48 209 177 48 210 185 48 214 180 48 207 183 48 212 179 48 215 180 48 205 178 48 207 178 48 211 177 48 212 177 48 207 185 48 212 178 48 216 177 48 212 185 48 211 183 48 216 178 48 212 177 48 211 178 48 208 185 48 212 185 48 206 185 48 209 178 48 205 177 48 212 176 48 205 185 48 213 184 48 207 181 48 207 180 48 211 179 48 210 176 48 207 185 48 206 181 48 209 179 48 208 176 48 207 176 48 207 185 48 26 26 24 26 26 24 26 26 24 26 26 24 92 92 92 79 79 79 78 78 78 92 92 92 91 91 91 127 104 145 85 85 85 78 78 78 80 80 80 87 87 87 79 79 79 92 92 92 92 92 92 89 89 89 81 81 81 22 26 27 22 26 27 22 26 27 22 26 27 22 26 27 22 26 27 22 26 27 22 26 27 22 26 27 91 93 87 83 86 81 95 97 90 85 88 82 105 106 98 106 107 99 86 88 83 99 100 93 97 99 92 86 89 83 92 94 88 104 106 97 85 87 82 96 98 90 22 26 27 22 26 27 22 26 27 22 26 27 22 26 27 22 26 27 22 26 27 22 26 27 22 26 27 22 26 27 22 26 27 22 26 27 22 26 27 22 26 27 22 26 27 22 26 27 22 26 27 22 26 27 22 26 27 22 26 27 22 26 27 22 26 27 22 26 27 22 26 27 22 26 27 22 26 27 22 26 27 22 26 27 22 26 27 81 81 84 81 81 84 81 80 83 80 79 82 75 74 77 79 79 82 55 57 60 53 56 59 46 51 54 66 69 72 63 65 68 65 66 69 81 81 84 75 74 77 83 83 86 70 69 72 78 77 80 76 75 78 68 67 70 75 74 77 77 78 81 83 83 86 66 67 70 78 78 81 72 72 75 79 79 82 65 65 68 79 79 82 87 87 90 88 87 90 72 71 74 87 86 89 78 78 81 81 81 84 55 57 60 63 66 69 57 62 65 59 63 66 75 77 80 65 66 69 62 62 65 82 81 84 74 73 76 71 71 74 79 79 82 58 60 63 70 73 76 50 55 58 71 74 77 72 74 77 62 62 65 68 67 70 69 68 71 87 86 89 78 78 81 78 79 82 64 68 71 43 48 51 70 73 76 66 67 70 77 77 80 80 80 83 68 67 70 67 66 69 69 69 72 63 65 68 53 57 60 65 69 72 60 62 65 62 67 70 50 55 58 51 56 59 55 60 63 57 62 65 47 52 55 42 47 50 47 52 55 62 67 70 47 52 55
22 26 27 22 26 27 22 26 27 74 78 78 72 76 76 73 77 77 22 26 27 90 94 94 74 78 78 89 93 93 72 76 76 22 26 27 72 76 76 72 76 76 82 86 86 69 73 73 92 92 92 90 90 90 86 86 86 124 109 151 92 92 92 84 84 84 84 84 84 93 93 93 122 110 152 87 87 87 93 93 93 92 92 92 93 93 93 92 92 92 92 92 92 93 93 93 126 109 151 26 26 24 26 26 24 26 26 24 26 26 24 26 26 24 26 26 24 26 26 24 26 26 24 26 26 24 26 26 24 26 26 24 26 26 24 26 26 24 26 26 24 26 26 24 26 26 24 26 26 24 26 26 24 26 26 24 26 26 24 26 26 24 26 26 24 26 26 24 26 26 24 26 26 24 26 26 24 26 26 24 26 26 24 26 26 24 26 26 24 26 26 24 26 26 24 26 26 24 26 26 24 26 26 24 26 26 24 26 26 24 26 26 24 26 26 24 26 26 24 26 26 24 26 26 24 26 26 24 26 26 24 26 26 24 26 26 24 26 26 24 26 26 24 26 26 24 26 26 24 26 26 24 26 26 24 26 26 24 26 26 24 26 26 24 26 26 24 26 26 24 26 26 24 26 26 24 26 26 24 26 26 24 26 26 24 26 26 24 26 26 24 26 26 24 26 26 24 26 26 24 26 26 24 26 26 24 26 26 24 26 26 24 26 26 24 26 26 24 26 26 24 26 26 24 26 26 24 26 26 24 92 92 92 85 85 85 92 92 92 88 88 88 89 89 89 90 90 90 132 108 149 93 93 93 92 92 92 93 93 93 93 93 93 90 90 90 93 93 93 84 84 84 88 88 88 22 26 27 22 26 27 22 26 27 22 26 27 22 26 27 22 26 27 22 26 27 22 26 27 22 26 27 102 103 95 108 109 100 91 94 87 96 98 91 100 102 94 106 107 99 104 105 97 81 84 79 100 102 94 101 103 95 97 99 92 91 93 87 100 102 94 94 96 89 22 26 27 22 26 27 22 26 27 22 26 27 22 26 27 22 26 27 22 26 27 22 26 27 22 26 27 22 26 27 22 26 27 22 26 27 22 26 27 22 26 27 22 26 27 22 26 27 22 26 27 22 26 27 22 26 27 22 26 27 22 26 27 22 26 27 22 26 27 22 26 27 22 26 27 22 26 27 22 26 27 22 26 27 22 26 27 72 74 77 67 67 70 66 65 68 83 82 85 83 82 85 73 72 75 64 64 67 69 71 74 67 70 73 49 53 56 43 47 50 50 53 56 67 69 72 73 74 77 63 63 66 72 72 75 70 69 72 70 69 72 80 79 82 69 68 71 81 80 83 69 68 71 70 69 72 81 80 83 70 69 72 85 84 87 80 79 82 86 85 88 73 72 75 73 73 76 72 72 75 78 79 82 59 60 63 57 59 62 63 67 70 56 61 64 59 62 65 58 60 63 78 79 82 79 78 81 84 83 86 78 77 80 67 66 69 65 65 68 77 79 82 58 60 63 49 54 57 64 67 70 74 76 79 64 65 68 74 73 76 80 79 82 77 76 79 66 66 69 67 68 71 55 57 60 51 55 58 64 68 71 74 76 79 74 74 77 74 73 76 87 86 89 83 82 85 75 75 78 61 62 65 68 71 74 63 68 71 54 57 60 79 80 83 59 64 67 62 67 70 42 47 50 42 47 50 61 66 69 62 67 70 60 65 68 54 59 62 42 47 50 58 63 66
22 26 27 22 26 27 22 26 27 85 89 89 83 87 87 92 96 96 22 26 27 85 89 89 92 96 96 86 90 90 78 82 82 22 26 27 76 80 80 77 81 81 83 87 87 70 74 74 86 86 86 93 93 93 94 94 94 94 94 94 89 89 89 143 109 148 94 94 94 87 87 87 85 85 85 92 92 92 84 84 84 87 87 87 93 93 93 92 92 92 92 92 92 93 93 93 94 94 94 26 26 24 26 26 24 26 26 24 26 26 24 26 26 24 26 26 24 26 26 24 26 26 24 26 26 24 26 26 24 26 26 24 26 26 24 26 26 24 26 26 24 26 26 24 26 26 24 26 26 24 26 26 24 26 26 24 26 26 24 26 26 24 26 26 24 26 26 24 26 26 24 26 26 24 26 26 24 26 26 24 26 26 24 26 26 24 26 26 24 26 26 24 26 26 24 26 26 24 26 26 24 26 26 24 26 26 24 26 26 24 26 26 24 26 26 24 26 26 24 26 26 24 26 26 24 26 26 24 26 26 24 26 26 24 26 26 24 26 26 24 26 26 24 26 26 24 26 26 24 26 26 24 26 26 24 26 26 24 26 26 24 26 26 24 26 26 24 26 26 24 26 26 24 26 26 24 26 26 24 26 26 24 26 26 24 26 26 24 26 26 24 26 26 24 26 26 24 26 26 24 26 26 24 26 26 24 26 26 24 26 26 24 26 26 24 26 26 24 26 26 24 26 26 24 26 26 24 26 26 24 91 91 91 89 89 89 137 109 150 92 92 92 93 93 93 92 92 92 93 93 93 89 89 89 89 89 89 84 84 84 85 85 85 94 94 94 94 94 94 93 93 93 92 92 92 22 26 27 22 26 27 22 26 27 22 26 27 22 26 27 22 26 27 22 26 27 22 26 27 22 26 27 101 103 95 108 109 100 94 96 89 107 108 99 95 97 90 91 93 87 101 103 95 90 92 86 87 89 83 101 103 95 103 104 96 82 85 80 109 110 102 81 84 79 22 26 27 22 26 27 22 26 27 22 26 27 22 26 27 22 26 27 22 26 27 22 26 27 22 26 27 22 26 27 22 26 27 22 26 27 22 26 27 22 26 27 22 26 27 22 26 27 22 26 27 22 26 27 22 26 27 22 26 27 22 26 27 22 26 27 22 26 27 22 26 27 22 26 27 22 26 27 22 26 27 22 26 27 22 26 27 64 67 70 69 70 73 71 71 74 77 76 79 73 72 75 71 70 73 71 71 74 75 75 78 66 67 70 60 62 65 58 62 65 49 54 57 47 51 54 63 66 69 56 58 61 77 78 81 60 61 64 65 65 68 67 67 70 74 73 76 66 66 69 73 72 75 79 78 81 83 82 85 75 74 77 72 71 74 85 85 88 71 71 74 79 79 82 81 82 85 64 65 68 57 59 62 48 52 55 59 64 67 63 67 70 62 65 68 67 69 72 76 76 79 74 74 77 78 78 81 72 71 74 89 88 91 72 72 75 66 67 70 63 65 68 44 49 52 66 70 73 51 54 57 78 79 82 68 67 70 87 87 90 75 74 77 66 65 68 65 65 68 70 72 75 66 70 73 57 61 64 68 71 74 74 75 78 75 75 78 81 80 83 88 87 90 66 65 68 77 78 81 65 67 70 52 56 59 47 51 54 72 74 77 70 71 74 52 57 60 41 46 49 57 62 65 45 50 53 47 52 55 60 65 68 53 58 61 63 68 71 47 52 55 61 66 69
22 26 27 22 26 27 22 26 27 90 94 94 83 87 87 73 77 77 22 26 27 73 77 77 72 76 76 77 81 81 80 84 84 22 26 27 72 76 76 86 90 90 83 87 87 75 79 79 89 89 89 93 93 93 94 94 94 92 92 92 89 89 89 94 94 94 93 93 93 92 92 92 125 109 150 83 83 83 94 94 94 84 84 84 92 92 92 124 109 150 94 94 94 91 91 91 92 92 92 26 26 24 26 26 24 26 26 24 26 26 24 26 26 24 26 26 24 26 26 24 26 26 24 26 26 24 26 26 24 26 26 24 26 26 24 26 26 24 26 26 24 26 26 24 26 26 24 26 26 24 26 26 24 26 26 24 26 26 24 26 26 24 26 26 24 26 26 24 26 26 24 26 26 24 26 26 24 26 26 24 26 26 24 26 26 24 26 26 24 26 26 24 26 26 24 26 26 24 26 26 24 26 26 24 26 26 24 26 26 24 26 26 24 26 26 24 26 26 24 26 26 24 26 26 24 26 26 24 26 26 24 26 26 24 26 26 24 26 26 24 26 26 24 26 26 24 26 26 24 26 26 24 26 26 24 26 26 24 26 26 24 26 26 24 26 26 24 26 26 24 26 26 24 26 26 24 26 26 24 26 26 24 26 26 24 26 26 24 26 26 24 26 26 24 26 26 24 26 26 24 26 26 24 26 26 24 26 26 24 26 26 24 26 26 24 26 26 24 26 26 24 26 26 24 26 26 24 26 26 24 88 88 88 84 84 84 82 82 82 91 91 91 93 93 93 90 90 90 91 91 91 92 92 92 85 85 85 93 93 93 92 92 92 86 86 86 93 93 93 93 93 93 94 94 94 22 26 27 22 26 27 22 26 27 22 26 27 22 26 27 22 26 27 22 26 27 22 26 27 22 26 27 94 96 89 102 104 96 81 84 79 98 99 92 101 103 95 91 93 87 81 84 79 106 107 99 101 102 94 92 94 87 85 88 82 91 94 87 97 99 92 98 99 92 22 26 27 22 26 27 22 26 27 22 26 27 22 26 27 22 26 27 22 26 27 22 26 27 22 26 27 22 26 27 22 26 27 22 26 27 22 26 27 22 26 27 22 26 27 22 26 27 22 26 27 22 26 27 22 26 27 22 26 27 22 26 27 22 26 27 22 26 27 22 26 27 22 26 27 22 26 27 22 26 27 22 26 27 22 26 27 44 49 52 55 58 61 70 72 75 81 81 84 83 83 86 68 68 71 73 72 75 87 86 89 71 70 73 64 65 68 67 69 72 58 60 63 47 51 54 53 58 61 48 52 55 60 63 66 61 64 67 55 57 60 63 64 67 63 65 68 74 75 78 76 77 80 76 77 80 62 63 66 66 67 70 76 77 80 55 57 60 70 72 75 57 59 62 71 74 77 49 53 56 55 60 63 50 54 57 63 66 69 64 65 68 62 63 66 79 79 82 74 74 77 85 84 87 81 80 83 82 82 85 80 80 83 80 82 85 64 67 70 49 53 56 45 49 52 60 62 65 75 76 79 79 79 82 84 83 86 79 78 81 75 74 77 69 69 72 57 58 61 65 68 71 49 54 57 61 64 67 71 73 76 80 81 84 77 77 80 74 73 76 68 67 70 81 81 84 75 76 79 71 74 77 59 64 67 69 72 75 79 81 84 54 59 62 44 49 52 50 55 58 56 61 64 64 69 72 52 57 60 50 55 58 63 68 71 44 49 52 53 58 61 44 49 52
22 26 27 22 26 27 22 26 27 88 92 92 75 79 79 90 94 94 22 26 27 73 77 77 70 74 74 80 84 84 78 82 82 22 26 27 80 84 84 78 82 82 87 91 91 88 92 92 92 92 92 91 91 91 92 92 92 89 89 89 90 90 90 91 91 91 81 81 81 92 92 92 91 91 91 118 104 145 92 92 92 86 86 86 83 83 83 92 92 92 84 84 84 91 91 91 90 90 90 26 26 24 26 26 24 26 26 24 26 26 24 26 26 24 26 26 24 26 26 24 26 26 24 26 26 24 26 26 24 26 26 24 26 26 24 26 26 24 26 26 24 26 26 24 26 26 24 26 26 24 26 26 24 26 26 24 26 26 24 26 26 24 26 26 24 26 26 24 26 26 24 26 26 24 26 26 24 26 26 24 26 26 24 26 26 24 26 26 24 26 26 24 26 26 24 26 26 24 26 26 24 26 26 24 26 26 24 26 26 24 26 26 24 26 26 24 26 26 24 26 26 24 26 26 24 26 26 24 26 26 24 26 26 24 26 26 24 26 26 24 26 26 24 26 26 24 26 26 24 26 26 24 26 26 24 26 26 24 26 26 24 26 26 24 26 26 24 26 26 24 26 26 24 26 26 24 26 26 24 26 26 24 26 26 24 26 26 24 26 26 24 26 26 24 26 26 24 26 26 24 26 26 24 26 26 24 26 26 24 26 26 24 26 26 24 26 26 24 26 26 24 26 26 24 26 26 24 26 26 24 79 79 79 92 92 92 81 81 81 133 102 141 119 104 145 139 101 140 82 82 82 127 103 143 91 91 91 82 82 82 86 86 86 89 89 89 89 89 89 92 92 92 86 86 86 22 26 27 22 26 27 22 26 27 22 26 27 22 26 27 22 26 27 22 26 27 22 26 27 22 26 27 82 85 79 82 85 80 97 99 92 98 100 93 101 103 95 95 97 90 106 108 99 105 106 98 104 105 97 100 101 94 93 95 88 89 91 85 84 87 81 101 102 95 22 26 27 22 26 27 22 26 27 22 26 27 22 26 27 22 26 27 22 26 27 22 26 27 22 26 27 22 26 27 22 26 27 22 26 27 22 26 27 22 26 27 22 26 27 22 26 27 22 26 27 22 26 27 22 26 27 22 26 27 22 26 27 22 26 27 22 26 27 22 26 27 22 26 27 22 26 27 22 26 27 22 26 27 22 26 27 56 59 62 44 49 52 70 73 76 73 75 78 62 63 66 70 70 73 80 79 82 86 85 88 70 69 72 68 68 71 71 71 74 76 77 80 78 79 82 62 64 67 64 67 70 58 62 65 58 62 65 51 56 59 59 64 67 63 67 70 56 59 62 48 52 55 62 65 68 54 57 60 70 73 76 58 61 64 45 49 52 42 47 50 46 50 53 51 55 58 71 74 77 66 68 71 71 73 76 67 68 71 82 82 85 87 86 89 84 84 87 71 70 73 77 77 80 85 85 88 70 70 73 66 68 71 64 67 70 45 49 52 49 53 56 71 73 76 79 80 83 86 86 89 74 73 76 68 67 70 88 87 90 84 84 87 72 73 76 67 69 72 44 48 51 59 63 66 53 55 58 80 81 84 80 80 83 78 77 80 80 79 82 83 83 86 82 82 85 72 74 77 58 62 65 60 64 67 54 56 59 68 69 72 42 47 50 52 57 60 54 59 62 61 66 69 44 49 52 60 65 68 40 45 48 60 65 68 61 66 69 43 48 51 60 65 68
22 26 27 22 26 27 22 26 27 76 80 80 81 85 85 86 90 90 22 26 27 83 87 87 82 86 86 85 89 89 87 91 91 22 26 27 72 76 76 74 78 78 83 87 87 71 75 75 84 84 84 88 88 88 88 88 88 75 75 75 80 80 80 78 78 78 79 79 79 91 91 91 83 83 83 74 74 74 86 86 86 83 83 83 91 91 91 89 89 89 89 89 89 82 82 82 90 90 90 89 89 89 86 86 86 90 90 90 85 85 85 124 96 135 76 76 76 82 82 82 83 83 83 90 90 90 125 96 135 86 86 86 77 77 77 75 75 75 118 97 136 126 96 134 89 89 89 79 79 79 91 91 91 77 77 77 91 91 91 79 79 79 85 85 85 91 91 91 89 89 89 91 91 91 81 81 81 84 84 84 91 91 91 84 84 84 77 77 77 74 74 74 75 75 75 111 98 138 77 77 77 89 89 89 85 85 85 82 82 82 82 82 82 85 85 85 89 89 89 89 89 89 90 90 90 77 77 77 88 88 88 88 88 88 73 73 73 77 77 77 91 91 91 83 83 83 89 89 89 73 73 73 75 75 75 85 85 85 74 74 74 75 75 75 78 78 78 87 87 87 89 89 89 77 77 77 73 73 73 77 77 77 89 89 89 85 85 85 89 89 89 85 85 85 131 95 133 85 85 85 75 75 75 74 74 74 81 81 81 79 79 79 82 82 82 89 89 89 79 79 79 75 75 75 86 86 86 85 85 85 81 81 81 91 91 91 73 73 73 80 80 80 86 86 86 81 81 81 86 86 86 75 75 75 124 96 135 88 88 88 75 75 75 88 88 88 113 97 138 77 77 77 86 86 86 22 26 27 22 26 27 22 26 27 22 26 27 22 26 27 22 26 27 22 26 27 22 26 27 22 26 27 102 104 96 88 90 84 97 99 92 80 83 78 105 106 98 84 87 81 95 97 90 104 105 97 103 104 96 87 90 84 108 109 101 84 87 82 86 88 82 105 106 98 22 26 27 22 26 27 22 26 27 22 26 27 22 26 27 22 26 27 22 26 27 22 26 27 22 26 27 22 26 27 22 26 27 22 26 27 22 26 27 22 26 27 22 26 27 22 26 27 22 26 27 22 26 27 22 26 27 22 26 27 22 26 27 22 26 27 22 26 27 22 26 27 22 26 27 22 26 27 22 26 27 22 26 27 22 26 27 72 74 77 62 65 68 57 62 65 48 52 55 59 62 65 77 78 81 84 85 88 73 73 76 83 82 85 83 82 85 85 84 87 80 79 82 81 81 84 79 79 82 73 74 77 64 66 69 75 77 80 62 64 67 59 62 65 68 71 74 58 62 65 56 60 63 65 69 72 63 67 70 67 70 73 54 57 60 66 69 72 65 68 71 68 70 73 71 72 75 74 75 78 83 83 86 84 84 87 72 71 74 88 88 91 82 81 84 88 87 90 75 75 78 67 67 70 71 72 75 74 76 79 55 59 62 63 68 71 56 60 63 73 75 78 60 61 64 62 62 65 72 71 74 78 77 80 75 74 77 76 76 79 79 80 83 63 65 68 46 50 53 55 59 62 73 75 78 73 74 77 78 78 81 65 64 67 68 67 70 84 84 87 62 63 66 65 66 69 62 66 69 51 56 59 56 59 62 78 79 82 62 67 70 48 53 56 41 46 49 43 48 51 43 48 51 51 56 59 56 61 64 63 68 71 48 53 56 42 47 50 58 63 66 63 68 71
22 26 27 22 26 27 22 26 27 83 87 87 69 73 73 90 94 94 22 26 27 93 97 97 70 74 74 80 84 84 69 73 73 22 26 27 76 80 80 90 94 94 69 73 73 85 89 89 82 82 82 75 75 75 86 86 86 69 69 69 77 77 77 79 79 79 82 82 82 81 81 81 78 78 78 86 86 86 83 83 83 74 74 74 85 85 85 77 77 77 75 75 75 86 86 86 84 84 84 77 77 77 74 74 74 73 73 73 75 75 75 82 82 82 83 83 83 123 89 127 84 84 84 78 78 78 70 70 70 74 74 74 110 91 130 69 69 69 82 82 82 76 76 76 74 74 74 73 73 73 77 77 77 85 85 85 74 74 74 79 79 79 70 70 70 84 84 84 85 85 85 78 78 78 72 72 72 85 85 85 83 83 83 80 80 80 81 81 81 86 86 86 78 78 78 79 79 79 76 76 76 84 84 84 85 85 85 69 69 69 75 75 75 72 72 72 114 90 129 77 77 77 80 80 80 75 75 75 82 82 82 78 78 78 84 84 84 74 74 74 84 84 84 83 83 83 113 91 129 73 73 73 77 77 77 71 71 71 72 72 72 85 85 85 84 84 84 85 85 85 83 83 83 80 80 80 83 83 83 83 83 83 82 82 82 73 73 73 82 82 82 85 85 85 85 85 85 79 79 79 71 71 71 84 84 84 74 74 74 77 77 77 83 83 83 69 69 69 73 73 73 118 90 128 80 80 80 76 76 76 72 72 72 86 86 86 82 82 82 76 76 76 75 75 75 83 83 83 78 78 78 80 80 80 78 78 78 78 78 78 71 71 71 84 84 84 80 80 80 74 74 74 74 74 74 22 26 27 22 26 27 22 26 27 22 26 27 22 26 27 22 26 27 22 26 27 22 26 27 22 26 27 85 88 82 87 89 83 92 94 87 99 100 93 95 97 90 109 110 101 98 100 93 84 87 81 94 96 89 102 104 96 108 109 100 102 104 96 109 110 101 101 102 94 22 26 27 22 26 27 22 26 27 22 26 27 22 26 27 22 26 27 22 26 27 22 26 27 22 26 27 22 26 27 22 26 27 22 26 27 22 26 27 22 26 27 22 26 27 22 26 27 22 26 27 22 26 27 22 26 27 22 26 27 22 26 27 22 26 27 22 26 27 22 26 27 22 26 27 22 26 27 22 26 27 22 26 27 22 26 27 77 77 80 75 77 80 57 60 63 52 56 59 45 50 53 52 55 58 60 62 65 57 58 61 80 80 83 68 67 70 69 68 71 81 80 83 76 75 78 65 65 68 81 81 84 66 66 69 63 63 66 79 80 83 64 65 68 68 69 72 64 65 68 61 63 66 59 60 63 56 58 61 66 67 70 63 64 67 82 82 85 80 80 83 82 82 85 64 63 66 88 87 90 75 74 77 66 65 68 72 71 74 72 71 74 64 64 67 79 79 82 76 77 80 59 60 63 73 76 79 53 57 60 62 66 69 68 71 74 76 78 81 78 79 82 77 77 80 82 81 84 81 80 83 74 73 76 77 77 80 67 68 71 63 65 68 56 60 63 52 57 60 63 65 68 79 80 83 62 62 65 73 72 75 82 81 84 71 70 73 71 71 74 72 74 77 66 68 71 51 56 59 48 52 55 72 74 77 64 69 72 54 59 62 52 57 60 43 48 51 51 56 59 44 49 52 51 56 59 47 52 55 53 58 61 47 52 55 54 59 62 52 57 60 49 54 57
22 26 27 22 26 27 22 26 27 78 82 82 71 75 75 74 78 78 22 26 27 77 81 81 72 76 76 91 95 95 89 93 93 22 26 27 70 74 74 91 95 95 74 78 78 71 75 75 66 66 66 120 84 121 77 77 77 68 68 68 71 71 71 74 74 74 114 85 122 82 82 82 79 79 79 79 79 79 74 74 74 70 70 70 76 76 76 71 71 71 79 79 79 66 66 66 83 83 83 73 73 73 77 77 77 101 87 126 82 82 82 83 83 83 73 73 73 82 82 82 67 67 67 121 84 121 69 69 69 73 73 73 70 70 70 70 70 70 79 79 79 74 74 74 77 77 77 79 79 79 79 79 79 81 81 81 69 69 69 71 71 71 65 65 65 72 72 72 80 80 80 82 82 82 65 65 65 65 65 65 80 80 80 69 69 69 78 78 78 77 77 77 78 78 78 77 77 77 66 66 66 69 69 69 69 69 69 77 77 77 71 71 71 81 81 81 77 77 77 69 69 69 76 76 76 76 76 76 76 76 76 69 69 69 70 70 70 82 82 82 66 66 66 74 74 74 79 79 79 82 82 82 82 82 82 77 77 77 80 80 80 76 76 76 73 73 73 103 86 125 79 79 79 66 66 66 71 71 71 66 66 66 80 80 80 67 67 67 109 86 124 69 69 69 78 78 78 83 83 83 76 76 76 80 80 80 82 82 82 68 68 68 83 83 83 70 70 70 73 73 73 74 74 74 73 73 73 119 84 121 77 77 77 116 85 122 72 72 72 81 81 81 82 82 82 74 74 74 78 78 78 78 78 78 79 79 79 81 81 81 71 71 71 71 71 71 79 79 79 66 66 66 67 67 67 22 26 27 22 26 27 22 26 27 22 26 27 22 26 27 22 26 27 22 26 27 22 26 27 22 26 27 96 98 91 82 85 79 93 96 89 109 110 101 81 83 78 99 100 93 97 99 92 110 111 102 85 88 82 97 99 92 104 106 97 94 96 89 107 108 99 90 92 86 22 26 27 22 26 27 22 26 27 22 26 27 22 26 27 22 26 27 22 26 27 22 26 27 22 26 27 22 26 27 22 26 27 22 26 27 22 26 27 22 26 27 22 26 27 22 26 27 22 26 27 22 26 27 22 26 27 22 26 27 22 26 27 22 26 27 22 26 27 22 26 27 22 26 27 22 26 27 22 26 27 22 26 27 22 26 27 72 72 75 81 82 85 79 80 83 69 71 74 55 59 62 48 52 55 52 56 59 56 59 62 55 57 60 72 73 76 82 83 86 73 72 75 82 82 85 69 69 72 86 85 88 81 80 83 66 65 68 77 77 80 76 75 78 72 71 74 83 83 86 82 81 84 85 84 87 78 77 80 88 88 91 76 76 79 88 87 90 88 87 90 79 78 81 70 69 72 79 78 81 75 74 77 76 75 78 74 74 77 66 66 69 69 70 73 70 71 74 56 59 62 61 64 67 60 65 68 62 66 69 58 60 63 63 64 67 65 65 68 82 82 85 89 89 92 90 89 92 68 67 70 63 63 66 64 65 68 67 69 72 46 50 53 63 68 71 55 58 61 68 69 72 71 71 74 66 66 69 85 84 87 69 68 71 82 81 84 73 74 77 62 65 68 58 62 65 54 58 61 71 74 77 79 80 83 61 66 69 53 58 61 50 55 58 45 50 53 45 50 53 63 68 71 47 52 55 42 47 50 54 59 62 51 56 59 52 57 60 47 52 55 47 52 55
22 26 27 22 26 27 22 26 27 88 92 92 74 78 78 79 83 83 22 26 27 85 89 89 81 85 85 75 79 79 70 74 74 22 26 27 93 97 97 78 82 82 86 90 90 77 81 81 75 75 75 70 70 70 67 67 67 109 82 119 74 74 74 69 69 69 74 74 74 79 79 79 63 63 63 75 75 75 76 76 76 68 68 68 64 64 64 72 72 72 63 63 63 77 77 77 75 75 75 77 77 77 68 68 68 75 75 75 78 78 78 77 77 77 74 74 74 120 81 116 68 68 68 67 67 67 66 66 66 64 64 64 67 67 67 62 62 62 63 63 63 116 81 118 79 79 79 79 79 79 73 73 73 71 71 71 70 70 70 67 67 67 67 67 67 66 66 66 74 74 74 72 72 72 80 80 80 75 75 75 74 74 74 117 81 117 62 62 62 77 77 77 71 71 71 74 74 74 79 79 79 80 80 80 78 78 78 75 75 75 75 75 75 102 83 121 67 67 67 80 80 80 69 69 69 66 66 66 71 71 71 72 72 72 72 72 72 77 77 77 80 80 80 70 70 70 79 79 79 79 79 79 63 63 63 80 80 80 78 78 78 74 74 74 80 80 80 64 64 64 62 62 62 63 63 63 68 68 68 78 78 78 77 77 77 105 83 120 78 78 78 69 69 69 78 78 78 95 84 123 78 78 78 74 74 74 69 69 69 109 82 119 79 79 79 68 68 68 70 70 70 63 63 63 80 80 80 73 73 73 75 75 75 74 74 74 63 63 63 69 69 69 64 64 64 79 79 79 103 83 121 79 79 79 67 67 67 69 69 69 64 64 64 64 64 64 63 63 63 64 64 64 63 63 63 22 26 27 22 26 27 22 26 27 22 26 27 22 26 27 22 26 27 22 26 27 22 26 27 22 26 27 22 26 27 22 26 27 22 26 27 22 26 27 22 26 27 22 26 27 22 26 27 22 26 27 22 26 27 22 26 27 22 26 27 22 26 27 22 26 27 22 26 27 22 26 27 22 26 27 22 26 27 22 26 27 22 26 27 22 26 27 22 26 27 22 26 27 22 26 27 22 26 27 22 26 27 22 26 27 22 26 27 22 26 27 22 26 27 22 26 27 22 26 27 22 26 27 22 26 27 22 26 27 22 26 27 22 26 27 22 26 27 22 26 27 22 26 27 22 26 27 22 26 27 22 26 27 22 26 27 90 89 92 88 87 90 67 67 70 61 61 64 78 79 82 68 71 74 47 51 54 50 55 58 50 55 58 70 73 76 56 58 61 71 73 76 78 79 82 79 80 83 63 63 66 87 87 90 67 67 70 77 76 79 79 79 82 76 75 78 88 87 90 81 80 83 85 84 87 66 65 68 70 69 72 73 72 75 84 83 86 88 87 90 88 87 90 69 68 71 64 63 66 67 67 70 82 83 86 74 76 79 53 55 58 57 60 63 50 54 57 54 59 62 49 53 56 66 68 71 72 74 77 83 83 86 73 73 76 82 81 84 75 74 77 69 68 71 88 88 91 77 77 80 71 73 76 67 69 72 48 52 55 55 59 62 65 68 71 74 75 78 81 81 84 69 69 72 68 67 70 66 65 68 68 68 71 77 77 80 58 60 63 61 64 67 60 65 68 59 61 64 78 80 83 56 61 64 49 54 57 60 65 68 55 60 63 60 65 68 48 53 56 54 59 62 53 58 61 62 67 70 51 56 59 52 57 60 46 51 54 57 62 65 61 66 69
22 26 27 22 26 27 22 26 27 80 84 84 81 85 85 70 74 74 22 26 27 84 88 88 92 96 96 83 87 87 83 87 87 22 26 27 77 81 81 87 91 91 81 85 85 70 74 74 74 74 74 68 68 68 69 69 69 74 74 74 63 63 63 77 77 77 72 72 72 71 71 71 71 71 71 79 79 79 79 79 79 72 72 72 79 79 79 62 62 62 77 77 77 79 79 79 110 80 116 76 76 76 79 79 79 67 67 67 79 79 79 72 72 72 65 65 65 75 75 75 69 69 69 68 68 68 79 79 79 74 74 74 67 67 67 79 79 79 76 76 76 73 73 73 79 79 79 73 73 73 73 73 73 71 71 71 77 77 77 77 77 77 67 67 67 65 65 65 77 77 77 73 73 73 72 72 72 77 77 77 77 77 77 72 72 72 67 67 67 68 68 68 69 69 69 116 79 115 72 72 72 78 78 78 67 67 67 78 78 78 75 75 75 70 70 70 78 78 78 76 76 76 67 67 67 64 64 64 78 78 78 73 73 73 75 75 75 77 77 77 72 72 72 79 79 79 66 66 66 71 71 71 61 61 61 70 70 70 79 79 79 78 78 78 79 79 79 75 75 75 61 61 61 63 63 63 69 69 69 68 68 68 68 68 68 106 80 117 66 66 66 63 63 63 69 69 69 72 72 72 64 64 64 71 71 71 63 63 63 63 63 63 68 68 68 72 72 72 69 69 69 77 77 77 63 63 63 65 65 65 69 69 69 77 77 77 74 74 74 69 69 69 63 63 63 63 63 63 67 67 67 78 78 78 68 68 68 64 64 64 63 63 63 74 74 74 62 62 62 77 77 77 68 68 68 22 26 27 22 26 27 22 26 27 22 26 27 22 26 27 22 26 27 22 26 27 22 26 27 22 26 27 22 26 27 22 26 27 22 26 27 22 26 27 22 26 27 22 26 27 22 26 27 22 26 27 22 26 27 22 26 27 22 26 27 22 26 27 22 26 27 22 26 27 22 26 27 22 26 27 22 26 27 22 26 27 22 26 27 22 26 27 22 26 27 22 26 27 22 26 27 22 26 27 22 26 27 22 26 27 22 26 27 22 26 27 22 26 27 22 26 27 22 26 27 22 26 27 22 26 27 22 26 27 22 26 27 22 26 27 22 26 27 22 26 27 22 26 27 22 26 27 22 26 27 22 26 27 22 26 27 85 85 88 88 87 90 77 76 79 73 72 75 71 71 74 75 76 79 78 79 82 60 62 65 52 56 59 52 56 59 48 53 56 57 61 64 65 68 71 69 72 75 70 72 75 66 67 70 69 70 73 82 83 86 74 75 78 65 65 68 70 70 73 82 82 85 65 65 68 79 79 82 85 85 88 71 71 74 82 82 85 65 65 68 75 76 79 80 81 84 55 56 59 68 70 73 69 72 75 65 69 72 65 70 73 65 69 72 64 68 71 62 65 68 63 65 68 68 69 72 78 79 82 86 85 88 85 84 87 71 70 73 85 84 87 66 66 69 80 81 84 72 73 76 60 63 66 44 48 51 65 69 72 71 74 77 63 64 67 61 61 64 71 71 74 87 86 89 77 76 79 82 82 85 73 74 77 56 58 61 55 59 62 51 56 59 66 69 72 76 78 81 48 53 56 56 61 64 46 51 54 56 61 64 59 64 67 48 53 56 44 49 52 59 64 67 47 52 55 42 47 50 46 51 54 64 69 72 57 62 65 63 68 71 41 46 49
22 26 27 22 26 27 22 26 27 88 92 92 71 75 75 70 74 74 22 26 27 81 85 85 86 90 90 71 75 75 75 79 79 22 26 27 72 76 76 71 75 75 75 79 79 87 91 91 63 63 63 65 65 65 71 71 71 73 73 73 72 72 72 70 70 70 63 63 63 66 66 66 75 75 75 73 73 73 74 74 74 63 63 63 74 74 74 73 73 73 78 78 78 69 69 69 72 72 72 59 59 59 73 73 73 74 74 74 77 77 77 77 77 77 70 70 70 71 71 71 59 59 59 66 66 66 70 70 70 66 66 66 60 60 60 73 73 73 74 74 74 61 61 61 63 63 63 69 69 69 65 65 65 108 78 114 67 67 67 73 73 73 65 65 65 76 76 76 61 61 61 74 74 74 60 60 60 89 80 119 59 59 59 75 75 75 106 78 115 92 80 118 61 61 61 63 63 63 74 74 74 77 77 77 73 73 73 74 74 74 64 64 64 68 68 68 64 64 64 72 72 72 74 74 74 63 63 63 72 72 72 61 61 61 101 79 116 63 63 63 77 77 77 63 63 63 75 75 75 110 77 114 72 72 72 64 64 64 71 71 71 63 63 63 62 62 62 71 71 71 66 66 66 76 76 76 75 75 75 69 69 69 98 79 117 72 72 72 70 70 70 69 69 69 72 72 72 77 77 77 60 60 60 73 73 73 65 65 65 64 64 64 77 77 77 62 62 62 65 65 65 74 74 74 75 75 75 77 77 77 64 64 64 60 60 60 64 64 64 63 63 63 72 72 72 60 60 60 75 75 75 73 73 73 95 79 118 73 73 73 71 71 71 78 78 78 65 65 65 61 61 61 74 74 74 98 102 100 94 98 96 77 81 79 85 89 87 90 94 92 90 94 92 85 89 87 88 92 90 85 89 87 96 100 98 81 85 83 90 94 92 81 85 83 77 81 79 97 101 99 93 97 95 87 91 89 97 101 99 88 92 90 98 102 100 83 87 85 91 95 93 80 84 82 89 93 91 96 100 98 85 89 87 82 86 84 85 89 87 90 94 92 85 89 87 82 86 84 93 97 95 75 79 77 87 91 89 92 92 90 104 106 104 88 91 89 98 101 99 91 93 91 96 96 94 114 113 111 113 111 109 105 103 101 107 105 103 110 109 107 95 95 93 103 104 102 83 85 83 78 81 79 91 94 92 89 91 89 111 112 110 117 116 114 103 102 100 122 120 118 121 119 117 123 121 119 104 102 100 112 110 108 117 116 114 102 102 100 93 93 91 102 104 102 99 101 99 97 101 99 80 84 82 81 84 82 89 92 90 104 107 105 86 88 86 104 105 103 90 91 89 93 95 93 111 112 110 106 107 105 97 98 96 88 89 87 101 102 100 99 100 98 90 91 89 102 104 102 88 91 89 45 49 52 49 54 57 44 49 52 45 49 52 66 69 72 70 73 76 76 77 80 79 80 83 83 83 86 82 81 84 78 78 81 88 87 90 70 70 73 66 65 68 69 69 72 75 76 79 72 74 77 49 52 55 61 66 69 64 68 71 69 71 74 78 79 82 71 71 74 71 70 73 77 76 79 89 89 92 74 74 77 65 66 69 56 58 61 58 61 64 61 65 68 61 64 67 73 75 78 56 61 64 59 64 67 47 52 55 58 63 66 50 55 58 60 65 68 54 59 62 58 63 66 47 52 55 48 53 56 52 57 60 44 49 52 43 48 51 42 47 50 55 60 63 56 61 64
22 26 27 22 26 27 22 26 27 85 89 89 77 81 81 91 95 95 22 26 27 78 82 82 70 74 74 85 89 89 92 96 96 22 26 27 71 75 75 80 84 84 71 75 75 76 80 80 72 72 72 62 62 62 69 69 69 61 61 61 66 66 66 62 62 62 74 74 74 72 72 72 72 72 72 72 72 72 63 63 63 71 71 71 97 75 113 74 74 74 61 61 61 72 72 72 66 66 66 63 63 63 73 73 73 67 67 67 57 57 57 60 60 60 73 73 73 60 60 60 66 66 66 74 74 74 67 67 67 66 66 66 57 57 57 66 66 66 68 68 68 74 74 74 75 75 75 106 74 110 68 68 68 71 71 71 59 59 59 64 64 64 57 57 57 72 72 72 66 66 66 67 67 67 70 70 70 57 57 57 72 72 72 72 72 72 66 66 66 75 75 75 74 74 74 60 60 60 75 75 75 73 73 73 64 64 64 109 74 109 58 58 58 63 63 63 73 73 73 64 64 64 72 72 72 72 72 72 65 65 65 73 73 73 66 66 66 115 73 108 111 74 109 87 77 116 66 66 66 62 62 62 68 68 68 62 62 62 63 63 63 59 59 59 63 63 63 67 67 67 58 58 58 69 69 69 66 66 66 114 73 108 75 75 75 58 58 58 57 57 57 70 70 70 71 71 71 63 63 63 64 64 64 64 64 64 62 62 62 74 74 74 58 58 58 60 60 60 70 70 70 72 72 72 63 63 63 72 72 72 73 73 73 70 70 70 67 67 67 68 68 68 66 66 66 66 66 66 73 73 73 72 72 72 62 62 62 68 68 68 57 57 57 73 73 73 62 62 62 61 61 61 61 61 61 86 90 88 75 79 77 79 83 81 89 93 91 82 86 84 87 91 89 88 92 90 93 97 95 81 85 83 88 92 90 94 98 96 87 91 89 79 83 81 95 99 97 94 98 96 91 95 93 78 82 80 80 84 82 91 95 93 96 100 98 86 90 88 86 90 88 93 97 95 86 90 88 97 101 99 88 92 90 84 88 86 78 82 80 88 92 90 96 100 98 91 95 93 95 99 97 85 89 87 79 83 81 98 102 100 90 91 89 99 101 99 96 99 97 89 92 90 108 109 107 95 95 93 109 108 106 98 97 95 109 107 105 119 117 115 111 109 107 109 109 107 95 95 93 105 106 104 80 83 81 95 99 97 84 86 84 96 97 95 104 104 102 99 98 96 107 106 104 109 107 105 107 105 103 123 121 119 103 101 99 120 118 116 98 97 95 98 98 96 110 110 108 90 91 89 92 93 91 106 108 106 87 89 87 93 96 94 94 97 95 86 89 87 82 86 84 93 97 95 94 98 96 89 93 91 92 96 94 91 95 93 81 85 83 75 79 77 80 83 81 101 104 102 102 105 103 58 61 64 52 54 57 54 56 59 59 60 63 77 77 80 65 65 68 69 69 72 87 86 89 87 86 89 84 83 86 73 73 76 65 65 68 82 82 85 67 68 71 59 61 64 50 53 56 67 72 75 62 66 69 64 68 71 59 61 64 73 74 77 75 74 77 83 82 85 67 66 69 75 74 77 85 84 87 80 81 84 66 68 71 69 73 76 56 60 63 50 53 56 57 59 62 43 48 51 50 55 58 64 69 72 48 53 56 54 59 62 51 56 59 59 64 67 61 66 69 60 65 68 59 64 67 43 48 51 54 59 62 46 51 54 46 51 54 60 65 68 46 51 54 62 67 70
22 26 27 22 26 27 22 26 27 72 76 76 87 91 91 81 85 85 22 26 27 80 84 84 79 83 83 69 73 73 82 86 86 22 26 27 82 86 86 76 80 80 73 77 77 81 85 85 63 63 63 57 57 57 65 65 65 64 64 64 65 65 65 71 71 71 57 57 57 66 66 66 69 69 69 66 66 66 71 71 71 71 71 71 62 62 62 69 69 69 58 58 58 65 65 65 85 71 109 63 63 63 59 59 59 57 57 57 61 61 61 70 70 70 68 68 68 61 61 61 71 71 71 58 58 58 58 58 58 67 67 67 70 70 70 60 60 60 68 68 68 69 69 69 56 56 56 93 70 107 68 68 68 64 64 64 100 69 105 63 63 63 67 67 67 54 54 54 65 65 65 57 57 57 63 63 63 71 71 71 62 62 62 84 71 109 57 57 57 58 58 58 65 65 65 64 64 64 67 67 67 60 60 60 59 59 59 59 59 59 59 59 59 93 70 107 59 59 59 66 66 66 61 61 61 65 65 65 60 60 60 53 53 53 61 61 61 63 63 63 63 63 63 68 68 68 63 63 63 64 64 64 56 56 56 69 69 69 65 65 65 70 70 70 67 67 67 57 57 57 65 65 65 61 61 61 58 58 58 70 70 70 57 57 57 56 56 56 62 62 62 68 68 68 104 69 104 66 66 66 61 61 61 65 65 65 68 68 68 66 66 66 58 58 58 67 67 67 59 59 59 54 54 54 70 70 70 69 69 69 60 60 60 55 55 55 60 60 60 57 57 57 58 58 58 58 58 58 54 54 54 54 54 54 62 62 62 71 71 71 66 66 66 54 54 54 66 66 66 108 68 103 67 67 67 90 94 92 97 101 99 95 99 97 78 82 80 86 90 88 98 102 100 76 80 78 79 83 81 85 89 87 77 81 79 91 95 93 79 83 81 83 87 85 97 101 99 83 87 85 89 93 91 95 99 97 95 99 97 88 92 90 98 102 100 80 84 82 92 96 94 76 80 78 85 89 87 92 96 94 86 90 88 96 100 98 85 89 87 75 79 77 84 88 86 85 89 87 98 102 100 82 86 84 94 98 96 81 85 83 81 85 83 110 111 109 105 107 105 80 83 81 80 83 81 99 101 99 103 103 101 116 116 114 104 102 100 122 120 118 119 117 115 114 112 110 117 116 114 95 95 93 106 107 105 106 108 106 92 95 93 87 90 88 97 99 97 90 91 89 96 96 94 100 100 98 112 111 109 106 104 102 100 98 96 115 113 111 116 114 112 113 111 109 106 104 102 102 101 99 100 99 97 108 108 106 94 94 92 103 103 101 100 100 98 104 105 103 96 98 96 88 89 87 105 107 105 98 99 97 109 111 109 89 91 89 95 96 94 106 107 105 102 103 101 101 102 100 93 93 91 82 82 85 78 79 82 76 76 79 66 66 69 68 67 70 77 77 80 71 70 73 89 88 91 75 74 77 83 82 85 64 64 67 67 68 71 69 71 74 68 71 74 53 57 60 57 62 65 47 51 54 67 69 72 64 65 68 82 82 85 68 67 70 81 80 83 84 83 86 74 73 76 63 63 66 65 66 69 72 74 77 55 58 61 54 59 62 71 74 77 64 66 69 61 66 69 49 54 57 62 67 70 57 62 65 59 64 67 53 58 61 57 62 65 63 68 71 50 55 58 54 59 62 59 64 67 44 49 52 62 67 70 40 45 48 58 63 66 41 46 49 62 67 70 58 63 66
22 26 27 22 26 27 22 26 27 87 91 91 69 73 73 72 76 76 22 26 27 80 84 84 82 86 86 91 95 95 70 74 74 22 26 27 90 94 94 80 84 84 74 78 78 73 77 77 95 63 98 55 55 55 61 61 61 66 66 66 52 52 52 57 57 57 87 64 100 64 64 64 62 62 62 92 64 99 54 54 54 60 60 60 64 64 64 101 62 97 63 63 63 64 64 64 60 60 60 59 59 59 93 63 99 56 56 56 64 64 64 56 56 56 65 65 65 49 49 49 58 58 58 62 62 62 61 61 61 50 50 50 52 52 52 66 66 66 56 56 56 92 63 99 60 60 60 60 60 60 66 66 66 60 60 60 61 61 61 57 57 57 64 64 64 56 56 56 49 49 49 66 66 66 54 54 54 53 53 53 63 63 63 66 66 66 65 65 65 52 52 52 61 61 61 53 53 53 62 62 62 78 65 103 50 50 50 66 66 66 55 55 55 55 55 55 53 53 53 94 63 98 58 58 58 58 58 58 62 62 62 65 65 65 104 62 96 59 59 59 67 67 67 60 60 60 62 62 62 52 52 52 59 59 59 88 64 100 62 62 62 54 54 54 51 51 51 65 65 65 55 55 55 58 58 58 63 63 63 49 49 49 58 58 58 60 60 60 59 59 59 59 59 59 64 64 64 63 63 63 64 64 64 64 64 64 65 65 65 54 54 54 62 62 62 56 56 56 64 64 64 49 49 49 58 58 58 49 49 49 51 51 51 56 56 56 62 62 62 50 50 50 55 55 55 49 49 49 51 51 51 62 62 62 49 49 49 49 49 49 50 50 50 67 67 67 95 63 98 61 61 61 64 64 64 97 101 99 86 90 88 85 89 87 91 95 93 79 83 81 94 98 96 90 94 92 74 78 76 87 91 89 91 95 93 80 84 82 74 78 76 80 84 82 88 92 90 88 92 90 75 79 77 75 79 77 97 101 99 78 82 80 92 96 94 80 84 82 93 97 95 88 92 90 81 85 83 79 83 81 75 79 77 78 82 80 82 86 84 84 88 86 81 85 83 88 92 90 77 81 79 79 83 81 80 84 82 87 91 89 90 94 92 96 100 98 91 91 89 90 92 90 82 85 83 94 97 95 91 93 91 92 93 91 103 103 101 101 100 98 113 111 109 122 120 118 107 106 104 104 102 100 111 110 108 111 111 109 98 99 97 87 89 87 82 86 84 99 102 100 99 101 99 100 101 99 105 105 103 113 113 111 100 99 97 105 103 101 108 106 104 115 113 111 111 109 107 108 106 104 120 118 116 115 113 111 120 119 117 113 111 109 113 112 110 104 103 101 109 108 106 112 111 109 115 114 112 99 98 96 111 110 108 105 104 102 96 95 93 108 107 105 117 115 113 98 97 95 106 105 103 72 71 74 78 78 81 85 84 87 72 71 74 71 70 73 85 84 87 70 70 73 78 78 81 80 80 83 63 64 67 69 70 73 65 68 71 50 54 57 46 51 54 54 58 61 63 66 69 74 76 79 70 71 74 83 82 85 68 67 70 77 76 79 83 82 85 65 64 67 68 68 71 69 70 73 71 73 76 53 57 60 59 64 67 55 58 61 78 80 83 45 50 53 41 46 49 40 45 48 57 62 65 46 51 54 59 64 67 45 50 53 52 57 60 47 52 55 59 64 67 41 46 49 43 48 51 51 56 59 44 49 52 56 61 64 55 60 63 46 51 54 59 64 67 48 53 56
22 26 27 22 26 27 22 26 27 72 76 76 93 97 97 73 77 77 22 26 27 92 96 96 87 91 91 75 79 79 82 86 86 22 26 27 71 75 75 88 92 92 83 87 87 77 81 81 50 50 50 47 47 47 61 61 61 49 49 49 60 60 60 57 57 57 62 62 62 46 46 46 51 51 51 50 50 50 46 46 46 50 50 50 45 45 45 63 63 63 58 58 58 63 63 63 54 54 54 59 59 59 50 50 50 54 54 54 46 46 46 58 58 58 53 53 53 61 61 61 50 50 50 75 60 97 57 57 57 45 45 45 50 50 50 56 56 56 62 62 62 45 45 45 50 50 50 52 52 52 63 63 63 60 60 60 55 55 55 61 61 61 50 50 50 59 59 59 51 51 51 50 50 50 56 56 56 86 59 94 48 48 48 57 57 57 57 57 57 48 48 48 60 60 60 58 58 58 61 61 61 56 56 56 59 59 59 57 57 57 46 46 46 54 54 54 55 55 55 46 46 46 58 58 58 97 58 91 60 60 60 52 52 52 62 62 62 48 48 48 46 46 46 54 54 54 59 59 59 60 60 60 62 62 62 59 59 59 57 57 57 57 57 57 54 54 54 57 57 57 59 59 59 50 50 50 55 55 55 57 57 57 54 54 54 59 59 59 48 48 48 84 59 95 61 61 61 46 46 46 52 52 52 57 57 57 45 45 45 56 56 56 59 59 59 51 51 51 51 51 51 88 59 94 60 60 60 53 53 53 51 51 51 58 58 58 53 53 53 51 51 51 60 60 60 56 56 56 49 49 49 58 58 58 62 62 62 47 47 47 56 56 56 54 54 54 45 45 45 61 61 61 58 58 58 79 83 81 93 97 95 97 101 99 89 93 91 94 98 96 92 96 94 76 80 78 78 82 80 96 100 98 96 100 98 92 96 94 92 96 94 91 95 93 95 99 97 79 83 81 84 88 86 89 93 91 96 100 98 90 94 92 81 85 83 97 101 99 91 95 93 80 84 82 87 91 89 79 83 81 84 88 86 76 80 78 97 101 99 84 88 86 77 81 79 90 94 92 86 90 88 96 100 98 79 83 81 95 99 97 90 94 92 83 87 85 88 92 90 94 94 92 93 94 92 90 92 90 96 100 98 104 107 105 93 94 92 112 112 110 117 116 114 119 118 116 102 100 98 111 109 107 119 117 115 106 105 103 100 99 97 92 92 90 101 102 100 82 85 83 97 100 98 83 86 84 94 97 95 93 95 93 110 110 108 111 111 109 94 94 92 115 114 112 104 103 101 102 101 99 114 112 110 110 108 106 121 119 117 111 109 107 106 104 102 121 119 117 116 114 112 120 118 116 123 121 119 107 105 103 100 98 96 124 122 120 112 110 108 117 115 113 102 100 98 120 118 116 112 110 108 74 73 76 67 66 69 68 68 71 63 63 66 71 71 74 76 76 79 66 67 70 76 77 80 64 67 70 67 70 73 65 70 73 41 46 49 57 60 63 60 63 66 55 56 59 76 76 79 71 71 74 75 75 78 74 73 76 73 72 75 82 81 84 77 77 80 70 70 73 73 75 78 51 54 57 46 51 54 49 53 56 59 61 64 80 81 84 56 61 64 60 65 68 47 52 55 43 48 51 45 50 53 48 53 56 63 68 71 56 61 64 46 51 54 51 56 59 60 65 68 48 53 56 43 48 51 47 52 55 58 63 66 42 47 50 43 48 51 59 64 67 52 57 60 54 59 62
22 26 27 22 26 27 22 26 27 77 81 81 92 96 96 82 86 86 22 26 27 90 94 94 77 81 81 85 89 89 83 87 87 22 26 27 89 93 93 93 97 97 78 82 82 74 78 78 54 54 54 90 58 92 99 56 90 61 61 61 56 56 56 80 59 95 48 48 48 48 48 48 44 44 44 82 59 94 57 57 57 62 62 62 47 47 47 56 56 56 58 58 58 51 51 51 99 56 89 55 55 55 53 53 53 88 58 93 60 60 60 57 57 57 48 48 48 56 56 56 61 61 61 48 48 48 50 50 50 63 63 63 57 57 57 63 63 63 55 55 55 45 45 45 48 48 48 53 53 53 60 60 60 45 45 45 62 62 62 44 44 44 48 48 48 54 54 54 54 54 54 56 56 56 60 60 60 56 56 56 48 48 48 49 49 49 58 58 58 96 57 90 56 56 56 61 61 61 59 59 59 60 60 60 59 59 59 46 46 46 60 60 60 61 61 61 54 54 54 55 55 55 57 57 57 79 59 95 45 45 45 45 45 45 51 51 51 59 59 59 78 59 95 99 56 90 50 50 50 54 54 54 60 60 60 45 45 45 52 52 52 62 62 62 50 50 50 61 61 61 63 63 63 45 45 45 45 45 45 50 50 50 57 57 57 95 57 91 58 58 58 52 52 52 96 57 90 51 51 51 48 48 48 45 45 45 46 46 46 47 47 47 59 59 59 56 56 56 46 46 46 52 52 52 51 51 51 50 50 50 45 45 45 46 46 46 83 58 94 50 50 50 57 57 57 49 49 49 79 59 95 45 45 45 61 61 61 57 57 57 55 55 55 55 55 55 54 54 54 71 60 97 49 49 49 94 98 96 95 99 97 84 88 86 84 88 86 88 92 90 84 88 86 96 100 98 94 98 96 78 82 80 86 90 88 82 86 84 74 78 76 92 96 94 90 94 92 88 92 90 76 80 78 91 95 93 93 97 95 84 88 86 83 87 85 87 91 89 87 91 89 97 101 99 83 87 85 95 99 97 81 85 83 90 94 92 93 97 95 84 88 86 77 81 79 88 92 90 76 80 78 97 101 99 83 87 85 96 100 98 96 100 98 90 94 92 86 90 88 93 97 95 98 98 96 105 106 104 106 108 106 87 90 88 91 94 92 103 105 103 95 95 93 102 102 100 107 106 104 114 112 110 111 109 107 114 112 110 112 110 108 112 111 109 97 96 94 92 92 90 100 101 99 94 96 94 84 87 85 84 88 86 96 99 97 101 104 102 102 103 101 110 111 109 98 99 97 114 114 112 99 99 97 111 111 109 116 115 113 98 96 94 110 109 107 115 113 111 98 97 95 120 119 117 109 107 105 109 107 105 104 102 100 118 116 114 117 116 114 120 118 116 118 117 115 111 110 108 112 111 109 67 67 70 64 64 67 64 65 68 62 63 66 59 61 64 72 74 77 66 69 72 60 64 67 63 68 71 65 69 72 57 60 63 70 72 75 68 70 73 82 83 86 83 83 86 66 66 69 77 76 79 85 84 87 83 82 85 87 87 90 72 73 76 76 78 81 55 58 61 65 68 71 41 46 49 58 61 64 76 79 82 68 69 72 59 64 67 40 45 48 42 47 50 44 49 52 52 57 60 44 49 52 43 48 51 46 51 54 54 59 62 46 51 54 51 56 59 55 60 63 48 53 56 62 67 70 56 61 64 41 46 49 44 49 52 62 67 70 48 53 56 49 54 57 55 60 63
22 26 27 22 26 27 22 26 27 81 85 85 93 97 97 90 94 94 22 26 27 77 81 81 86 90 90 78 82 82 74 78 78 22 26 27 75 79 79 80 84 84 84 88 88 78 82 82 64 64 64 83 62 98 63 63 63 54 54 54 50 50 50 59 59 59 50 50 50 60 60 60 50 50 50 53 53 53 63 63 63 87 62 97 56 56 56 52 52 52 60 60 60 62 62 62 48 48 48 57 57 57 49 49 49 64 64 64 57 57 57 62 62 62 86 62 98 55 55 55 62 62 62 59 59 59 88 62 97 80 63 99 50 50 50 53 53 53 59 59 59 61 61 61 59 59 59 85 62 98 55 55 55 65 65 65 49 49 49 57 57 57 64 64 64 64 64 64 98 60 94 64 64 64 60 60 60 63 63 63 51 51 51 52 52 52 57 57 57 55 55 55 53 53 53 51 51 51 49 49 49 87 62 97 77 63 100 47 47 47 64 64 64 64 64 64 54 54 54 61 61 61 64 64 64 62 62 62 61 61 61 61 61 61 56 56 56 63 63 63 49 49 49 63 63 63 49 49 49 55 55 55 89 61 97 56 56 56 47 47 47 59 59 59 93 61 96 47 47 47 100 60 94 61 61 61 49 49 49 59 59 59 52 52 52 58 58 58 60 60 60 53 53 53 61 61 61 51 51 51 63 63 63 51 51 51 64 64 64 62 62 62 58 58 58 50 50 50 61 61 61 52 52 52 52 52 52 61 61 61 58 58 58 47 47 47 61 61 61 56 56 56 79 63 100 61 61 61 54 54 54 48 48 48 59 59 59 61 61 61 54 54 54 58 58 58 61 61 61 50 50 50 54 54 54 94 98 96 94 98 96 77 81 79 74 78 76 94 98 96 85 89 87 76 80 78 92 96 94 98 102 100 74 78 76 89 93 91 85 89 87 89 93 91 74 78 76 87 91 89 76 80 78 95 99 97 77 81 79 89 93 91 76 80 78 82 86 84 76 80 78 82 86 84 89 93 91 92 96 94 76 80 78 85 89 87 77 81 79 86 90 88 95 99 97 94 98 96 74 78 76 86 90 88 98 102 100 91 95 93 85 89 87 80 84 82 75 79 77 79 83 81 84 88 86 87 91 89 109 109 107 104 106 104 80 82 80 87 91 89 91 94 92 96 98 96 113 113 111 115 114 112 110 109 107 102 100 98 113 111 109 102 100 98 104 102 100 120 119 117 110 109 107 109 109 107 94 95 93 96 97 95 96 98 96 79 82 80 76 79 77 81 85 83 80 83 81 90 92 90 93 95 93 106 107 105 108 109 107 102 103 101 107 108 106 93 94 92 103 103 101 96 95 93 116 116 114 99 99 97 110 110 108 108 108 106 108 108 106 97 97 95 106 106 104 90 90 88 105 106 104 71 73 76 51 53 56 50 54 57 53 57 60 52 57 60 42 47 50 60 64 67 58 62 65 70 72 75 61 63 66 78 79 82 66 66 69 74 73 76 76 76 79 83 82 85 84 83 86 72 72 75 87 86 89 71 71 74 71 72 75 76 78 81 63 66 69 57 62 65 57 61 64 52 55 58 65 66 69 71 72 75 61 66 69 44 49 52 55 60 63 60 65 68 54 59 62 55 60 63 64 69 72 56 61 64 63 68 71 47 52 55 58 63 66 52 57 60 59 64 67 43 48 51 60 65 68 58 63 66 61 66 69 48 53 56 56 61 64 62 67 70 61 66 69 51 56 59
22 26 27 22 26 27 22 26 27 81 85 85 79 83 83 84 88 88 22 26 27 84 88 88 76 80 80 74 78 78 88 92 92 22 26 27 86 90 90 70 74 74 78 82 82 79 83 83 55 55 55 53 53 53 93 67 104 62 62 62 65 65 65 69 69 69 58 58 58 61 61 61 53 53 53 53 53 53 60 60 60 107 66 100 65 65 65 68 68 68 65 65 65 61 61 61 66 66 66 59 59 59 96 67 103 56 56 56 51 51 51 65 65 65 68 68 68 52 52 52 65 65 65 59 59 59 52 52 52 65 65 65 51 51 51 55 55 55 52 52 52 63 63 63 63 63 63 64 64 64 64 64 64 55 55 55 52 52 52 66 66 66 68 68 68 64 64 64 57 57 57 61 61 61 59 59 59 78 69 108 55 55 55 56 56 56 98 67 102 61 61 61 55 55 55 108 66 100 67 67 67 64 64 64 68 68 68 66 66 66 68 68 68 63 63 63 97 67 103 64 64 64 53 53 53 52 52 52 51 51 51 55 55 55 55 55 55 85 68 106 64 64 64 63 63 63 58 58 58 60 60 60 64 64 64 68 68 68 69 69 69 62 62 62 67 67 67 59 59 59 56 56 56 68 68 68 68 68 68 66 66 66 67 67 67 69 69 69 62 62 62 61 61 61 67 67 67 63 63 63 57 57 57 56 56 56 60 60 60 63 63 63 69 69 69 67 67 67 58 58 58 68 68 68 57 57 57 67 67 67 56 56 56 54 54 54 59 59 59 54 54 54 68 68 68 51 51 51 53 53 53 68 68 68 64 64 64 57 57 57 58 58 58 62 62 62 62 62 62 63 63 63 58 58 58 75 79 77 79 83 81 89 93 91 82 86 84 80 84 82 94 98 96 89 93 91 85 89 87 87 91 89 89 93 91 87 91 89 90 94 92 97 101 99 87 91 89 75 79 77 97 101 99 85 89 87 93 97 95 89 93 91 94 98 96 96 100 98 94 98 96 79 83 81 90 94 92 90 94 92 91 95 93 92 96 94 92 96 94 75 79 77 80 84 82 84 88 86 94 98 96 77 81 79 94 98 96 95 99 97 79 83 81 82 86 84 82 86 84 96 100 98 83 87 85 82 86 84 89 93 91 115 114 112 107 108 106 99 101 99 82 85 83 81 84 82 97 100 98 92 93 91 109 109 107 106 105 103 114 113 111 108 106 104 112 110 108 107 105 103 101 100 98 118 117 115 105 103 101 101 100 98 113 113 111 100 100 98 109 110 108 90 92 90 98 100 98 92 95 93 85 88 86 84 88 86 99 103 101 91 94 92 79 82 80 82 85 83 86 89 87 81 83 81 93 95 93 105 107 105 95 97 95 84 86 84 93 96 94 99 102 100 85 88 86 78 81 79 83 86 84 47 52 55 52 57 60 67 70 73 54 57 60 55 58 61 71 73 76 74 75 78 67 68 71 78 78 81 71 71 74 81 80 83 74 73 76 71 70 73 80 79 82 76 75 78 65 64 67 68 68 71 70 71 74 72 74 77 55 58 61 57 61 64 57 61 64 50 54 57 67 70 73 63 64 67 62 67 70 42 47 50 45 50 53 63 68 71 60 65 68 57 62 65 53 58 61 47 52 55 45 50 53 49 54 57 48 53 56 44 49 52 41 46 49 46 51 54 42 47 50 63 68 71 49 54 57 54 59 62 45 50 53 52 57 60 59 64 67 54 59 62 55 60 63 56 61 64
22 26 27 22 26 27 22 26 27 79 83 83 80 84 84 83 87 87 22 26 27 71 75 75 76 80 80 78 82 82 87 91 91 22 26 27 92 96 96 75 79 79 83 87 87 88 92 92 66 66 66 68 68 68 63 63 63 57 57 57 62 62 62 90 74 112 68 68 68 63 63 63 69 69 69 74 74 74 67 67 67 94 74 111 104 73 108 64 64 64 66 66 66 58 58 58 66 66 66 67 67 67 62 62 62 61 61 61 62 62 62 66 66 66 74 74 74 60 60 60 63 63 63 66 66 66 71 71 71 73 73 73 105 72 108 110 72 107 73 73 73 64 64 64 97 73 110 57 57 57 70 70 70 57 57 57 68 68 68 69 69 69 71 71 71 94 74 111 73 73 73 70 70 70 61 61 61 60 60 60 63 63 63 73 73 73 72 72 72 73 73 73 107 72 108 71 71 71 65 65 65 69 69 69 69 69 69 69 69 69 67 67 67 68 68 68 62 62 62 73 73 73 72 72 72 71 71 71 98 73 110 69 69 69 71 71 71 56 56 56 73 73 73 66 66 66 69 69 69 110 72 107 63 63 63 61 61 61 74 74 74 69 69 69 72 72 72 73 73 73 61 61 61 68 68 68 71 71 71 73 73 73 68 68 68 64 64 64 68 68 68 63 63 63 62 62 62 89 74 112 66 66 66 56 56 56 63 63 63 57 57 57 60 60 60 60 60 60 73 73 73 72 72 72 74 74 74 67 67 67 56 56 56 69 69 69 65 65 65 74 74 74 62 62 62 68 68 68 99 73 110 60 60 60 59 59 59 58 58 58 60 60 60 57 57 57 57 57 57 60 60 60 72 72 72 97 101 99 84 88 86 80 84 82 90 94 92 84 88 86 97 101 99 90 94 92 89 93 91 85 89 87 95 99 97 93 97 95 86 90 88 81 85 83 86 90 88 80 84 82 77 81 79 78 82 80 93 97 95 96 100 98 98 102 100 87 91 89 96 100 98 97 101 99 86 90 88 88 92 90 90 94 92 98 102 100 91 95 93 87 91 89 88 92 90 77 81 79 89 93 91 76 80 78 83 87 85 84 88 86 91 95 93 86 90 88 87 91 89 96 100 98 92 96 94 88 92 90 78 82 80 91 95 93 95 99 97 98 98 96 106 107 105 93 95 93 80 83 81 93 97 95 86 89 87 99 100 98 94 94 92 94 94 92 104 103 101 118 116 114 109 107 105 124 122 120 117 115 113 117 116 114 103 102 100 102 101 99 113 112 110 96 95 93 105 105 103 109 109 107 91 92 90 102 103 101 105 107 105 91 92 90 97 99 97 95 98 96 87 89 87 103 106 104 90 93 91 100 103 101 103 106 104 80 82 80 91 94 92 91 93 91 93 95 93 106 108 106 106 107 105 71 73 76 76 78 81 64 65 68 70 71 74 63 64 67 82 82 85 75 74 77 76 75 78 81 80 83 83 82 85 75 74 77 73 72 75 80 79 82 72 72 75 82 83 86 70 71 74 59 61 64 63 66 69 63 67 70 52 57 60 58 62 65 74 77 80 65 66 69 59 64 67 46 51 54 57 62 65 45 50 53 48 53 56 55 60 63 46 51 54 59 64 67 46 51 54 49 54 57 57 62 65 56 61 64 61 66 69 48 53 56 53 58 61 47 52 55 50 55 58 49 54 57 42 47 50 42 47 50 52 57 60 42 47 50 63 68 71 63 68 71 57 62 65 54 59 62
22 26 27 22 26 27 22 26 27 89 93 93 85 89 89 88 92 92 22 26 27 75 79 79 86 90 90 83 87 87 93 97 97 22 26 27 90 94 94 89 93 93 77 81 81 83 87 87 107 77 113 76 76 76 72 72 72 72 72 72 77 77 77 68 68 68 72 72 72 67 67 67 71 71 71 60 60 60 99 78 115 61 61 61 60 60 60 65 65 65 76 76 76 63 63 63 75 75 75 69 69 69 66 66 66 64 64 64 62 62 62 62 62 62 64 64 64 64 64 64 73 73 73 76 76 76 74 74 74 60 60 60 71 71 71 68 68 68 77 77 77 77 77 77 61 61 61 65 65 65 75 75 75 68 68 68 69 69 69 65 65 65 64 64 64 71 71 71 62 62 62 73 73 73 66 66 66 65 65 65 76 76 76 64 64 64 59 59 59 60 60 60 66 66 66 77 77 77 71 71 71 73 73 73 60 60 60 72 72 72 73 73 73 74 74 74 68 68 68 64 64 64 74 74 74 77 77 77 72 72 72 73 73 73 73 73 73 77 77 77 69 69 69 77 77 77 74 74 74 61 61 61 63 63 63 61 61 61 59 59 59 64 64 64 72 72 72 77 77 77 68 68 68 72 72 72 63 63 63 70 70 70 67 67 67 62 62 62 71 71 71 63 63 63 64 64 64 75 75 75 100 78 115 75 75 75 60 60 60 58 58 58 74 74 74 69 69 69 64 64 64 60 60 60 61 61 61 64 64 64 71 71 71 66 66 66 65 65 65 66 66 66 68 68 68 58 58 58 74 74 74 67 67 67 76 76 76 64 64 64 68 68 68 62 62 62 74 74 74 69 69 69 75 75 75 80 84 82 86 90 88 93 97 95 96 100 98 85 89 87 83 87 85 85 89 87 85 89 87 88 92 90 95 99 97 86 90 88 94 98 96 84 88 86 93 97 95 96 100 98 93 97 95 97 101 99 76 80 78 91 95 93 83 87 85 83 87 85 98 102 100 92 96 94 89 93 91 93 97 95 87 91 89 88 92 90 87 91 89 89 93 91 97 101 99 97 101 99 80 84 82 87 91 89 91 95 93 76 80 78 98 102 100 91 95 93 91 95 93 98 102 100 84 88 86 80 84 82 81 85 83 76 80 78 76 80 78 98 102 100 74 78 76 110 110 108 109 111 109 92 94 92 101 104 102 81 84 82 82 85 83 104 105 103 109 110 108 110 110 108 112 112 110 98 96 94 117 116 114 100 98 96 102 100 98 123 121 119 105 103 101 103 101 99 116 114 112 109 107 105 98 96 94 103 102 100 104 103 101 102 101 99 113 112 110 107 107 105 105 105 103 98 98 96 115 115 113 111 111 109 93 93 91 114 114 112 92 92 90 111 111 109 97 96 94 96 96 94 96 96 94 64 64 67 71 71 74 72 72 75 67 67 70 81 80 83 87 86 89 77 76 79 74 73 76 69 68 71 71 70 73 73 73 76 67 67 70 78 78 81 79 80 83 65 67 70 57 60 63 63 67 70 61 66 69 66 70 73 65 67 70 56 58 61 60 61 64 63 68 71 46 51 54 62 67 70 57 62 65 46 51 54 45 50 53 53 58 61 59 64 67 59 64 67 51 56 59 56 61 64 49 54 57 42 47 50 52 57 60 46 51 54 45 50 53 54 59 62 52 57 60 48 53 56 43 48 51 49 54 57 53 58 61 47 52 55 45 50 53 56 61 64 55 60 63 60 65 68
22 26 27 22 26 27 22 26 27 71 75 75 79 83 83 74 78 78 22 26 27 71 75 75 85 89 89 78 82 82 79 83 83 22 26 27 83 87 87 84 88 88 75 79 79 88 92 92 63 63 63 69 69 69 77 77 77 63 63 63 70 70 70 75 75 75 76 76 76 61 61 61 73 73 73 73 73 73 61 61 61 76 76 76 78 78 78 77 77 77 67 67 67 75 75 75 62 62 62 70 70 70 60 60 60 74 74 74 64 64 64 65 65 65 72 72 72 65 65 65 70 70 70 73 73 73 72 72 72 67 67 67 76 76 76 70 70 70 94 81 120 61 61 61 113 78 114 71 71 71 74 74 74 72 72 72 79 79 79 73 73 73 67 67 67 77 77 77 60 60 60 65 65 65 75 75 75 63 63 63 63 63 63 77 77 77 71 71 71 65 65 65 72 72 72 73 73 73 74 74 74 60 60 60 68 68 68 66 66 66 77 77 77 76 76 76 65 65 65 67 67 67 73 73 73 67 67 67 75 75 75 69 69 69 69 69 69 73 73 73 70 70 70 71 71 71 73 73 73 72 72 72 72 72 72 72 72 72 109 79 115 70 70 70 73 73 73 61 61 61 64 64 64 65 65 65 69 69 69 77 77 77 75 75 75 73 73 73 74 74 74 62 62 62 68 68 68 70 70 70 73 73 73 74 74 74 71 71 71 67 67 67 77 77 77 73 73 73 74 74 74 67 67 67 77 77 77 76 76 76 77 77 77 73 73 73 74 74 74 73 73 73 69 69 69 73 73 73 61 61 61 68 68 68 71 71 71 71 71 71 67 67 67 64 64 64 76 76 76 60 60 60 108 79 116 92 96 94 88 92 90 90 94 92 88 92 90 94 98 96 97 101 99 95 99 97 92 96 94 89 93 91 77 81 79 92 96 94 94 98 96 84 88 86 94 98 96 94 98 96 93 97 95 80 84 82 88 92 90 97 101 99 85 89 87 80 84 82 86 90 88 91 95 93 85 89 87 97 101 99 95 99 97 85 89 87 97 101 99 92 96 94 96 100 98 92 96 94 75 79 77 86 90 88 88 92 90 83 87 85 79 83 81 93 97 95 79 83 81 76 80 78 97 101 99 93 97 95 94 98 96 79 83 81 92 96 94 87 91 89 82 86 84 76 80 78 94 98 96 99 99 97 103 104 102 106 108 106 92 95 93 94 98 96 88 91 89 103 105 103 108 109 107 110 111 109 108 108 106 112 112 110 105 104 102 113 111 109 105 103 101 121 119 117 110 108 106 119 117 115 115 113 111 123 121 119 113 111 109 115 113 111 101 99 97 106 104 102 105 104 102 110 109 107 104 103 101 112 110 108 104 102 100 104 103 101 98 97 95 115 113 111 119 117 115 105 103 101 119 118 116 76 75 78 73 72 75 72 71 74 68 67 70 68 67 70 70 69 72 82 81 84 66 65 68 64 64 67 63 63 66 74 75 78 58 60 63 59 61 64 64 67 70 55 59 62 45 49 52 47 51 54 55 58 61 68 69 72 73 74 77 49 54 57 57 62 65 58 63 66 53 58 61 61 66 69 44 49 52 60 65 68 57 62 65 59 64 67 60 65 68 63 68 71 55 60 63 62 67 70 57 62 65 62 67 70 42 47 50 49 54 57 60 65 68 48 53 56 63 68 71 53 58 61 52 57 60 51 56 59 51 56 59 49 54 57 57 62 65 44 49 52 50 55 58 58 63 66
22 26 27 22 26 27 22 26 27 83 87 87 70 74 74 81 85 85 22 26 27 85 89 89 77 81 81 78 82 82 92 96 96 22 26 27 82 86 86 77 81 81 78 82 82 73 77 77 67 67 67 77 77 77 76 76 76 75 75 75 74 74 74 62 62 62 77 77 77 79 79 79 71 71 71 68 68 68 65 65 65 68 68 68 106 81 119 66 66 66 68 68 68 77 77 77 97 83 121 78 78 78 69 69 69 120 80 115 68 68 68 69 69 69 67 67 67 70 70 70 63 63 63 78 78 78 77 77 77 79 79 79 67 67 67 67 67 67 73 73 73 71 71 71 66 66 66 62 62 62 67 67 67 75 75 75 74 74 74 77 77 77 62 62 62 67 67 67 67 67 67 104 82 119 76 76 76 62 62 62 68 68 68 80 80 80 62 62 62 79 79 79 68 68 68 71 71 71 74 74 74 65 65 65 79 79 79 66 66 66 67 67 67 79 79 79 64 64 64 109 81 118 68 68 68 79 79 79 108 81 118 65 65 65 66 66 66 78 78 78 63 63 63 62 62 62 80 80 80 76 76 76 79 79 79 71 71 71 64 64 64 79 79 79 76 76 76 75 75 75 74 74 74 68 68 68 69 69 69 74 74 74 77 77 77 75 75 75 63 63 63 78 78 78 68 68 68 68 68 68 76 76 76 66 66 66 69 69 69 103 82 120 67 67 67 72 72 72 74 74 74 65 65 65 73 73 73 68 68 68 77 77 77 74 74 74 79 79 79 69 69 69 79 79 79 73 73 73 78 78 78 75 75 75 66 66 66 62 62 62 76 76 76 73 73 73 65 65 65 66 66 66 67 67 67 90 94 92 90 94 92 83 87 85 86 90 88 86 90 88 96 100 98 90 94 92 97 101 99 87 91 89 74 78 76 93 97 95 81 85 83 75 79 77 81 85 83 78 82 80 92 96 94 78 82 80 74 78 76 84 88 86 81 85 83 82 86 84 78 82 80 78 82 80 92 96 94 97 101 99 84 88 86 85 89 87 95 99 97 76 80 78 81 85 83 93 97 95 76 80 78 97 101 99 97 101 99 88 92 90 74 78 76 83 87 85 96 100 98 95 99 97 77 81 79 77 81 79 82 86 84 81 85 83 85 89 87 77 81 79 74 78 76 88 92 90 90 94 92 75 79 77 91 95 93 114 114 112 93 94 92 97 98 96 94 96 94 93 96 94 92 96 94 96 98 96 82 84 82 88 89 87 107 108 106 106 106 104 99 99 97 100 99 97 116 116 114 108 106 104 113 111 109 106 105 103 101 99 97 107 105 103 114 113 111 103 101 99 105 103 101 123 121 119 107 105 103 106 104 102 110 108 106 116 114 112 103 101 99 108 106 104 109 107 105 110 108 106 120 118 116 71 70 73 67 66 69 68 68 71 75 75 78 82 82 85 68 69 72 58 59 62 59 60 63 57 59 62 55 58 61 56 59 62 52 57 60 66 70 73 65 69 72 54 57 60 70 72 75 73 74 77 60 65 68 60 65 68 54 59 62 63 68 71 63 68 71 47 52 55 42 47 50 55 60 63 61 66 69 62 67 70 42 47 50 53 58 61 61 66 69 46 51 54 63 68 71 50 55 58 53 58 61 63 68 71 63 68 71 42 47 50 59 64 67 53 58 61 42 47 50 42 47 50 44 49 52 49 54 57 53 58 61 63 68 71 44 49 52 41 46 49 60 65 68 60 65 68
22 26 27 22 26 27 22 26 27 90 94 94 86 90 90 73 77 77 22 26 27 90 94 94 86 90 90 89 93 93 70 74 74 22 26 27 70 74 74 79 83 83 85 89 89 78 82 82 74 74 74 100 85 124 75 75 75 81 81 81 79 79 79 80 80 80 79 79 79 70 70 70 77 77 77 78 78 78 78 78 78 120 83 119 71 71 71 80 80 80 79 79 79 63 63 63 67 67 67 104 85 123 79 79 79 102 85 124 76 76 76 76 76 76 65 65 65 72 72 72 71 71 71 80 80 80 74 74 74 71 71 71 68 68 68 68 68 68 70 70 70 79 79 79 80 80 80 66 66 66 77 77 77 79 79 79 64 64 64 81 81 81 69 69 69 82 82 82 64 64 64 72 72 72 76 76 76 80 80 80 81 81 81 76 76 76 70 70 70 79 79 79 65 65 65 78 78 78 80 80 80 72 72 72 71 71 71 75 75 75 64 64 64 81 81 81 72 72 72 75 75 75 65 65 65 73 73 73 77 77 77 68 68 68 82 82 82 72 72 72 78 78 78 76 76 76 69 69 69 77 77 77 65 65 65 77 77 77 76 76 76 70 70 70 76 76 76 78 78 78 74 74 74 71 71 71 79 79 79 65 65 65 64 64 64 75 75 75 74 74 74 74 74 74 81 81 81 79 79 79 75 75 75 81 81 81 79 79 79 82 82 82 79 79 79 78 78 78 69 69 69 82 82 82 80 80 80 64 64 64 74 74 74 65 65 65 74 74 74 69 69 69 68 68 68 69 69 69 70 70 70 79 79 79 74 74 74 79 79 79 80 80 80 64 64 64 80 80 80 77 77 77 66 66 66 83 87 85 82 86 84 78 82 80 75 79 77 91 95 93 81 85 83 96 100 98 83 87 85 76 80 78 77 81 79 76 80 78 93 97 95 78 82 80 96 100 98 95 99 97 81 85 83 80 84 82 88 92 90 77 81 79 87 91 89 77 81 79 81 85 83 75 79 77 78 82 80 77 81 79 78 82 80 84 88 86 96 100 98 82 86 84 89 93 91 79 83 81 78 82 80 85 89 87 92 96 94 78 82 80 88 92 90 95 99 97 75 79 77 75 79 77 75 79 77 92 96 94 81 85 83 96 100 98 91 95 93 96 100 98 83 87 85 80 84 82 77 81 79 78 82 80 89 93 91 88 92 90 91 95 93 76 80 78 101 101 99 100 100 98 97 99 97 87 89 87 82 85 83 88 92 90 83 86 84 103 106 104 84 86 84 95 97 95 102 103 101 90 91 89 96 96 94 97 97 95 107 107 105 98 98 96 109 109 107 117 116 114 118 117 115 109 108 106 118 117 115 96 95 93 109 108 106 99 98 96 103 102 100 110 109 107 109 109 107 117 116 114 103 102 100 64 65 68 71 72 75 67 69 72 68 70 73 70 73 76 59 62 65 58 62 65 58 62 65 56 61 64 57 62 65 57 60 63 64 67 70 67 70 73 59 60 63 75 75 78 48 53 56 49 54 57 61 66 69 49 54 57 53 58 61 58 63 66 52 57 60 42 47 50 44 49 52 44 49 52 53 58 61 41 46 49 46 51 54 63 68 71 62 67 70 46 51 54 40 45 48 58 63 66 63 68 71 52 57 60 41 46 49 59 64 67 54 59 62 54 59 62 48 53 56 56 61 64 50 55 58 40 45 48 45 50 53 44 49 52 40 45 48 53 58 61 47 52 55 44 49 52
22 26 27 22 26 27 22 26 27 79 83 83 90 94 94 75 79 79 22 26 27 71 75 75 84 88 88 79 83 83 88 92 92 22 26 27 71 75 75 76 80 80 93 97 97 78 82 82 83 83 83 82 82 82 74 74 74 74 74 74 68 68 68 83 83 83 71 71 71 78 78 78 84 84 84 72 72 72 80 80 80 80 80 80 82 82 82 77 77 77 85 85 85 71 71 71 68 68 68 67 67 67 82 82 82 72 72 72 71 71 71 80 80 80 81 81 81 76 76 76 85 85 85 75 75 75 68 68 68 74 74 74 70 70 70 73 73 73 78 78 78 80 80 80 71 71 71 67 67 67 84 84 84 71 71 71 82 82 82 83 83 83 74 74 74 82 82 82 77 77 77 69 69 69 83 83 83 67 67 67 81 81 81 102 90 129 80 80 80 84 84 84 73 73 73 78 78 78 80 80 80 78 78 78 76 76 76 83 83 83 74 74 74 73 73 73 84 84 84 67 67 67 117 88 125 68 68 68 82 82 82 80 80 80 100 90 130 85 85 85 71 71 71 83 83 83 78 78 78 82 82 82 82 82 82 75 75 75 77 77 77 76 76 76 73 73 73 79 79 79 125 87 123 71 71 71 72 72 72 79 79 79 69 69 69 71 71 71 80 80 80 81 81 81 85 85 85 75 75 75 83 83 83 80 80 80 74 74 74 81 81 81 68 68 68 79 79 79 77 77 77 80 80 80 85 85 85 85 85 85 78 78 78 84 84 84 103 89 129 79 79 79 83 83 83 103 89 129 74 74 74 74 74 74 85 85 85 75 75 75 75 75 75 83 83 83 74 74 74 78 78 78 70 70 70 92 96 94 88 92 90 90 94 92 95 99 97 86 90 88 76 80 78 89 93 91 75 79 77 91 95 93 97 101 99 81 85 83 83 87 85 91 95 93 85 89 87 83 87 85 85 89 87 76 80 78 94 98 96 81 85 83 95 99 97 77 81 79 95 99 97 97 101 99 81 85 83 85 89 87 89 93 91 76 80 78 82 86 84 89 93 91 94 98 96 79 83 81 95 99 97 93 97 95 78 82 80 83 87 85 96 100 98 78 82 80 82 86 84 86 90 88 97 101 99 97 101 99 81 85 83 81 85 83 86 90 88 84 88 86 88 92 90 90 94 92 93 97 95 79 83 81 76 80 78 80 84 82 78 82 80 87 91 89 85 89 87 88 92 90 112 111 109 93 93 91 100 100 98 99 100 98 100 102 100 98 101 99 88 91 89 89 93 91 83 87 85 80 83 81 99 102 100 100 102 100 89 91 89 92 94 92 106 108 106 109 111 109 108 109 107 105 106 104 99 100 98 109 110 108 104 105 103 108 110 108 96 97 95 97 99 97 103 104 102 106 107 105 94 97 95 58 61 64 68 72 75 62 66 69 43 47 50 61 65 68 63 67 70 55 59 62 69 72 75 62 64 67 61 62 65 60 61 64 82 82 85 63 68 71 64 69 72 59 64 67 48 53 56 59 64 67 63 68 71 44 49 52 54 59 62 61 66 69 61 66 69 62 67 70 48 53 56 64 69 72 55 60 63 54 59 62 64 69 72 60 65 68 63 68 71 64 69 72 42 47 50 61 66 69 51 56 59 47 52 55 53 58 61 59 64 67 44 49 52 63 68 71 52 57 60 44 49 52 54 59 62 50 55 58 42 47 50 44 49 52 50 55 58 56 61 64 63 68 71 42 47 50
22 26 27 22 26 27 22 26 27 70 74 74 77 81 81 75 79 79 22 26 27 77 81 81 86 90 90 82 86 86 76 80 80 22 26 27 80 84 84 88 92 92 87 91 91 89 93 93 77 77 77 79 79 79 88 88 88 77 77 77 88 88 88 83 83 83 89 89 89 77 77 77 116 94 134 77 77 77 80 80 80 72 72 72 79 79 79 73 73 73 80 80 80 72 72 72 88 88 88 77 77 77 85 85 85 85 85 85 80 80 80 73 73 73 80 80 80 74 74 74 88 88 88 78 78 78 73 73 73 75 75 75 87 87 87 87 87 87 89 89 89 83 83 83 74 74 74 78 78 78 80 80 80 89 89 89 73 73 73 72 72 72 86 86 86 81 81 81 86 86 86 72 72 72 85 85 85 78 78 78 88 88 88 82 82 82 79 79 79 79 79 79 81 81 81 86 86 86 80 80 80 85 85 85 89 89 89 86 86 86 81 81 81 75 75 75 75 75 75 84 84 84 84 84 84 89 89 89 85 85 85 77 77 77 77 77 77 85 85 85 89 89 89 125 93 131 87 87 87 78 78 78 73 73 73 84 84 84 77 77 77 77 77 77 84 84 84 87 87 87 74 74 74 82 82 82 84 84 84 83 83 83 76 76 76 86 86 86 75 75 75 74 74 74 82 82 82 85 85 85 86 86 86 84 84 84 82 82 82 107 95 136 82 82 82 80 80 80 118 94 133 72 72 72 89 89 89 121 93 132 89 89 89 71 71 71 84 84 84 76 76 76 78 78 78 78 78 78 80 80 80 117 94 133 75 75 75 88 88 88 82 82 82 79 79 79 89 89 89 78 78 78 84 84 84 96 100 98 75 79 77 93 97 95 85 89 87 76 80 78 75 79 77 88 92 90 89 93 91 89 93 91 85 89 87 78 82 80 89 93 91 82 86 84 78 82 80 90 94 92 87 91 89 98 102 100 86 90 88 96 100 98 85 89 87 88 92 90 84 88 86 78 82 80 84 88 86 84 88 86 75 79 77 79 83 81 96 100 98 82 86 84 78 82 80 79 83 81 84 88 86 75 79 77 76 80 78 84 88 86 96 100 98 94 98 96 93 97 95 86 90 88 82 86 84 85 89 87 94 98 96 78 82 80 77 81 79 97 101 99 75 79 77 78 82 80 89 93 91 76 80 78 96 100 98 95 99 97 87 91 89 81 85 83 88 92 90 93 97 95 95 99 97 90 94 92 82 86 84 79 83 81 95 95 93 114 114 112 97 98 96 87 88 86 93 94 92 85 87 85 84 87 85 104 106 104 80 83 81 78 81 79 86 89 87 98 102 100 83 87 85 96 100 98 84 87 85 77 81 79 88 91 89 98 102 100 85 89 87 84 88 86 77 80 78 95 98 96 93 96 94 64 68 71 48 51 54 57 61 64 64 67 70 68 70 73 72 74 77 64 65 68 73 74 77 61 66 69 42 47 50 52 57 60 64 69 72 52 57 60 43 48 51 52 57 60 48 53 56 60 65 68 59 64 67 42 47 50 50 55 58 44 49 52 49 54 57 54 59 62 50 55 58 57 62 65 52 57 60 60 65 68 56 61 64 61 66 69 54 59 62 41 46 49 45 50 53 53 58 61 52 57 60 41 46 49 49 54 57 48 53 56 51 56 59 60 65 68 63 68 71 48 53 56 54 59 62 50 55 58 44 49 52 54 59 62 60 65 68 50 55 58 46 51 54 49 54 57
22 26 27 22 26 27 22 26 27 84 88 88 93 97 97 83 87 87 22 26 27 87 91 91 71 75 75 78 82 82 82 86 86 22 26 27 79 83 83 74 78 78 77 81 81 77 81 81 91 91 91 89 89 89 83 83 83 88 88 88 84 84 84 91 91 91 79 79 79 78 78 78 84 84 84 82 82 82 91 91 91 91 91 91 92 92 92 91 91 91 88 88 88 89 89 89 79 79 79 81 81 81 87 87 87 91 91 91 76 76 76 79 79 79 129 100 139 92 92 92 119 101 142 92 92 92 84 84 84 91 91 91 77 77 77 92 92 92 87 87 87 92 92 92 80 80 80 89 89 89 89 89 89 92 92 92 88 88 88 92 92 92 79 79 79 78 78 78 87 87 87 78 78 78 80 80 80 85 85 85 91 91 91 84 84 84 91 91 91 83 83 83 81 81 81 84 84 84 80 80 80 78 78 78 82 82 82 85 85 85 91 91 91 80 80 80 76 76 76 83 83 83 82 82 82 88 88 88 76 76 76 77 77 77 88 88 88 80 80 80 84 84 84 76 76 76 76 76 76 85 85 85 130 100 139 87 87 87 92 92 92 79 79 79 84 84 84 85 85 85 80 80 80 79 79 79 122 101 141 81 81 81 83 83 83 89 89 89 120 101 141 91 91 91 87 87 87 79 79 79 83 83 83 77 77 77 91 91 91 88 88 88 78 78 78 84 84 84 91 91 91 132 99 138 91 91 91 88 88 88 87 87 87 88 88 88 91 91 91 92 92 92 91 91 91 91 91 91 81 81 81 81 81 81 79 79 79 82 82 82 91 91 91 81 81 81 76 76 76 92 92 92 79 79 79 93 97 95 89 93 91 88 92 90 77 81 79 76 80 78 97 101 99 87 91 89 78 82 80 76 80 78 87 91 89 84 88 86 95 99 97 89 93 91 83 87 85 77 81 79 91 95 93 81 85 83 95 99 97 96 100 98 78 82 80 94 98 96 89 93 91 97 101 99 80 84 82 96 100 98 88 92 90 85 89 87 89 93 91 83 87 85 90 94 92 87 91 89 87 91 89 85 89 87 97 101 99 84 88 86 82 86 84 93 97 95 95 99 97 75 79 77 92 96 94 80 84 82 88 92 90 96 100 98 81 85 83 92 96 94 86 90 88 78 82 80 79 83 81 89 93 91 90 94 92 96 100 98 77 81 79 94 98 96 82 86 84 87 91 89 87 91 89 91 95 93 76 80 78 79 83 81 87 91 89 92 96 94 96 100 98 82 86 84 81 85 83 112 112 110 99 99 97 97 97 95 96 96 94 111 111 109 104 105 103 100 101 99 105 107 105 96 97 95 103 104 102 90 91 89 103 104 102 91 92 90 89 90 88 94 95 93 99 100 98 101 102 100 106 107 105 57 59 62 76 76 79 83 83 86 51 56 59 57 62 65 52 57 60 55 60 63 55 60 63 44 49 52 59 64 67 47 52 55 45 50 53 49 54 57 46 51 54 53 58 61 59 64 67 64 69 72 44 49 52 57 62 65 53 58 61 48 53 56 55 60 63 42 47 50 42 47 50 48 53 56 50 55 58 44 49 52 56 61 64 59 64 67 40 45 48 63 68 71 53 58 61 46 51 54 45 50 53 40 45 48 51 56 59 53 58 61 62 67 70 62 67 70 64 69 72 51 56 59 64 69 72 56 61 64 47 52 55 60 65 68 58 63 66 43 48 51 58 63 66 41 46 49
22 26 27 22 26 27 22 26 27 76 80 80 85 89 89 75 79 79 22 26 27 80 84 84 84 88 88 87 91 91 93 97 97 22 26 27 86 90 90 90 94 94 90 94 94 79 83 83 92 92 92 91 91 91 93 93 93 86 86 86 82 82 82 89 89 89 82 82 82 86 86 86 92 92 92 90 90 90 123 107 149 91 91 91 81 81 81 85 85 85 93 93 93 92 92 92 82 82 82 85 85 85 91 91 91 83 83 83 89 89 89 88 88 88 81 81 81 89 89 89 85 85 85 88 88 88 83 83 83 80 80 80 132 106 146 89 89 89 87 87 87 80 80 80 83 83 83 86 86 86 91 91 91 91 91 91 91 91 91 91 91 91 92 92 92 93 93 93 92 92 92 92 92 92 93 93 93 91 91 91 93 93 93 91 91 91 82 82 82 80 80 80 89 89 89 121 107 149 93 93 93 84 84 84 91 91 91 85 85 85 93 93 93 137 105 145 93 93 93 92 92 92 93 93 93 83 83 83 135 105 145 142 104 143 92 92 92 85 85 85 92 92 92 92 92 92 89 89 89 83 83 83 93 93 93 92 92 92 92 92 92 90 90 90 83 83 83 89 89 89 88 88 88 92 92 92 85 85 85 91 91 91 80 80 80 93 93 93 93 93 93 85 85 85 87 87 87 91 91 91 92 92 92 93 93 93 81 81 81 92 92 92 93 93 93 91 91 91 91 91 91 85 85 85 92 92 92 132 106 146 93 93 93 136 105 145 90 90 90 80 80 80 91 91 91 93 93 93 82 82 82 91 91 91 91 91 91 84 84 84 89 89 89 85 85 85 131 106 146 80 80 80 93 93 93 86 90 88 83 87 85 85 89 87 97 101 99 82 86 84 98 102 100 86 90 88 86 90 88 77 81 79 78 82 80 83 87 85 90 94 92 84 88 86 94 98 96 82 86 84 90 94 92 85 89 87 85 89 87 83 87 85 84 88 86 89 93 91 84 88 86 87 91 89 98 102 100 79 83 81 97 101 99 80 84 82 93 97 95 89 93 91 84 88 86 94 98 96 84 88 86 95 99 97 86 90 88 78 82 80 87 91 89 86 90 88 94 98 96 86 90 88 80 84 82 78 82 80 87 91 89 78 82 80 86 90 88 84 88 86 83 87 85 97 101 99 87 91 89 93 97 95 76 80 78 92 96 94 76 80 78 91 95 93 81 85 83 95 99 97 90 94 92 93 97 95 77 81 79 88 92 90 78 82 80 80 84 82 83 87 85 86 90 88 98 102 100 74 78 76 83 87 85 95 99 97 96 100 98 95 99 97 84 88 86 90 94 92 81 85 83 90 94 92 75 79 77 90 94 92 82 86 84 94 98 96 82 86 84 89 93 91 85 89 87 84 88 86 84 88 86 45 50 53 41 46 49 41 46 49 44 49 52 59 64 67 54 59 62 59 64 67 49 54 57 53 58 61 52 57 60 43 48 51 63 68 71 55 60 63 40 45 48 53 58 61 61 66 69 60 65 68 52 57 60 56 61 64 41 46 49 59 64 67 55 60 63 56 61 64 59 64 67 61 66 69 55 60 63 49 54 57 45 50 53 42 47 50 49 54 57 41 46 49 54 59 62 62 67 70 51 56 59 59 64 67 54 59 62 56 61 64 54 59 62 63 68 71 50 55 58 58 63 66 54 59 62 63 68 71 60 65 68 63 68 71 46 51 54 59 64 67 52 57 60 49 54 57
22 26 27 22 26 27 22 26 27 70 74 74 85 89 89 81 85 85 22 26 27 87 91 91 90 94 94 69 73 73 75 79 79 22 26 27 71 75 75 91 95 95 89 93 93 88 92 92 90 90 90 91 91 91 85 85 85 93 93 93 93 93 93 92 92 92 93 93 93 94 94 94 130 110 151 85 85 85 93 93 93 84 84 84 94 94 94 84 84 84 92 92 92 83 83 83 93 93 93 92 92 92 92 92 92 94 94 94 92 92 92 94 94 94 86 86 86 94 94 94 86 86 86 83 83 83 93 93 93 91 91 91 92 92 92 84 84 84 83 83 83 86 86 86 131 110 151 86 86 86 94 94 94 85 85 85 92 92 92 93 93 93 93 93 93 94 94 94 85 85 85 90 90 90 92 92 92 88 88 88 94 94 94 92 92 92 86 86 86 92 92 92 92 92 92 93 93 93 130 110 151 141 108 148 93 93 93 87 87 87 87 87 87 90 90 90 92 92 92 92 92 92 93 93 93 89 89 89 93 93 93 92 92 92 86 86 86 92 92 92 85 85 85 94 94 94 94 94 94 94 94 94 93 93 93 93 93 93 91 91 91 93 93 93 91 91 91 93 93 93 93 93 93 93 93 93 94 94 94 91 91 91 93 93 93 93 93 93 94 94 94 85 85 85 86 86 86 86 86 86 84 84 84 93 93 93 85 85 85 93 93 93 83 83 83 94 94 94 92 92 92 83 83 83 83 83 83 86 86 86 93 93 93 84 84 84 140 108 148 89 89 89 94 94 94 92 92 92 94 94 94 94 94 94 90 90 90 94 94 94 93 93 93 91 91 91 94 94 94 83 83 83 94 94 94 81 85 83 84 88 86 77 81 79 91 95 93 84 88 86 97 101 99 91 95 93 79 83 81 85 89 87 75 79 77 87 91 89 74 78 76 89 93 91 74 78 76 86 90 88 81 85 83 79 83 81 75 79 77 90 94 92 81 85 83 85 89 87 81 85 83 95 99 97 85 89 87 96 100 98 90 94 92 78 82 80 93 97 95 84 88 86 96 100 98 75 79 77 85 89 87 87 91 89 81 85 83 83 87 85 78 82 80 85 89 87 94 98 96 97 101 99 86 90 88 86 90 88 94 98 96 94 98 96 90 94 92 87 91 89 97 101 99 76 80 78 98 102 100 78 82 80 85 89 87 96 100 98 97 101 99 97 101 99 97 101 99 81 85 83 94 98 96 92 96 94 89 93 91 86 90 88 86 90 88 90 94 92 80 84 82 84 88 86 90 94 92 82 86 84 94 98 96 90 94 92 81 85 83 78 82 80 76 80 78 81 85 83 85 89 87 97 101 99 80 84 82 93 97 95 89 93 91 82 86 84 76 80 78 78 82 80 77 81 79 95 99 97 96 100 98 52 57 60 57 62 65 58 63 66 58 63 66 47 52 55 45 50 53 41 46 49 62 67 70 51 56 59 55 60 63 60 65 68 60 65 68 62 67 70 55 60 63 61 66 69 47 52 55 42 47 50 52 57 60 53 58 61 57 62 65 42 47 50 62 67 70 56 61 64 62 67 70 45 50 53 49 54 57 49 54 57 47 52 55 60 65 68 53 58 61 56 61 64 49 54 57 64 69 72 54 59 62 57 62 65 49 54 57 47 52 55 62 67 70 42 47 50 55 60 63 53 58 61 46 51 54 40 45 48 58 63 66 56 61 64 54 59 62 43 48 51 59 64 67 59 64 67
22 26 27 22 26 27 22 26 27 90 94 94 80 84 84 78 82 82 22 26 27 72 76 76 83 87 87 77 81 81 71 75 75 22 26 27 87 91 91 74 78 78 80 84 84 75 79 79 93 93 93 93 93 93 123 111 153 85 85 85 88 88 88 94 94 94 94 94 94 94 94 94 93 93 93 94 94 94 92 92 92 89 89 89 88 88 88 92 92 92 86 86 86 94 94 94 93 93 93 89 89 89 93 93 93 123 111 153 94 94 94 86 86 86 85 85 85 87 87 87 93 93 93 143 108 148 92 92 92 85 85 85 92 92 92 94 94 94 93 93 93 92 92 92 88 88 88 93 93 93 91 91 91 84 84 84 83 83 83 85 85 85 91 91 91 93 93 93 91 91 91 85 85 85 93 93 93 91 91 91 94 94 94 93 93 93 92 92 92 89 89 89 94 94 94 92 92 92 93 93 93 93 93 93 94 94 94 92 92 92 87 87 87 84 84 84 91 91 91 84 84 84 90 90 90 91 91 91 91 91 91 93 93 93 86 86 86 88 88 88 94 94 94 90 90 90 92 92 92 88 88 88 84 84 84 92 92 92 94 94 94 92 92 92 92 92 92 94 94 94 94 94 94 92 92 92 94 94 94 84 84 84 94 94 94 83 83 83 90 90 90 92 92 92 88 88 88 94 94 94 90 90 90 91 91 91 87 87 87 89 89 89 91 91 91 87 87 87 89 89 89 91 91 91 142 108 148 92 92 92 93 93 93 91 91 91 94 94 94 93 93 93 94 94 94 90 90 90 84 84 84 93 93 93 93 93 93 93 93 93 93 93 93 89 89 89 89 89 89 92 92 92 92 92 92 77 81 79 87 91 89 75 79 77 93 97 95 90 94 92 92 96 94 93 97 95 80 84 82 96 100 98 84 88 86 95 99 97 83 87 85 95 99 97 86 90 88 88 92 90 90 94 92 84 88 86 95 99 97 76 80 78 91 95 93 77 81 79 75 79 77 88 92 90 86 90 88 90 94 92 79 83 81 86 90 88 78 82 80 89 93 91 94 98 96 86 90 88 81 85 83 92 96 94 94 98 96 91 95 93 76 80 78 84 88 86 87 91 89 93 97 95 83 87 85 97 101 99 88 92 90 94 98 96 89 93 91 75 79 77 75 79 77 80 84 82 74 78 76 76 80 78 97 101 99 82 86 84 95 99 97 81 85 83 83 87 85 93 97 95 97 101 99 82 86 84 96 100 98 90 94 92 84 88 86 92 96 94 82 86 84 75 79 77 90 94 92 89 93 91 82 86 84 85 89 87 93 97 95 75 79 77 79 83 81 95 99 97 88 92 90 77 81 79 82 86 84 81 85 83 94 98 96 80 84 82 77 81 79 95 99 97 75 79 77 95 99 97 75 79 77 51 56 59 46 51 54 54 59 62 58 63 66 52 57 60 47 52 55 46 51 54 59 64 67 63 68 71 60 65 68 49 54 57 42 47 50 62 67 70 57 62 65 42 47 50 45 50 53 42 47 50 60 65 68 42 47 50 42 47 50 47 52 55 53 58 61 62 67 70 58 63 66 55 60 63 42 47 50 53 58 61 40 45 48 45 50 53 41 46 49 50 55 58 61 66 69 60 65 68 48 53 56 40 45 48 43 48 51 50 55 58 54 59 62 59 64 67 57 62 65 54 59 62 53 58 61 63 68 71 61 66 69 55 60 63 50 55 58 51 56 59 47 52 55 59 64 67
22 26 27 22 26 27 22 26 27 80 84 84 86 90 90 89 93 93 22 26 27 91 95 95 79 83 83 83 87 87 71 75 75 22 26 27 77 81 81 90 94 94 78 82 82 88 92 92 82 82 82 93 93 93 87 87 87 92 92 92 89 89 89 85 85 85 93 93 93 83 83 83 91 91 91 139 105 144 93 93 93 84 84 84 91 91 91 83 83 83 85 85 85 90 90 90 92 92 92 93 93 93 85 85 85 93 93 93 82 82 82 84 84 84 93 93 93 92 92 92 93 93 93 93 93 93 91 91 91 92 92 92 81 81 81 91 91 91 93 93 93 80 80 80 89 89 89 92 92 92 91 91 91 93 93 93 93 93 93 86 86 86 92 92 92 82 82 82 93 93 93 93 93 93 93 93 93 84 84 84 136 105 145 91 91 91 92 92 92 83 83 83 80 80 80 88 88 88 90 90 90 93 93 93 92 92 92 88 88 88 91 91 91 93 93 93 82 82 82 92 92 92 93 93 93 133 106 146 93 93 93 82 82 82 91 91 91 82 82 82 91 91 91 83 83 83 80 80 80 90 90 90 88 88 88 92 92 92 91 91 91 86 86 86 93 93 93 93 93 93 82 82 82 83 83 83 91 91 91 91 91 91 86 86 86 88 88 88 93 93 93 86 86 86 80 80 80 81 81 81 93 93 93 93 93 93 93 93 93 86 86 86 92 92 92 91 91 91 138 105 144 92 92 92 144 104 143 87 87 87 93 93 93 92 92 92 93 93 93 93 93 93 85 85 85 91 91 91 92 92 92 93 93 93 92 92 92 93 93 93 85 85 85 88 88 88 92 92 92 144 104 143 88 88 88 77 81 79 86 90 88 95 99 97 76 80 78 95 99 97 77 81 79 97 101 99 76 80 78 88 92 90 96 100 98 76 80 78 85 89 87 90 94 92 95 99 97 79 83 81 87 91 89 80 84 82 92 96 94 92 96 94 96 100 98 84 88 86 96 100 98 79 83 81 89 93 91 94 98 96 87 91 89 84 88 86 77 81 79 96 100 98 86 90 88 75 79 77 79 83 81 87 91 89 95 99 97 75 79 77 93 97 95 81 85 83 84 88 86 82 86 84 80 84 82 85 89 87 86 90 88 87 91 89 86 90 88 93 97 95 90 94 92 81 85 83 92 96 94 80 84 82 91 95 93 95 99 97 92 96 94 98 102 100 96 100 98 94 98 96 98 102 100 86 90 88 87 91 89 76 80 78 85 89 87 94 98 96 86 90 88 87 91 89 95 99 97 81 85 83 80 84 82 90 94 92 82 86 84 87 91 89 84 88 86 80 84 82 81 85 83 96 100 98 83 87 85 82 86 84 80 84 82 98 102 100 84 88 86 94 98 96 92 96 94 86 90 88 79 83 81 60 65 68 46 51 54 47 52 55 49 54 57 41 46 49 56 61 64 47 52 55 62 67 70 44 49 52 49 54 57 50 55 58 43 48 51 58 63 66 62 67 70 45 50 53 50 55 58 63 68 71 56 61 64 53 58 61 47 52 55 58 63 66 42 47 50 44 49 52 50 55 58 42 47 50 44 49 52 53 58 61 46 51 54 55 60 63 50 55 58 42 47 50 47 52 55 63 68 71 43 48 51 43 48 51 43 48 51 43 48 51 52 57 60 48 53 56 55 60 63 43 48 51 55 60 63 54 59 62 49 54 57 59 64 67 58 63 66 57 62 65 58 63 66 59 64 67
22 26 27 22 26 27 22 26 27 77 81 81 75 79 79 79 83 83 22 26 27 91 95 95 85 89 89 87 91 91 71 75 75 22 26 27 81 85 85 78 82 82 71 75 75 93 97 97 85 85 85 91 91 91 91 91 91 83 83 83 82 82 82 124 100 140 83 83 83 78 78 78 83 83 83 84 84 84 82 82 82 88 88 88 77 77 77 92 92 92 88 88 88 80 80 80 84 84 84 138 99 136 91 91 91 85 85 85 80 80 80 90 90 90 81 81 81 83 83 83 89 89 89 77 77 77 119 101 142 85 85 85 86 86 86 80 80 80 77 77 77 78 78 78 80 80 80 84 84 84 91 91 91 92 92 92 128 100 139 91 91 91 90 90 90 86 86 86 82 82 82 82 82 82 83 83 83 84 84 84 87 87 87 92 92 92 86 86 86 77 77 77 89 89 89 85 85 85 80 80 80 80 80 80 92 92 92 82 82 82 83 83 83 90 90 90 129 100 139 87 87 87 90 90 90 79 79 79 83 83 83 89 89 89 86 86 86 90 90 90 91 91 91 79 79 79 78 78 78 88 88 88 76 76 76 90 90 90 86 86 86 86 86 86 91 91 91 92 92 92 92 92 92 77 77 77 75 75 75 91 91 91 77 77 77 88 88 88 90 90 90 92 92 92 133 99 138 117 101 142 86 86 86 92 92 92 87 87 87 77 77 77 136 99 137 89 89 89 86 86 86 83 83 83 82 82 82 79 79 79 115 102 143 83 83 83 86 86 86 84 84 84 86 86 86 92 92 92 82 82 82 82 82 82 92 92 92 78 78 78 82 82 82 91 91 91 77 77 77 84 84 84 92 92 92 90 94 92 82 86 84 74 78 76 84 88 86 78 82 80 78 82 80 88 92 90 76 80 78 89 93 91 81 85 83 97 101 99 95 99 97 93 97 95 96 100 98 74 78 76 89 93 91 85 89 87 86 90 88 78 82 80 94 98 96 82 86 84 86 90 88 85 89 87 90 94 92 78 82 80 95 99 97 79 83 81 77 81 79 82 86 84 85 89 87 96 100 98 89 93 91 92 96 94 77 81 79 91 95 93 75 79 77 95 99 97 78 82 80 88 92 90 75 79 77 91 95 93 75 79 77 97 101 99 79 83 81 96 100 98 94 98 96 92 96 94 81 85 83 90 94 92 85 89 87 89 93 91 97 101 99 92 96 94 81 85 83 74 78 76 96 100 98 83 87 85 86 90 88 79 83 81 97 101 99 87 91 89 74 78 76 86 90 88 87 91 89 82 86 84 77 81 79 92 96 94 83 87 85 76 80 78 85 89 87 94 98 96 85 89 87 77 81 79 83 87 85 80 84 82 89 93 91 92 96 94 76 80 78 80 84 82 88 92 90 87 91 89 92 96 94 53 58 61 51 56 59 47 52 55 47 52 55 63 68 71 63 68 71 47 52 55 48 53 56 43 48 51 41 46 49 47 52 55 56 61 64 55 60 63 57 62 65 50 55 58 54 59 62 60 65 68 48 53 56 49 54 57 63 68 71 47 52 55 41 46 49 48 53 56 63 68 71 45 50 53 48 53 56 57 62 65 49 54 57 56 61 64 55 60 63 51 56 59 55 60 63 59 64 67 49 54 57 43 48 51 56 61 64 53 58 61 44 49 52 55 60 63 55 60 63 48 53 56 44 49 52 52 57 60 52 57 60 51 56 59 49 54 57 41 46 49 41 46 49 55 60 63
22 26 27 22 26 27 22 26 27 73 77 77 69 73 73 85 89 89 22 26 27 81 85 85 70 74 74 81 85 85 93 97 97 22 26 27 74 78 78 77 81 81 77 81 81 73 77 77 73 73 73 81 81 81 84 84 84 73 73 73 80 80 80 82 82 82 73 73 73 75 75 75 86 86 86 113 95 134 87 87 87 83 83 83 73 73 73 75 75 75 82 82 82 83 83 83 83 83 83 82 82 82 88 88 88 72 72 72 75 75 75 84 84 84 89 89 89 74 74 74 79 79 79 85 85 85 115 94 134 83 83 83 72 72 72 85 85 85 87 87 87 87 87 87 82 82 82 75 75 75 71 71 71 131 92 129 82 82 82 75 75 75 79 79 79 84 84 84 76 76 76 86 86 86 89 89 89 123 93 132 80 80 80 80 80 80 78 78 78 87 87 87 85 85 85 82 82 82 84 84 84 73 73 73 83 83 83 86 86 86 84 84 84 75 75 75 77 77 77 73 73 73 89 89 89 85 85 85 83 83 83 87 87 87 86 86 86 122 93 132 73 73 73 88 88 88 72 72 72 85 85 85 123 93 132 84 84 84 84 84 84 80 80 80 79 79 79 84 84 84 80 80 80 82 82 82 80 80 80 80 80 80 73 73 73 74 74 74 80 80 80 89 89 89 86 86 86 76 76 76 72 72 72 77 77 77 80 80 80 84 84 84 72 72 72 72 72 72 85 85 85 82 82 82 74 74 74 73 73 73 121 94 132 85 85 85 89 89 89 74 74 74 79 79 79 88 88 88 85 85 85 83 83 83 84 84 84 87 87 87 88 88 88 84 84 84 72 72 72 72 72 72 121 93 132 76 80 78 97 101 99 75 79 77 80 84 82 86 90 88 95 99 97 76 80 78 76 80 78 91 95 93 93 97 95 75 79 77 94 98 96 84 88 86 76 80 78 93 97 95 96 100 98 84 88 86 79 83 81 86 90 88 76 80 78 84 88 86 94 98 96 89 93 91 95 99 97 97 101 99 91 95 93 92 96 94 86 90 88 95 99 97 85 89 87 92 96 94 89 93 91 79 83 81 86 90 88 77 81 79 93 97 95 93 97 95 80 84 82 75 79 77 76 80 78 93 97 95 82 86 84 76 80 78 89 93 91 83 87 85 91 95 93 77 81 79 80 84 82 85 89 87 87 91 89 75 79 77 87 91 89 81 85 83 86 90 88 77 81 79 79 83 81 96 100 98 91 95 93 81 85 83 84 88 86 84 88 86 81 85 83 82 86 84 87 91 89 75 79 77 83 87 85 95 99 97 82 86 84 77 81 79 91 95 93 83 87 85 80 84 82 91 95 93 81 85 83 83 87 85 95 99 97 76 80 78 91 95 93 77 81 79 75 79 77 82 86 84 89 93 91 22 26 27 22 26 27 22 26 27 22 26 27 22 26 27 22 26 27 22 26 27 22 26 27 22 26 27 22 26 27 22 26 27 22 26 27 22 26 27 22 26 27 22 26 27 22 26 27 22 26 27 22 26 27 22 26 27 22 26 27 22 26 27 22 26 27 22 26 27 22 26 27 22 26 27 22 26 27 22 26 27 22 26 27 22 26 27 22 26 27 22 26 27 22 26 27 22 26 27 22 26 27 22 26 27 22 26 27 22 26 27 22 26 27 22 26 27 22 26 27 22 26 27 22 26 27 22 26 27 22 26 27 22 26 27 22 26 27 22 26 27 22 26 27 22 26 27
22 26 27 22 26 27 22 26 27 74 78 78 84 88 88 83 87 87 22 26 27 79 83 83 80 84 84 75 79 79 85 89 89 22 26 27 79 83 83 84 88 88 86 90 90 72 76 76 73 73 73 71 71 71 77 77 77 82 82 82 78 78 78 85 85 85 78 78 78 69 69 69 74 74 74 75 75 75 120 87 124 77 77 77 83 83 83 77 77 77 79 79 79 81 81 81 82 82 82 83 83 83 74 74 74 81 81 81 85 85 85 83 83 83 82 82 82 72 72 72 68 68 68 80 80 80 68 68 68 74 74 74 79 79 79 71 71 71 68 68 68 118 88 125 72 72 72 74 74 74 75 75 75 78 78 78 113 88 126 72 72 72 72 72 72 69 69 69 79 79 79 79 79 79 71 71 71 81 81 81 82 82 82 81 81 81 100 90 130 67 67 67 80 80 80 68 68 68 79 79 79 74 74 74 76 76 76 71 71 71 78 78 78 69 69 69 71 71 71 69 69 69 82 82 82 79 79 79 85 85 85 81 81 81 83 83 83 79 79 79 70 70 70 78 78 78 76 76 76 80 80 80 83 83 83 85 85 85 79 79 79 76 76 76 68 68 68 75 75 75 74 74 74 71 71 71 82 82 82 73 73 73 125 87 123 107 89 128 71 71 71 68 68 68 78 78 78 78 78 78 81 81 81 85 85 85 76 76 76 79 79 79 67 67 67 67 67 67 71 71 71 103 89 129 122 87 124 83 83 83 82 82 82 74 74 74 83 83 83 82 82 82 67 67 67 74 74 74 76 76 76 84 84 84 75 75 75 79 79 79 80 80 80 120 87 124 80 80 80 118 88 125 70 70 70 87 91 89 90 94 92 95 99 97 96 100 98 76 80 78 91 95 93 98 102 100 85 89 87 78 82 80 92 96 94 95 99 97 90 94 92 95 99 97 95 99 97 80 84 82 92 96 94 95 99 97 98 102 100 85 89 87 93 97 95 94 98 96 96 100 98 75 79 77 78 82 80 87 91 89 75 79 77 90 94 92 88 92 90 81 85 83 86 90 88 97 101 99 80 84 82 77 81 79 92 96 94 83 87 85 88 92 90 88 92 90 78 82 80 81 85 83 86 90 88 85 89 87 81 85 83 91 95 93 74 78 76 86 90 88 77 81 79 88 92 90 86 90 88 85 89 87 79 83 81 94 98 96 74 78 76 92 96 94 93 97 95 77 81 79 78 82 80 83 87 85 92 96 94 81 85 83 97 101 99 89 93 91 97 101 99 79 83 81 88 92 90 85 89 87 80 84 82 77 81 79 90 94 92 84 88 86 76 80 78 74 78 76 87 91 89 77 81 79 90 94 92 94 98 96 79 83 81 81 85 83 86 90 88 80 84 82 79 83 81 78 82 80 97 101 99 22 26 27 22 26 27 22 26 27 22 26 27 22 26 27 22 26 27 22 26 27 22 26 27 22 26 27 22 26 27 22 26 27 22 26 27 22 26 27 22 26 27 22 26 27 22 26 27 22 26 27 22 26 27 22 26 27 22 26 27 22 26 27 22 26 27 22 26 27 22 26 27 22 26 27 22 26 27 22 26 27 22 26 27 22 26 27 22 26 27 22 26 27 22 26 27 22 26 27 22 26 27 22 26 27 22 26 27 22 26 27 22 26 27 22 26 27 22 26 27 22 26 27 22 26 27 22 26 27 22 26 27 22 26 27 22 26 27 22 26 27 22 26 27 22 26 27
22 26 27 22 26 27 22 26 27 79 83 83 84 88 88 71 75 75 22 26 27 72 76 76 84 88 88 76 80 80 85 89 89 22 26 27 81 85 85 86 90 90 74 78 78 79 83 83 79 79 79 78 78 78 75 75 75 124 82 118 78 78 78 67 67 67 76 76 76 72 72 72 72 72 72 64 64 64 77 77 77 79 79 79 68 68 68 78 78 78 71 71 71 65 65 65 102 85 124 75 75 75 68 68 68 63 63 63 100 85 124 82 82 82 72 72 72 80 80 80 72 72 72 76 76 76 73 73 73 74 74 74 80 80 80 67 67 67 66 66 66 76 76 76 65 65 65 79 79 79 80 80 80 64 64 64 67 67 67 74 74 74 66 66 66 98 85 125 67 67 67 65 65 65 72 72 72 82 82 82 75 75 75 80 80 80 74 74 74 78 78 78 79 79 79 79 79 79 77 77 77 81 81 81 80 80 80 77 77 77 70 70 70 79 79 79 70 70 70 73 73 73 73 73 73 81 81 81 79 79 79 80 80 80 69 69 69 67 67 67 75 75 75 63 63 63 67 67 67 98 85 125 64 64 64 80 80 80 66 66 66 67 67 67 72 72 72 65 65 65 67 67 67 71 71 71 68 68 68 76 76 76 72 72 72 75 75 75 74 74 74 78 78 78 71 71 71 78 78 78 67 67 67 67 67 67 67 67 67 103 85 123 81 81 81 80 80 80 67 67 67 76 76 76 70 70 70 79 79 79 75 75 75 74 74 74 82 82 82 79 79 79 78 78 78 72 72 72 73 73 73 111 84 121 65 65 65 79 79 79 76 76 76 79 79 79 71 71 71 71 71 71 70 70 70 80 84 82 92 96 94 83 87 85 82 86 84 76 80 78 75 79 77 80 84 82 97 101 99 90 94 92 79 83 81 83 87 85 82 86 84 82 86 84 81 85 83 82 86 84 91 95 93 95 99 97 88 92 90 75 79 77 93 97 95 93 97 95 83 87 85 77 81 79 80 84 82 82 86 84 93 97 95 76 80 78 80 84 82 95 99 97 92 96 94 80 84 82 97 101 99 91 95 93 75 79 77 80 84 82 88 92 90 93 97 95 74 78 76 82 86 84 93 97 95 88 92 90 92 96 94 91 95 93 86 90 88 89 93 91 76 80 78 84 88 86 76 80 78 95 99 97 95 99 97 81 85 83 77 81 79 83 87 85 84 88 86 80 84 82 96 100 98 79 83 81 83 87 85 91 95 93 91 95 93 81 85 83 84 88 86 79 83 81 91 95 93 77 81 79 87 91 89 84 88 86 97 101 99 88 92 90 83 87 85 87 91 89 92 96 94 82 86 84 85 89 87 80 84 82 88 92 90 93 97 95 78 82 80 94 98 96 75 79 77 79 83 81 83 87 85 22 26 27 22 26 27 22 26 27 22 26 27 22 26 27 22 26 27 22 26 27 22 26 27 22 26 27 22 26 27 22 26 27 22 26 27 22 26 27 22 26 27 22 26 27 22 26 27 22 26 27 22 26 27 22 26 27 22 26 27 22 26 27 22 26 27 22 26 27 22 26 27 22 26 27 22 26 27 22 26 27 22 26 27 22 26 27 22 26 27 22 26 27 22 26 27 22 26 27 22 26 27 22 26 27 22 26 27 22 26 27 22 26 27 22 26 27 22 26 27 22 26 27 22 26 27 22 26 27 22 26 27 22 26 27 22 26 27 22 26 27 22 26 27 22 26 27
22 26 27 22 26 27 22 26 27 75 79 79 86 90 90 81 85 85 22 26 27 73 77 77 71 75 75 82 86 86 74 78 78 22 26 27 75 79 79 86 90 90 91 95 95 71 75 75 68 68 68 79 79 79 79 79 79 64 64 64 67 67 67 73 73 73 74 74 74 64 64 64 64 64 64 62 62 62 75 75 75 71 71 71 73 73 73 72 72 72 72 72 72 77 77 77 71 71 71 71 71 71 74 74 74 73 73 73 74 74 74 68 68 68 71 71 71 77 77 77 64 64 64 74 74 74 63 63 63 62 62 62 62 62 62 73 73 73 69 69 69 75 75 75 80 80 80 73 73 73 77 77 77 66 66 66 62 62 62 64 64 64 63 63 63 72 72 72 64 64 64 63 63 63 73 73 73 74 74 74 77 77 77 74 74 74 62 62 62 62 62 62 79 79 79 66 66 66 72 72 72 79 79 79 67 67 67 63 63 63 76 76 76 68 68 68 77 77 77 65 65 65 67 67 67 73 73 73 76 76 76 64 64 64 67 67 67 68 68 68 67 67 67 80 80 80 68 68 68 75 75 75 69 69 69 67 67 67 75 75 75 63 63 63 74 74 74 69 69 69 73 73 73 75 75 75 62 62 62 64 64 64 75 75 75 79 79 79 78 78 78 67 67 67 71 71 71 72 72 72 68 68 68 72 72 72 73 73 73 68 68 68 64 64 64 77 77 77 76 76 76 76 76 76 77 77 77 120 80 115 78 78 78 73 73 73 93 83 122 69 69 69 76 76 76 71 71 71 66 66 66 63 63 63 63 63 63 71 71 71 73 73 73 69 69 69 68 68 68 62 62 62 69 69 69 91 95 93 85 89 87 91 95 93 80 84 82 89 93 91 77 81 79 81 85 83 84 88 86 92 96 94 96 100 98 83 87 85 93 97 95 82 86 84 81 85 83 84 88 86 91 95 93 96 100 98 95 99 97 78 82 80 79 83 81 86 90 88 77 81 79 92 96 94 95 99 97 86 90 88 83 87 85 92 96 94 76 80 78 75 79 77 80 84 82 84 88 86 83 87 85 89 93 91 81 85 83 76 80 78 79 83 81 95 99 97 75 79 77 82 86 84 81 85 83 80 84 82 89 93 91 98 102 100 92 96 94 90 94 92 83 87 85 86 90 88 92 96 94 95 99 97 91 95 93 89 93 91 95 99 97 79 83 81 77 81 79 90 94 92 97 101 99 81 85 83 91 95 93 87 91 89 75 79 77 85 89 87 88 92 90 84 88 86 74 78 76 94 98 96 77 81 79 84 88 86 74 78 76 83 87 85 83 87 85 90 94 92 96 100 98 91 95 93 82 86 84 89 93 91 91 95 93 82 86 84 76 80 78 91 95 93 83 87 85 94 98 96 78 82 80 22 26 27 22 26 27 22 26 27 22 26 27 22 26 27 22 26 27 22 26 27 22 26 27 22 26 27 22 26 27 22 26 27 22 26 27 22 26 27 22 26 27 22 26 27 22 26 27 22 26 27 22 26 27 22 26 27 22 26 27 22 26 27 22 26 27 22 26 27 22 26 27 22 26 27 22 26 27 22 26 27 22 26 27 22 26 27 22 26 27 22 26 27 22 26 27 22 26 27 22 26 27 22 26 27 22 26 27 22 26 27 22 26 27 22 26 27 22 26 27 22 26 27 22 26 27 22 26 27 22 26 27 22 26 27 22 26 27 22 26 27 22 26 27 22 26 27
22 26 27 22 26 27 22 26 27 80 84 84 87 91 91 71 75 75 22 26 27 78 82 82 75 79 79 75 79 79 86 90 90 22 26 27 74 78 78 84 88 88 79 83 83 83 87 87 77 77 77 72 72 72 73 73 73 72 72 72 69 69 69 77 77 77 71 71 71 68 68 68 72 72 72 62 62 62 73 73 73 70 70 70 61 61 61 77 77 77 70 70 70 73 73 73 72 72 72 69 69 69 67 67 67 75 75 75 78 78 78 76 76 76 75 75 75 66 66 66 77 77 77 62 62 62 64 64 64 64 64 64 76 76 76 106 79 116 69 69 69 91 81 120 62 62 62 119 78 113 63 63 63 116 78 114 72 72 72 77 77 77 65 65 65 71 71 71 77 77 77 74 74 74 61 61 61 65 65 65 76 76 76 72 72 72 68 68 68 72 72 72 69 69 69 72 72 72 74 74 74 73 73 73 72 72 72 74 74 74 72 72 72 72 72 72 74 74 74 74 74 74 72 72 72 77 77 77 61 61 61 64 64 64 63 63 63 73 73 73 67 67 67 98 80 118 69 69 69 60 60 60 72 72 72 63 63 63 67 67 67 77 77 77 77 77 77 69 69 69 75 75 75 75 75 75 71 71 71 71 71 71 74 74 74 77 77 77 77 77 77 61 61 61 63 63 63 75 75 75 61 61 61 72 72 72 74 74 74 61 61 61 66 66 66 75 75 75 75 75 75 77 77 77 63 63 63 61 61 61 77 77 77 71 71 71 62 62 62 63 63 63 67 67 67 72 72 72 64 64 64 77 77 77 75 75 75 73 73 73 61 61 61 77 77 77 74 74 74 72 72 72 75 75 75 81 85 83 89 93 91 81 85 83 79 83 81 96 100 98 90 94 92 79 83 81 97 101 99 89 93 91 88 92 90 97 101 99 86 90 88 88 92 90 87 91 89 80 84 82 88 92 90 84 88 86 80 84 82 94 98 96 79 83 81 77 81 79 75 79 77 84 88 86 75 79 77 92 96 94 95 99 97 78 82 80 88 92 90 84 88 86 82 86 84 85 89 87 81 85 83 85 89 87 77 81 79 85 89 87 84 88 86 85 89 87 85 89 87 90 94 92 97 101 99 87 91 89 76 80 78 80 84 82 86 90 88 89 93 91 85 89 87 88 92 90 77 81 79 76 80 78 77 81 79 88 92 90 95 99 97 75 79 77 75 79 77 84 88 86 87 91 89 97 101 99 83 87 85 94 98 96 79 83 81 95 99 97 91 95 93 79 83 81 96 100 98 79 83 81 86 90 88 76 80 78 75 79 77 96 100 98 81 85 83 86 90 88 84 88 86 78 82 80 84 88 86 83 87 85 96 100 98 75 79 77 92 96 94 88 92 90 83 87 85 76 80 78 83 87 85 22 26 27 22 26 27 22 26 27 22 26 27 22 26 27 22 26 27 22 26 27 22 26 27 22 26 27 22 26 27 22 26 27 22 26 27 22 26 27 22 26 27 22 26 27 22 26 27 22 26 27 22 26 27 22 26 27 22 26 27 22 26 27 22 26 27 22 26 27 22 26 27 22 26 27 22 26 27 22 26 27 22 26 27 22 26 27 22 26 27 22 26 27 22 26 27 22 26 27 22 26 27 22 26 27 22 26 27 22 26 27 22 26 27 22 26 27 22 26 27 22 26 27 22 26 27 22 26 27 22 26 27 22 26 27 22 26 27 22 26 27 22 26 27 22 26 27
22 26 27 22 26 27 22 26 27 71 75 75 90 94 94 75 79 79 22 26 27 70 74 74 71 75 75 69 73 73 73 77 77 22 26 27 84 88 88 84 88 88 91 95 95 84 88 88 71 71 71 74 74 74 73 73 73 95 78 116 68 68 68 70 70 70 77 77 77 74 74 74 74 74 74 72 72 72 67 67 67 71 71 71 74 74 74 94 78 117 60 60 60 60 60 60 72 72 72 71 71 71 68 68 68 61 61 61 66 66 66 102 77 114 72 72 72 73 73 73 68 68 68 61 61 61 73 73 73 74 74 74 72 72 72 71 71 71 71 71 71 59 59 59 60 60 60 69 69 69 90 79 118 72 72 72 76 76 76 66 66 66 71 71 71 72 72 72 61 61 61 76 76 76 73 73 73 69 69 69 69 69 69 68 68 68 114 76 111 60 60 60 73 73 73 75 75 75 69 69 69 71 71 71 77 77 77 71 71 71 73 73 73 76 76 76 76 76 76 71 71 71 70 70 70 60 60 60 66 66 66 72 72 72 74 74 74 68 68 68 71 71 71 67 67 67 66 66 66 68 68 68 59 59 59 72 72 72 72 72 72 77 77 77 72 72 72 75 75 75 68 68 68 60 60 60 60 60 60 64 64 64 63 63 63 77 77 77 76 76 76 73 73 73 64 64 64 73 73 73 62 62 62 65 65 65 72 72 72 69 69 69 63 63 63 64 64 64 62 62 62 66 66 66 66 66 66 69 69 69 66 66 66 68 68 68 75 75 75 73 73 73 71 71 71 74 74 74 60 60 60 66 66 66 58 58 58 63 63 63 75 75 75 61 61 61 68 68 68 72 72 72 75 75 75 92 96 94 94 98 96 77 81 79 81 85 83 81 85 83 98 102 100 92 96 94 83 87 85 84 88 86 88 92 90 81 85 83 80 84 82 96 100 98 92 96 94 85 89 87 81 85 83 79 83 81 83 87 85 75 79 77 94 98 96 81 85 83 85 89 87 85 89 87 83 87 85 78 82 80 85 89 87 84 88 86 96 100 98 78 82 80 77 81 79 78 82 80 92 96 94 78 82 80 82 86 84 75 79 77 93 97 95 93 97 95 75 79 77 84 88 86 76 80 78 88 92 90 93 97 95 77 81 79 74 78 76 93 97 95 88 92 90 98 102 100 85 89 87 93 97 95 81 85 83 78 82 80 83 87 85 84 88 86 85 89 87 91 95 93 76 80 78 80 84 82 79 83 81 92 96 94 88 92 90 83 87 85 98 102 100 93 97 95 81 85 83 94 98 96 87 91 89 97 101 99 95 99 97 96 100 98 77 81 79 96 100 98 76 80 78 84 88 86 88 92 90 74 78 76 95 99 97 76 80 78 97 101 99 91 95 93 97 101 99 89 93 91 84 88 86 22 26 27 22 26 27 22 26 27 22 26 27 22 26 27 22 26 27 22 26 27 22 26 27 22 26 27 22 26 27 22 26 27 22 26 27 22 26 27 22 26 27 22 26 27 22 26 27 22 26 27 22 26 27 22 26 27 22 26 27 22 26 27 22 26 27 22 26 27 22 26 27 22 26 27 22 26 27 22 26 27 22 26 27 22 26 27 22 26 27 22 26 27 22 26 27 22 26 27 22 26 27 22 26 27 22 26 27 22 26 27 22 26 27 22 26 27 22 26 27 22 26 27 22 26 27 22 26 27 22 26 27 22 26 27 22 26 27 22 26 27 22 26 27 22 26 27
22 26 27 22 26 27 22 26 27 90 94 94 85 89 89 76 80 80 22 26 27 71 75 75 87 91 91 71 75 75 70 74 74 22 26 27 73 77 77 80 84 84 83 87 87 88 92 92 61 61 61 70 70 70 70 70 70 63 63 63 67 67 67 69 69 69 67 67 67 58 58 58 67 67 67 73 73 73 72 72 72 61 61 61 106 72 108 73 73 73 69 69 69 70 70 70 73 73 73 64 64 64 66 66 66 59 59 59 61 61 61 59 59 59 70 70 70 61 61 61 65 65 65 71 71 71 72 72 72 72 72 72 97 73 110 68 68 68 107 72 108 64 64 64 59 59 59 69 69 69 64 64 64 69 69 69 58 58 58 62 62 62 59 59 59 64 64 64 66 66 66 96 74 111 62 62 62 59 59 59 73 73 73 71 71 71 56 56 56 59 59 59 74 74 74 68 68 68 69 69 69 71 71 71 62 62 62 73 73 73 65 65 65 60 60 60 96 74 111 72 72 72 87 75 113 64 64 64 71 71 71 73 73 73 68 68 68 66 66 66 61 61 61 58 58 58 66 66 66 74 74 74 62 62 62 104 72 108 110 72 107 62 62 62 71 71 71 61 61 61 69 69 69 64 64 64 68 68 68 57 57 57 66 66 66 57 57 57 73 73 73 56 56 56 68 68 68 68 68 68 64 64 64 70 70 70 64 64 64 64 64 64 65 65 65 61 61 61 59 59 59 57 57 57 59 59 59 66 66 66 59 59 59 72 72 72 68 68 68 69 69 69 57 57 57 64 64 64 101 73 109 73 73 73 60 60 60 58 58 58 69 69 69 70 70 70 73 73 73 69 69 69 73 73 73 94 98 96 80 84 82 87 91 89 90 94 92 75 79 77 77 81 79 89 93 91 84 88 86 74 78 76 81 85 83 79 83 81 85 89 87 93 97 95 76 80 78 74 78 76 83 87 85 82 86 84 88 92 90 84 88 86 98 102 100 84 88 86 76 80 78 87 91 89 76 80 78 77 81 79 77 81 79 82 86 84 93 97 95 95 99 97 79 83 81 91 95 93 79 83 81 86 90 88 90 94 92 87 91 89 79 83 81 95 99 97 89 93 91 96 100 98 85 89 87 87 91 89 93 97 95 81 85 83 79 83 81 78 82 80 81 85 83 75 79 77 82 86 84 75 79 77 83 87 85 88 92 90 90 94 92 75 79 77 97 101 99 77 81 79 85 89 87 85 89 87 80 84 82 93 97 95 88 92 90 77 81 79 97 101 99 86 90 88 89 93 91 88 92 90 76 80 78 77 81 79 97 101 99 95 99 97 93 97 95 84 88 86 91 95 93 97 101 99 83 87 85 85 89 87 95 99 97 76 80 78 75 79 77 84 88 86 94 98 96 75 79 77 89 93 91 22 26 27 22 26 27 22 26 27 22 26 27 22 26 27 22 26 27 22 26 27 22 26 27 22 26 27 22 26 27 22 26 27 22 26 27 22 26 27 22 26 27 22 26 27 22 26 27 22 26 27 22 26 27 22 26 27 22 26 27 22 26 27 22 26 27 22 26 27 22 26 27 22 26 27 22 26 27 22 26 27 22 26 27 22 26 27 22 26 27 22 26 27 22 26 27 22 26 27 22 26 27 22 26 27 22 26 27 22 26 27 22 26 27 22 26 27 22 26 27 22 26 27 22 26 27 22 26 27 22 26 27 22 26 27 22 26 27 22 26 27 22 26 27 22 26 27
22 26 27 22 26 27 22 26 27 74 78 78 80 84 84 93 97 97 22 26 27 89 93 93 73 77 77 91 95 95 89 93 93 22 26 27 90 94 94 73 77 77 86 90 90 88 92 92 63 63 63 62 62 62 63 63 63 63 63 63 68 68 68 59 59 59 63 63 63 68 68 68 68 68 68 56 56 56 57 57 57 63 63 63 69 69 69 63 63 63 89 68 105 62 62 62 68 68 68 66 66 66 69 69 69 53 53 53 56 56 56 55 55 55 69 69 69 69 69 69 67 67 67 61 61 61 69 69 69 57 57 57 54 54 54 52 52 52 60 60 60 67 67 67 51 51 51 55 55 55 61 61 61 53 53 53 60 60 60 54 54 54 59 59 59 63 63 63 65 65 65 56 56 56 52 52 52 61 61 61 66 66 66 69 69 69 55 55 55 58 58 58 64 64 64 52 52 52 63 63 63 56 56 56 57 57 57 58 58 58 67 67 67 52 52 52 52 52 52 67 67 67 68 68 68 96 67 103 98 67 102 64 64 64 57 57 57 67 67 67 63 63 63 61 61 61 54 54 54 56 56 56 96 67 103 67 67 67 68 68 68 55 55 55 63 63 63 58 58 58 66 66 66 60 60 60 61 61 61 61 61 61 52 52 52 51 51 51 69 69 69 64 64 64 58 58 58 69 69 69 68 68 68 100 67 102 65 65 65 63 63 63 56 56 56 51 51 51 56 56 56 61 61 61 52 52 52 68 68 68 69 69 69 83 69 106 60 60 60 65 65 65 53 53 53 64 64 64 66 66 66 63 63 63 56 56 56 53 53 53 69 69 69 91 68 104 61 61 61 58 58 58 58 58 58 76 80 78 94 98 96 77 81 79 77 81 79 92 96 94 78 82 80 97 101 99 84 88 86 92 96 94 95 99 97 92 96 94 84 88 86 97 101 99 90 94 92 78 82 80 86 90 88 81 85 83 76 80 78 91 95 93 85 89 87 96 100 98 80 84 82 88 92 90 76 80 78 81 85 83 88 92 90 76 80 78 97 101 99 85 89 87 95 99 97 92 96 94 82 86 84 81 85 83 81 85 83 94 98 96 94 98 96 94 98 96 80 84 82 91 95 93 84 88 86 86 90 88 78 82 80 82 86 84 89 93 91 89 93 91 94 98 96 75 79 77 75 79 77 81 85 83 87 91 89 93 97 95 75 79 77 82 86 84 84 88 86 86 90 88 97 101 99 87 91 89 81 85 83 83 87 85 97 101 99 85 89 87 75 79 77 81 85 83 95 99 97 95 99 97 96 100 98 97 101 99 90 94 92 89 93 91 98 102 100 96 100 98 86 90 88 75 79 77 96 100 98 77 81 79 90 94 92 87 91 89 98 102 100 82 86 84 94 98 96 78 82 80 79 83 81 22 26 27 22 26 27 22 26 27 22 26 27 22 26 27 22 26 27 22 26 27 22 26 27 22 26 27 22 26 27 22 26 27 22 26 27 22 26 27 22 26 27 22 26 27 22 26 27 22 26 27 22 26 27 22 26 27 22 26 27 22 26 27 22 26 27 22 26 27 22 26 27 22 26 27 22 26 27 22 26 27 22 26 27 22 26 27 22 26 27 22 26 27 22 26 27 22 26 27 22 26 27 22 26 27 22 26 27 22 26 27 22 26 27 22 26 27 22 26 27 22 26 27 22 26 27 22 26 27 22 26 27 22 26 27 22 26 27 22 26 27 22 26 27 22 26 27
22 26 27 22 26 27 22 26 27 82 86 86 92 96 96 82 86 86 22 26 27 71 75 75 93 97 97 78 82 82 73 77 77 22 26 27 80 84 84 86 90 90 77 81 81 83 87 87 72 64 102 52 52 52 47 47 47 63 63 63 52 52 52 63 63 63 49 49 49 49 49 49 51 51 51 50 50 50 61 61 61 59 59 59 59 59 59 50 50 50 75 63 101 48 48 48 62 62 62 79 63 100 59 59 59 59 59 59 61 61 61 47 47 47 51 51 51 63 63 63 48 48 48 50 50 50 52 52 52 57 57 57 48 48 48 50 50 50 61 61 61 52 52 52 57 57 57 62 62 62 59 59 59 64 64 64 61 61 61 51 51 51 64 64 64 58 58 58 61 61 61 60 60 60 50 50 50 50 50 50 55 55 55 61 61 61 51 51 51 60 60 60 60 60 60 52 52 52 51 51 51 54 54 54 62 62 62 50 50 50 55 55 55 54 54 54 54 54 54 92 61 96 57 57 57 59 59 59 58 58 58 60 60 60 52 52 52 57 57 57 58 58 58 62 62 62 60 60 60 54 54 54 47 47 47 52 52 52 54 54 54 56 56 56 52 52 52 48 48 48 64 64 64 49 49 49 54 54 54 52 52 52 47 47 47 50 50 50 57 57 57 60 60 60 62 62 62 60 60 60 54 54 54 50 50 50 51 51 51 59 59 59 57 57 57 57 57 57 50 50 50 62 62 62 53 53 53 62 62 62 63 63 63 62 62 62 62 62 62 101 60 93 64 64 64 56 56 56 57 57 57 59 59 59 64 64 64 63 63 63 61 61 61 97 60 95 55 55 55 64 64 64 64 64 64 97 101 99 81 85 83 98 102 100 96 100 98 80 84 82 90 94 92 90 94 92 80 84 82 78 82 80 88 92 90 96 100 98 88 92 90 84 88 86 89 93 91 96 100 98 76 80 78 86 90 88 89 93 91 89 93 91 83 87 85 77 81 79 96 100 98 77 81 79 86 90 88 86 90 88 74 78 76 95 99 97 89 93 91 91 95 93 77 81 79 87 91 89 77 81 79 81 85 83 81 85 83 97 101 99 75 79 77 77 81 79 96 100 98 77 81 79 77 81 79 81 85 83 75 79 77 81 85 83 74 78 76 90 94 92 88 92 90 74 78 76 83 87 85 80 84 82 78 82 80 85 89 87 95 99 97 85 89 87 91 95 93 82 86 84 86 90 88 89 93 91 78 82 80 93 97 95 78 82 80 81 85 83 92 96 94 90 94 92 91 95 93 90 94 92 86 90 88 85 89 87 88 92 90 75 79 77 89 93 91 83 87 85 97 101 99 88 92 90 80 84 82 89 93 91 89 93 91 88 92 90 92 96 94 88 92 90 87 91 89 97 101 99 85 89 87 22 26 27 22 26 27 22 26 27 22 26 27 22 26 27 22 26 27 22 26 27 22 26 27 22 26 27 22 26 27 22 26 27 22 26 27 22 26 27 22 26 27 22 26 27 22 26 27 22 26 27 22 26 27 22 26 27 22 26 27 22 26 27 22 26 27 22 26 27 22 26 27 22 26 27 22 26 27 22 26 27 22 26 27 22 26 27 22 26 27 22 26 27 22 26 27 22 26 27 22 26 27 22 26 27 22 26 27 22 26 27 22 26 27 22 26 27 22 26 27 22 26 27 22 26 27 22 26 27 22 26 27 22 26 27 22 26 27 22 26 27 22 26 27 22 26 27
22 26 27 22 26 27 22 26 27 92 96 96 71 75 75 89 93 93 22 26 27 81 85 85 80 84 84 90 94 94 76 80 80 22 26 27 69 73 73 81 85 85 79 83 83 91 95 95 56 56 56 47 47 47 56 56 56 58 58 58 57 57 57 55 55 55 56 56 56 51 51 51 49 49 49 45 45 45 50 50 50 52 52 52 60 60 60 52 52 52 52 52 52 50 50 50 84 58 94 45 45 45 45 45 45 58 58 58 52 52 52 62 62 62 53 53 53 51 51 51 50 50 50 56 56 56 49 49 49 51 51 51 100 56 89 81 59 94 57 57 57 45 45 45 50 50 50 49 49 49 60 60 60 58 58 58 50 50 50 60 60 60 54 54 54 57 57 57 62 62 62 75 59 96 58 58 58 61 61 61 61 61 61 58 58 58 61 61 61 56 56 56 61 61 61 53 53 53 60 60 60 54 54 54 46 46 46 55 55 55 48 48 48 58 58 58 49 49 49 55 55 55 52 52 52 50 50 50 61 61 61 49 49 49 60 60 60 61 61 61 61 61 61 61 61 61 71 60 97 58 58 58 87 58 93 48 48 48 57 57 57 48 48 48 53 53 53 62 62 62 58 58 58 55 55 55 59 59 59 52 52 52 60 60 60 61 61 61 57 57 57 87 58 93 60 60 60 57 57 57 45 45 45 55 55 55 45 45 45 59 59 59 57 57 57 53 53 53 60 60 60 73 60 97 59 59 59 61 61 61 51 51 51 53 53 53 57 57 57 45 45 45 62 62 62 54 54 54 50 50 50 55 55 55 52 52 52 60 60 60 55 55 55 48 48 48 55 55 55 54 54 54 62 62 62 89 93 91 75 79 77 97 101 99 82 86 84 96 100 98 89 93 91 89 93 91 86 90 88 86 90 88 86 90 88 83 87 85 91 95 93 77 81 79 95 99 97 91 95 93 89 93 91 91 95 93 97 101 99 85 89 87 87 91 89 83 87 85 96 100 98 84 88 86 84 88 86 82 86 84 81 85 83 82 86 84 94 98 96 75 79 77 76 80 78 75 79 77 84 88 86 88 92 90 74 78 76 79 83 81 76 80 78 74 78 76 90 94 92 78 82 80 75 79 77 85 89 87 92 96 94 94 98 96 84 88 86 77 81 79 96 100 98 78 82 80 75 79 77 77 81 79 79 83 81 88 92 90 87 91 89 94 98 96 86 90 88 84 88 86 86 90 88 93 97 95 82 86 84 74 78 76 79 83 81 89 93 91 80 84 82 78 82 80 74 78 76 88 92 90 80 84 82 89 93 91 76 80 78 98 102 100 76 80 78 77 81 79 94 98 96 96 100 98 96 100 98 94 98 96 97 101 99 80 84 82 88 92 90 89 93 91 86 90 88 84 88 86 92 96 94 22 26 27 22 26 27 22 26 27 22 26 27 22 26 27 22 26 27 22 26 27 22 26 27 22 26 27 22 26 27 22 26 27 22 26 27 22 26 27 22 26 27 22 26 27 22 26 27 22 26 27 22 26 27 22 26 27 22 26 27 22 26 27 22 26 27 22 26 27 22 26 27 22 26 27 22 26 27 22 26 27 22 26 27 22 26 27 22 26 27 22 26 27 22 26 27 22 26 27 22 26 27 22 26 27 22 26 27 22 26 27 22 26 27 22 26 27 22 26 27 22 26 27 22 26 27 22 26 27 22 26 27 22 26 27 22 26 27 22 26 27 22 26 27 22 26 27
22 26 27 22 26 27 22 26 27 90 94 94 81 85 85 77 81 81 22 26 27 90 94 94 92 96 96 72 76 76 73 77 77 22 26 27 75 79 79 86 90 90 73 77 77 89 93 93 51 51 51 55 55 55 62 62 62 56 56 56 76 60 97 52 52 52 56 56 56 46 46 46 61 61 61 58 58 58 56 56 56 71 61 98 55 55 55 61 61 61 62 62 62 46 46 46 58 58 58 61 61 61 60 60 60 84 59 95 61 61 61 46 46 46 46 46 46 60 60 60 61 61 61 53 53 53 58 58 58 75 60 97 61 61 61 54 54 54 52 52 52 59 59 59 59 59 59 46 46 46 79 60 96 46 46 46 60 60 60 46 46 46 52 52 52 63 63 63 55 55 55 56 56 56 47 47 47 56 56 56 89 59 93 58 58 58 59 59 59 45 45 45 62 62 62 55 55 55 97 58 91 55 55 55 60 60 60 55 55 55 48 48 48 58 58 58 55 55 55 47 47 47 52 52 52 47 47 47 73 61 98 47 47 47 59 59 59 45 45 45 54 54 54 63 63 63 55 55 55 50 50 50 60 60 60 51 51 51 62 62 62 59 59 59 69 61 99 51 51 51 60 60 60 45 45 45 61 61 61 60 60 60 60 60 60 51 51 51 45 45 45 54 54 54 62 62 62 60 60 60 62 62 62 57 57 57 58 58 58 62 62 62 60 60 60 62 62 62 54 54 54 63 63 63 61 61 61 63 63 63 48 48 48 60 60 60 59 59 59 55 55 55 54 54 54 53 53 53 61 61 61 60 60 60 60 60 60 46 46 46 45 45 45 83 59 95 100 57 90 60 60 60 48 48 48 92 96 94 83 87 85 86 90 88 79 83 81 91 95 93 83 87 85 74 78 76 94 98 96 76 80 78 81 85 83 75 79 77 87 91 89 97 101 99 98 102 100 92 96 94 82 86 84 92 96 94 82 86 84 83 87 85 89 93 91 76 80 78 75 79 77 84 88 86 76 80 78 95 99 97 94 98 96 83 87 85 81 85 83 74 78 76 90 94 92 74 78 76 85 89 87 87 91 89 87 91 89 86 90 88 79 83 81 80 84 82 90 94 92 89 93 91 80 84 82 96 100 98 79 83 81 98 102 100 92 96 94 87 91 89 90 94 92 86 90 88 77 81 79 83 87 85 84 88 86 91 95 93 87 91 89 95 99 97 80 84 82 86 90 88 97 101 99 97 101 99 90 94 92 80 84 82 84 88 86 95 99 97 79 83 81 86 90 88 87 91 89 86 90 88 89 93 91 97 101 99 84 88 86 91 95 93 93 97 95 85 89 87 98 102 100 96 100 98 92 96 94 96 100 98 83 87 85 78 82 80 81 85 83 86 90 88 90 94 92 89 93 91 76 80 78 22 26 27 22 26 27 22 26 27 22 26 27 22 26 27 22 26 27 22 26 27 22 26 27 22 26 27 22 26 27 22 26 27 22 26 27 22 26 27 22 26 27 22 26 27 22 26 27 22 26 27 22 26 27 22 26 27 22 26 27 22 26 27 22 26 27 22 26 27 22 26 27 22 26 27 22 26 27 22 26 27 22 26 27 22 26 27 22 26 27 22 26 27 22 26 27 22 26 27 22 26 27 22 26 27 22 26 27 22 26 27 22 26 27 22 26 27 22 26 27 22 26 27 22 26 27 22 26 27 22 26 27 22 26 27 22 26 27 22 26 27 22 26 27 22 26 27
22 26 27 22 26 27 22 26 27 80 84 84 89 93 93 69 73 73 22 26 27 81 85 85 88 92 92 79 83 83 92 96 96 22 26 27 82 86 86 81 85 85 81 85 85 72 76 76 102 62 96 52 52 52 61 61 61 51 51 51 58 58 58 52 52 52 52 52 52 63 63 63 84 64 101 52 52 52 51 51 51 65 65 65 64 64 64 55 55 55 51 51 51 60 60 60 59 59 59 50 50 50 64 64 64 54 54 54 57 57 57 49 49 49 57 57 57 52 52 52 54 54 54 63 63 63 59 59 59 50 50 50 57 57 57 55 55 55 66 66 66 50 50 50 64 64 64 61 61 61 48 48 48 61 61 61 51 51 51 50 50 50 77 65 103 62 62 62 51 51 51 62 62 62 61 61 61 61 61 61 58 58 58 64 64 64 63 63 63 64 64 64 51 51 51 49 49 49 61 61 61 55 55 55 60 60 60 62 62 62 52 52 52 66 66 66 60 60 60 49 49 49 57 57 57 63 63 63 66 66 66 55 55 55 56 56 56 61 61 61 62 62 62 64 64 64 61 61 61 57 57 57 61 61 61 58 58 58 55 55 55 51 51 51 61 61 61 61 61 61 50 50 50 56 56 56 60 60 60 53 53 53 61 61 61 64 64 64 62 62 62 66 66 66 51 51 51 56 56 56 79 65 102 51 51 51 49 49 49 62 62 62 58 58 58 67 67 67 51 51 51 74 66 104 61 61 61 66 66 66 63 63 63 58 58 58 57 57 57 56 56 56 50 50 50 52 52 52 49 49 49 64 64 64 81 65 102 61 61 61 54 54 54 52 52 52 62 62 62 50 50 50 57 57 57 87 91 89 92 96 94 83 87 85 81 85 83 77 81 79 91 95 93 80 84 82 85 89 87 87 91 89 95 99 97 87 91 89 80 84 82 81 85 83 93 97 95 85 89 87 89 93 91 87 91 89 93 97 95 91 95 93 85 89 87 90 94 92 94 98 96 87 91 89 75 79 77 89 93 91 87 91 89 82 86 84 80 84 82 94 98 96 80 84 82 90 94 92 74 78 76 74 78 76 83 87 85 97 101 99 94 98 96 97 101 99 88 92 90 87 91 89 80 84 82 85 89 87 82 86 84 79 83 81 96 100 98 94 98 96 88 92 90 83 87 85 75 79 77 90 94 92 92 96 94 89 93 91 76 80 78 88 92 90 86 90 88 86 90 88 92 96 94 92 96 94 87 91 89 88 92 90 74 78 76 76 80 78 89 93 91 78 82 80 76 80 78 78 82 80 92 96 94 89 93 91 75 79 77 80 84 82 96 100 98 78 82 80 76 80 78 89 93 91 96 100 98 91 95 93 93 97 95 88 92 90 92 96 94 97 101 99 85 89 87 80 84 82 98 102 100 22 26 27 22 26 27 22 26 27 22 26 27 22 26 27 22 26 27 22 26 27 22 26 27 22 26 27 22 26 27 22 26 27 22 26 27 22 26 27 22 26 27 22 26 27 22 26 27 22 26 27 22 26 27 22 26 27 22 26 27 22 26 27 22 26 27 22 26 27 22 26 27 22 26 27 22 26 27 22 26 27 22 26 27 22 26 27 22 26 27 22 26 27 22 26 27 22 26 27 22 26 27 22 26 27 22 26 27 22 26 27 22 26 27 22 26 27 22 26 27 22 26 27 22 26 27 22 26 27 22 26 27 22 26 27 22 26 27 22 26 27 22 26 27 22 26 27
22 26 27 22 26 27 22 26 27 72 76 76 92 96 96 78 82 82 22 26 27 92 96 96 88 92 92 79 83 83 79 83 83 22 26 27 80 84 84 82 86 86 73 77 77 92 96 96 63 63 63 70 70 70 98 70 106 55 55 55 65 65 65 54 54 54 66 66 66 65 65 65 64 64 64 69 69 69 54 54 54 69 69 69 106 69 103 70 70 70 61 61 61 98 70 106 66 66 66 69 69 69 70 70 70 65 65 65 64 64 64 71 71 71 66 66 66 66 66 66 64 64 64 60 60 60 62 62 62 66 66 66 65 65 65 71 71 71 66 66 66 56 56 56 63 63 63 55 55 55 68 68 68 63 63 63 65 65 65 62 62 62 88 71 108 54 54 54 67 67 67 61 61 61 65 65 65 63 63 63 62 62 62 57 57 57 70 70 70 55 55 55 56 56 56 54 54 54 60 60 60 66 66 66 63 63 63 61 61 61 60 60 60 57 57 57 58 58 58 54 54 54 57 57 57 67 67 67 67 67 67 62 62 62 69 69 69 61 61 61 58 58 58 67 67 67 62 62 62 111 68 102 59 59 59 64 64 64 54 54 54 55 55 55 67 67 67 64 64 64 71 71 71 58 58 58 68 68 68 54 54 54 70 70 70 59 59 59 63 63 63 97 70 106 71 71 71 58 58 58 69 69 69 63 63 63 65 65 65 63 63 63 83 71 110 68 68 68 69 69 69 60 60 60 62 62 62 66 66 66 71 71 71 66 66 66 63 63 63 71 71 71 59 59 59 55 55 55 55 55 55 63 63 63 55 55 55 55 55 55 67 67 67 63 63 63 69 69 69 68 68 68 56 56 56 78 82 80 81 85 83 90 94 92 90 94 92 90 94 92 90 94 92 84 88 86 90 94 92 95 99 97 93 97 95 78 82 80 76 80 78 81 85 83 83 87 85 90 94 92 97 101 99 88 92 90 93 97 95 86 90 88 84 88 86 88 92 90 75 79 77 83 87 85 81 85 83 82 86 84 79 83 81 78 82 80 88 92 90 81 85 83 82 86 84 97 101 99 83 87 85 78 82 80 81 85 83 83 87 85 88 92 90 93 97 95 92 96 94 84 88 86 77 81 79 90 94 92 95 99 97 79 83 81 94 98 96 94 98 96 91 95 93 79 83 81 79 83 81 84 88 86 86 90 88 85 89 87 75 79 77 76 80 78 75 79 77 98 102 100 82 86 84 76 80 78 89 93 91 88 92 90 95 99 97 86 90 88 94 98 96 85 89 87 98 102 100 75 79 77 86 90 88 84 88 86 76 80 78 76 80 78 93 97 95 95 99 97 78 82 80 77 81 79 77 81 79 76 80 78 79 83 81 97 101 99 78 82 80 84 88 86 88 92 90 80 84 82 86 90 88 22 26 27 22 26 27 22 26 27 22 26 27 22 26 27 22 26 27 22 26 27 22 26 27 22 26 27 22 26 27 22 26 27 22 26 27 22 26 27 22 26 27 22 26 27 22 26 27 22 26 27 22 26 27 22 26 27 22 26 27 22 26 27 22 26 27 22 26 27 22 26 27 22 26 27 22 26 27 22 26 27 22 26 27 22 26 27 22 26 27 22 26 27 22 26 27 22 26 27 22 26 27 22 26 27 22 26 27 22 26 27 22 26 27 22 26 27 22 26 27 22 26 27 22 26 27 22 26 27 22 26 27 22 26 27 22 26 27 22 26 27 22 26 27 22 26 27
22 26 27 22 26 27 22 26 27 78 82 82 83 87 87 78 82 82 22 26 27 93 97 97 87 91 91 81 85 85 79 83 83 22 26 27 93 97 97 69 73 73 87 91 91 83 87 87 71 71 71 64 64 64 57 57 57 69 69 69 110 74 109 73 73 73 68 68 68 69 69 69 75 75 75 65 65 65 64 64 64 60 60 60 62 62 62 71 71 71 68 68 68 58 58 58 63 63 63 73 73 73 72 72 72 70 70 70 71 71 71 71 71 71 66 66 66 74 74 74 59 59 59 57 57 57 57 57 57 74 74 74 67 67 67 62 62 62 65 65 65 73 73 73 96 76 113 61 61 61 58 58 58 94 76 114 60 60 60 58 58 58 58 58 58 60 60 60 62 62 62 73 73 73 69 69 69 75 75 75 63 63 63 72 72 72 57 57 57 68 68 68 64 64 64 93 76 114 63 63 63 72 72 72 61 61 61 88 77 115 67 67 67 66 66 66 68 68 68 62 62 62 73 73 73 59 59 59 70 70 70 61 61 61 71 71 71 63 63 63 61 61 61 69 69 69 71 71 71 66 66 66 68 68 68 74 74 74 104 75 111 58 58 58 64 64 64 74 74 74 60 60 60 69 69 69 60 60 60 74 74 74 69 69 69 61 61 61 69 69 69 60 60 60 60 60 60 63 63 63 67 67 67 61 61 61 74 74 74 64 64 64 71 71 71 74 74 74 58 58 58 87 77 116 61 61 61 69 69 69 71 71 71 61 61 61 61 61 61 65 65 65 61 61 61 71 71 71 67 67 67 62 62 62 62 62 62 66 66 66 68 68 68 69 69 69 60 60 60 71 71 71 63 63 63 91 95 93 91 95 93 92 96 94 85 89 87 83 87 85 91 95 93 96 100 98 82 86 84 77 81 79 87 91 89 75 79 77 90 94 92 79 83 81 78 82 80 84 88 86 79 83 81 92 96 94 89 93 91 78 82 80 80 84 82 80 84 82 96 100 98 88 92 90 78 82 80 88 92 90 94 98 96 98 102 100 79 83 81 84 88 86 83 87 85 97 101 99 92 96 94 93 97 95 74 78 76 81 85 83 80 84 82 85 89 87 91 95 93 89 93 91 87 91 89 86 90 88 79 83 81 74 78 76 80 84 82 89 93 91 85 89 87 86 90 88 92 96 94 76 80 78 77 81 79 86 90 88 88 92 90 80 84 82 90 94 92 76 80 78 79 83 81 97 101 99 96 100 98 77 81 79 77 81 79 81 85 83 77 81 79 93 97 95 90 94 92 98 102 100 77 81 79 90 94 92 81 85 83 84 88 86 94 98 96 97 101 99 87 91 89 86 90 88 76 80 78 87 91 89 90 94 92 89 93 91 89 93 91 77 81 79 79 83 81 84 88 86 93 97 95 22 26 27 22 26 27 22 26 27 22 26 27 22 26 27 22 26 27 22 26 27 22 26 27 22 26 27 22 26 27 22 26 27 22 26 27 22 26 27 22 26 27 22 26 27 22 26 27 22 26 27 22 26 27 22 26 27 22 26 27 22 26 27 22 26 27 22 26 27 22 26 27 22 26 27 22 26 27 22 26 27 22 26 27 22 26 27 22 26 27 22 26 27 22 26 27 22 26 27 22 26 27 22 26 27 22 26 27 22 26 27 22 26 27 22 26 27 22 26 27 22 26 27 22 26 27 22 26 27 22 26 27 22 26 27 22 26 27 22 26 27 22 26 27 22 26 27
22 26 27 22 26 27 22 26 27 78 82 82 92 96 96 81 85 85 22 26 27 76 80 80 74 78 78 92 96 96 72 76 76 22 26 27 75 79 79 91 95 95 92 96 96 75 79 79 68 68 68 68 68 68 61 61 61 77 77 77 69 69 69 74 74 74 67 67 67 74 74 74 63 63 63 60 60 60 73 73 73 75 75 75 70 70 70 60 60 60 68 68 68 77 77 77 71 71 71 77 77 77 70 70 70 73 73 73 74 74 74 69 69 69 115 77 112 71 71 71 71 71 71 63 63 63 63 63 63 70 70 70 75 75 75 77 77 77 67 67 67 67 67 67 69 69 69 73 73 73 74 74 74 72 72 72 72 72 72 63 63 63 67 67 67 61 61 61 74 74 74 67 67 67 68 68 68 69 69 69 69 69 69 60 60 60 77 77 77 62 62 62 78 78 78 60 60 60 61 61 61 65 65 65 64 64 64 75 75 75 72 72 72 69 69 69 63 63 63 61 61 61 62 62 62 65 65 65 77 77 77 73 73 73 62 62 62 70 70 70 74 74 74 104 78 115 71 71 71 61 61 61 73 73 73 73 73 73 60 60 60 62 62 62 72 72 72 61 61 61 73 73 73 77 77 77 62 62 62 69 69 69 72 72 72 71 71 71 71 71 71 64 64 64 62 62 62 66 66 66 71 71 71 61 61 61 72 72 72 73 73 73 61 61 61 71 71 71 78 78 78 66 66 66 64 64 64 73 73 73 71 71 71 71 71 71 74 74 74 77 77 77 73 73 73 74 74 74 70 70 70 68 68 68 115 77 112 71 71 71 73 73 73 62 62 62 78 78 78 73 73 73 76 76 76 84 88 86 80 84 82 88 92 90 97 101 99 91 95 93 78 82 80 82 86 84 84 88 86 92 96 94 80 84 82 85 89 87 98 102 100 92 96 94 94 98 96 75 79 77 78 82 80 96 100 98 95 99 97 81 85 83 81 85 83 97 101 99 79 83 81 89 93 91 97 101 99 77 81 79 88 92 90 82 86 84 82 86 84 75 79 77 88 92 90 85 89 87 91 95 93 90 94 92 85 89 87 83 87 85 93 97 95 93 97 95 81 85 83 78 82 80 90 94 92 89 93 91 77 81 79 97 101 99 91 95 93 77 81 79 77 81 79 90 94 92 92 96 94 88 92 90 96 100 98 98 102 100 75 79 77 95 99 97 95 99 97 84 88 86 89 93 91 84 88 86 95 99 97 83 87 85 85 89 87 78 82 80 85 89 87 80 84 82 92 96 94 89 93 91 86 90 88 74 78 76 92 96 94 94 98 96 96 100 98 77 81 79 80 84 82 84 88 86 85 89 87 82 86 84 79 83 81 93 97 95 81 85 83 79 83 81 87 91 89 86 90 88 91 95 93 22 26 27 22 26 27 22 26 27 22 26 27 22 26 27 22 26 27 22 26 27 22 26 27 22 26 27 22 26 27 22 26 27 22 26 27 22 26 27 22 26 27 22 26 27 22 26 27 22 26 27 22 26 27 22 26 27 22 26 27 22 26 27 22 26 27 22 26 27 22 26 27 22 26 27 22 26 27 22 26 27 22 26 27 22 26 27 22 26 27 22 26 27 22 26 27 22 26 27 22 26 27 22 26 27 22 26 27 22 26 27 22 26 27 22 26 27 22 26 27 22 26 27 22 26 27 22 26 27 22 26 27 22 26 27 22 26 27 22 26 27 22 26 27 22 26 27
22 26 27 22 26 27 22 26 27 87 91 91 89 93 93 83 87 87 22 26 27 72 76 76 76 80 80 81 85 85 80 84 84 22 26 27 71 75 75 88 92 92 81 85 85 85 89 89 67 67 67 75 75 75 70 70 70 63 63 63 114 79 115 77 77 77 74 74 74 71 71 71 78 78 78 79 79 79 64 64 64 63 63 63 71 71 71 77 77 77 99 81 119 63 63 63 61 61 61 74 74 74 75 75 75 76 76 76 62 62 62 75 75 75 76 76 76 119 79 114 108 80 117 69 69 69 62 62 62 67 67 67 76 76 76 65 65 65 75 75 75 66 66 66 78 78 78 72 72 72 62 62 62 64 64 64 72 72 72 68 68 68 62 62 62 76 76 76 77 77 77 63 63 63 68 68 68 75 75 75 94 82 121 78 78 78 98 81 120 75 75 75 103 81 118 64 64 64 64 64 64 65 65 65 73 73 73 74 74 74 68 68 68 62 62 62 63 63 63 71 71 71 75 75 75 78 78 78 75 75 75 77 77 77 61 61 61 77 77 77 75 75 75 63 63 63 62 62 62 107 80 117 75 75 75 75 75 75 74 74 74 79 79 79 73 73 73 75 75 75 71 71 71 61 61 61 66 66 66 72 72 72 79 79 79 78 78 78 72 72 72 64 64 64 75 75 75 66 66 66 71 71 71 62 62 62 74 74 74 66 66 66 75 75 75 61 61 61 76 76 76 108 80 117 61 61 61 68 68 68 78 78 78 72 72 72 99 81 119 62 62 62 63 63 63 76 76 76 77 77 77 74 74 74 74 74 74 62 62 62 70 70 70 69 69 69 67 67 67 70 70 70 74 74 74 87 91 89 96 100 98 78 82 80 74 78 76 90 94 92 77 81 79 85 89 87 75 79 77 96 100 98 89 93 91 95 99 97 86 90 88 84 88 86 79 83 81 78 82 80 86 90 88 86 90 88 75 79 77 75 79 77 95 99 97 81 85 83 75 79 77 83 87 85 86 90 88 90 94 92 83 87 85 75 79 77 84 88 86 89 93 91 97 101 99 94 98 96 81 85 83 78 82 80 77 81 79 83 87 85 83 87 85 89 93 91 74 78 76 86 90 88 91 95 93 80 84 82 86 90 88 80 84 82 78 82 80 88 92 90 93 97 95 82 86 84 75 79 77 88 92 90 75 79 77 88 92 90 88 92 90 84 88 86 76 80 78 77 81 79 86 90 88 85 89 87 97 101 99 84 88 86 79 83 81 79 83 81 82 86 84 87 91 89 78 82 80 95 99 97 90 94 92 78 82 80 86 90 88 79 83 81 92 96 94 74 78 76 90 94 92 97 101 99 93 97 95 83 87 85 86 90 88 77 81 79 81 85 83 77 81 79 80 84 82 89 93 91 97 101 99 22 26 27 22 26 27 22 26 27 22 26 27 22 26 27 22 26 27 22 26 27 22 26 27 22 26 27 22 26 27 22 26 27 22 26 27 22 26 27 22 26 27 22 26 27 22 26 27 22 26 27 22 26 27 22 26 27 22 26 27 22 26 27 22 26 27 22 26 27 22 26 27 22 26 27 22 26 27 22 26 27 22 26 27 22 26 27 22 26 27 22 26 27 22 26 27 22 26 27 22 26 27 22 26 27 22 26 27 22 26 27 22 26 27 22 26 27 22 26 27 22 26 27 22 26 27 22 26 27 22 26 27 22 26 27 22 26 27 22 26 27 22 26 27 22 26 27
22 26 27 22 26 27 22 26 27 90 94 94 86 90 90 89 93 93 22 26 27 88 92 92 69 73 73 80 84 84 92 96 96 22 26 27 83 87 87 90 94 94 90 94 94 82 86 86 70 70 70 74 74 74 63 63 63 77 77 77 77 77 77 80 80 80 76 76 76 76 76 76 66 66 66 65 65 65 74 74 74 77 77 77 63 63 63 69 69 69 76 76 76 67 67 67 70 70 70 80 80 80 67 67 67 114 81 118 63 63 63 65 65 65 73 73 73 99 83 122 79 79 79 67 67 67 75 75 75 77 77 77 64 64 64 76 76 76 63 63 63 75 75 75 70 70 70 72 72 72 63 63 63 77 77 77 80 80 80 108 82 120 67 67 67 74 74 74 69 69 69 67 67 67 67 67 67 70 70 70 62 62 62 80 80 80 63 63 63 67 67 67 80 80 80 75 75 75 75 75 75 79 79 79 65 65 65 69 69 69 71 71 71 69 69 69 67 67 67 72 72 72 64 64 64 65 65 65 120 81 116 76 76 76 73 73 73 119 81 117 76 76 76 68 68 68 77 77 77 78 78 78 68 68 68 77 77 77 119 81 117 77 77 77 77 77 77 72 72 72 69 69 69 68 68 68 70 70 70 73 73 73 65 65 65 65 65 65 63 63 63 66 66 66 63 63 63 75 75 75 71 71 71 75 75 75 80 80 80 71 71 71 64 64 64 80 80 80 73 73 73 72 72 72 68 68 68 72 72 72 74 74 74 74 74 74 80 80 80 74 74 74 64 64 64 77 77 77 76 76 76 78 78 78 78 78 78 64 64 64 73 73 73 65 65 65 73 73 73 63 63 63 67 67 67 96 100 98 94 98 96 82 86 84 78 82 80 87 91 89 91 95 93 85 89 87 89 93 91 96 100 98 94 98 96 74 78 76 94 98 96 85 89 87 86 90 88 85 89 87 95 99 97 91 95 93 95 99 97 86 90 88 97 101 99 91 95 93 82 86 84 93 97 95 93 97 95 88 92 90 94 98 96 91 95 93 81 85 83 96 100 98 82 86 84 88 92 90 75 79 77 77 81 79 98 102 100 96 100 98 76 80 78 94 98 96 92 96 94 86 90 88 80 84 82 75 79 77 88 92 90 98 102 100 75 79 77 79 83 81 87 91 89 82 86 84 90 94 92 92 96 94 90 94 92 81 85 83 88 92 90 75 79 77 94 98 96 76 80 78 89 93 91 89 93 91 92 96 94 76 80 78 94 98 96 90 94 92 89 93 91 89 93 91 89 93 91 96 100 98 75 79 77 96 100 98 89 93 91 89 93 91 82 86 84 97 101 99 84 88 86 90 94 92 75 79 77 77 81 79 84 88 86 87 91 89 86 90 88 96 100 98 86 90 88 81 85 83 82 86 84 22 26 27 22 26 27 22 26 27 22 26 27 22 26 27 22 26 27 22 26 27 22 26 27 22 26 27 22 26 27 22 26 27 22 26 27 22 26 27 22 26 27 22 26 27 22 26 27 22 26 27 22 26 27 22 26 27 22 26 27 22 26 27 22 26 27 22 26 27 22 26 27 22 26 27 22 26 27 22 26 27 22 26 27 22 26 27 22 26 27 22 26 27 22 26 27 22 26 27 22 26 27 22 26 27 22 26 27 22 26 27 22 26 27 22 26 27 22 26 27 22 26 27 22 26 27 22 26 27 22 26 27 22 26 27 22 26 27 22 26 27 22 26 27 22 26 27
22 26 27 22 26 27 22 26 27 90 94 94 72 76 76 90 94 94 22 26 27 82 86 86 87 91 91 93 97 97 87 91 91 22 26 27 84 88 88 86 90 90 85 89 89 76 80 80 75 75 75 80 80 80 82 82 82 76 76 76 72 72 72 121 84 121 72 72 72 69 69 69 81 81 81 74 74 74 83 83 83 74 74 74 80 80 80 79 79 79 71 71 71 125 84 119 77 77 77 65 65 65 73 73 73 72 72 72 79 79 79 81 81 81 81 81 81 100 87 126 71 71 71 77 77 77 71 71 71 73 73 73 65 65 65 73 73 73 79 79 79 121 84 121 111 85 123 69 69 69 79 79 79 78 78 78 102 86 126 68 68 68 75 75 75 79 79 79 81 81 81 77 77 77 72 72 72 76 76 76 75 75 75 68 68 68 80 80 80 79 79 79 78 78 78 68 68 68 80 80 80 80 80 80 67 67 67 72 72 72 67 67 67 75 75 75 69 69 69 71 71 71 81 81 81 73 73 73 78 78 78 78 78 78 80 80 80 77 77 77 79 79 79 116 85 122 82 82 82 81 81 81 73 73 73 77 77 77 79 79 79 72 72 72 74 74 74 116 85 122 68 68 68 79 79 79 69 69 69 73 73 73 76 76 76 79 79 79 79 79 79 79 79 79 73 73 73 78 78 78 103 86 125 65 65 65 69 69 69 116 85 122 80 80 80 80 80 80 83 83 83 75 75 75 74 74 74 79 79 79 69 69 69 77 77 77 73 73 73 115 85 122 79 79 79 66 66 66 66 66 66 81 81 81 78 78 78 110 86 124 78 78 78 66 66 66 67 67 67 78 78 78 68 68 68 83 87 85 87 91 89 77 81 79 91 95 93 74 78 76 74 78 76 90 94 92 76 80 78 91 95 93 75 79 77 86 90 88 90 94 92 86 90 88 78 82 80 80 84 82 95 99 97 95 99 97 95 99 97 94 98 96 75 79 77 90 94 92 79 83 81 93 97 95 83 87 85 89 93 91 82 86 84 97 101 99 87 91 89 76 80 78 79 83 81 80 84 82 82 86 84 95 99 97 90 94 92 77 81 79 93 97 95 80 84 82 85 89 87 93 97 95 95 99 97 84 88 86 77 81 79 93 97 95 87 91 89 92 96 94 79 83 81 81 85 83 75 79 77 92 96 94 83 87 85 96 100 98 96 100 98 91 95 93 83 87 85 93 97 95 80 84 82 82 86 84 92 96 94 89 93 91 77 81 79 80 84 82 87 91 89 95 99 97 75 79 77 81 85 83 90 94 92 85 89 87 76 80 78 96 100 98 91 95 93 86 90 88 86 90 88 78 82 80 93 97 95 80 84 82 92 96 94 81 85 83 82 86 84 94 98 96 76 80 78 94 98 96 86 90 88 22 26 27 22 26 27 22 26 27 22 26 27 22 26 27 22 26 27 22 26 27 22 26 27 22 26 27 22 26 27 22 26 27 22 26 27 22 26 27 22 26 27 22 26 27 22 26 27 22 26 27 22 26 27 22 26 27 22 26 27 22 26 27 22 26 27 22 26 27 22 26 27 22 26 27 22 26 27 22 26 27 22 26 27 22 26 27 22 26 27 22 26 27 22 26 27 22 26 27 22 26 27 22 26 27 22 26 27 22 26 27 22 26 27 22 26 27 22 26 27 22 26 27 22 26 27 22 26 27 22 26 27 22 26 27 22 26 27 22 26 27 22 26 27 22 26 27
22 26 27 22 26 27 22 26 27 83 87 87 84 88 88 70 74 74 22 26 27 73 77 77 91 95 95 79 83 83 86 90 90 22 26 27 73 77 77 90 94 94 86 90 90 83 87 87 82 82 82 83 83 83 109 91 131 71 71 71 86 86 86 86 86 86 73 73 73 71 71 71 69 69 69 81 81 81 83 83 83 73 73 73 86 86 86 82 82 82 83 83 83 77 77 77 86 86 86 86 86 86 85 85 85 77 77 77 74 74 74 77 77 77 69 69 69 81 81 81 84 84 84 74 74 74 73 73 73 83 83 83 77 77 77 75 75 75 72 72 72 70 70 70 71 71 71 72 72 72 81 81 81 81 81 81 102 92 132 79 79 79 76 76 76 71 71 71 86 86 86 69 69 69 72 72 72 80 80 80 69 69 69 80 80 80 71 71 71 83 83 83 68 68 68 85 85 85 78 78 78 82 82 82 119 90 128 78 78 78 76 76 76 85 85 85 71 71 71 80 80 80 80 80 80 73 73 73 78 78 78 68 68 68 77 77 77 76 76 76 86 86 86 83 83 83 82 82 82 86 86 86 81 81 81 70 70 70 76 76 76 75 75 75 84 84 84 75 75 75 71 71 71 75 75 75 86 86 86 72 72 72 78 78 78 84 84 84 69 69 69 73 73 73 75 75 75 71 71 71 77 77 77 118 90 128 83 83 83 125 89 126 68 68 68 73 73 73 84 84 84 72 72 72 76 76 76 86 86 86 85 85 85 85 85 85 77 77 77 77 77 77 78 78 78 80 80 80 69 69 69 84 84 84 76 76 76 83 83 83 70 70 70 127 89 126 79 79 79 78 78 78 79 79 79 91 95 93 82 86 84 87 91 89 97 101 99 87 91 89 91 95 93 81 85 83 93 97 95 96 100 98 92 96 94 83 87 85 79 83 81 92 96 94 75 79 77 95 99 97 96 100 98 82 86 84 76 80 78 80 84 82 91 95 93 91 95 93 74 78 76 89 93 91 82 86 84 97 101 99 81 85 83 77 81 79 94 98 96 90 94 92 93 97 95 96 100 98 88 92 90 85 89 87 95 99 97 82 86 84 98 102 100 76 80 78 93 97 95 96 100 98 92 96 94 80 84 82 97 101 99 96 100 98 83 87 85 76 80 78 86 90 88 78 82 80 78 82 80 83 87 85 75 79 77 83 87 85 82 86 84 98 102 100 91 95 93 89 93 91 96 100 98 98 102 100 89 93 91 77 81 79 87 91 89 75 79 77 81 85 83 83 87 85 98 102 100 85 89 87 79 83 81 78 82 80 87 91 89 89 93 91 88 92 90 93 97 95 81 85 83 93 97 95 80 84 82 84 88 86 92 96 94 89 93 91 82 86 84 84 88 86 89 93 91 88 92 90 94 98 96 22 26 27 22 26 27 22 26 27 22 26 27 22 26 27 22 26 27 22 26 27 22 26 27 22 26 27 22 26 27 22 26 27 22 26 27 22 26 27 22 26 27 22 26 27 22 26 27 22 26 27 22 26 27 22 26 27 22 26 27 22 26 27 22 26 27 22 26 27 22 26 27 22 26 27 22 26 27 22 26 27 22 26 27 22 26 27 22 26 27 22 26 27 22 26 27 22 26 27 22 26 27 22 26 27 22 26 27 22 26 27 22 26 27 22 26 27 22 26 27 22 26 27 22 26 27 22 26 27 22 26 27 22 26 27 22 26 27 22 26 27 22 26 27 22 26 27
22 26 27 22 26 27 22 26 27 84 88 88 89 93 93 78 82 82 22 26 27 93 97 97 78 82 82 76 80 80 78 82 82 22 26 27 76 80 80 85 89 89 90 94 94 76 80 80 79 79 79 79 79 79 75 75 75 80 80 80 80 80 80 75 75 75 77 77 77 112 98 138 111 98 139 90 90 90 88 88 88 89 89 89 78 78 78 83 83 83 77 77 77 114 97 138 86 86 86 83 83 83 78 78 78 90 90 90 81 81 81 91 91 91 79 79 79 80 80 80 79 79 79 88 88 88 75 75 75 78 78 78 74 74 74 80 80 80 90 90 90 79 79 79 75 75 75 84 84 84 87 87 87 82 82 82 85 85 85 82 82 82 89 89 89 79 79 79 82 82 82 80 80 80 91 91 91 87 87 87 84 84 84 80 80 80 88 88 88 85 85 85 87 87 87 79 79 79 132 95 133 82 82 82 75 75 75 73 73 73 84 84 84 77 77 77 80 80 80 84 84 84 89 89 89 86 86 86 84 84 84 84 84 84 85 85 85 83 83 83 89 89 89 78 78 78 80 80 80 89 89 89 75 75 75 91 91 91 82 82 82 89 89 89 130 95 133 77 77 77 86 86 86 74 74 74 80 80 80 77 77 77 90 90 90 74 74 74 76 76 76 86 86 86 84 84 84 91 91 91 76 76 76 89 89 89 119 97 136 73 73 73 124 96 135 73 73 73 78 78 78 77 77 77 90 90 90 83 83 83 82 82 82 132 95 133 87 87 87 77 77 77 88 88 88 91 91 91 75 75 75 77 77 77 78 78 78 89 89 89 86 86 86 81 81 81 87 87 87 80 80 80 85 85 85 89 93 91 77 81 79 82 86 84 79 83 81 94 98 96 82 86 84 92 96 94 98 102 100 78 82 80 87 91 89 96 100 98 81 85 83 78 82 80 93 97 95 93 97 95 76 80 78 91 95 93 92 96 94 90 94 92 95 99 97 89 93 91 88 92 90 87 91 89 96 100 98 90 94 92 79 83 81 87 91 89 77 81 79 86 90 88 77 81 79 89 93 91 95 99 97 80 84 82 93 97 95 85 89 87 89 93 91 80 84 82 75 79 77 86 90 88 86 90 88 82 86 84 97 101 99 90 94 92 85 89 87 96 100 98 92 96 94 80 84 82 77 81 79 90 94 92 82 86 84 76 80 78 75 79 77 92 96 94 88 92 90 79 83 81 82 86 84 86 90 88 89 93 91 78 82 80 96 100 98 76 80 78 83 87 85 96 100 98 79 83 81 96 100 98 77 81 79 82 86 84 94 98 96 90 94 92 93 97 95 93 97 95 92 96 94 78 82 80 94 98 96 88 92 90 77 81 79 98 102 100 78 82 80 83 87 85 90 94 92 82 86 84 83 87 85 22 26 27 22 26 27 22 26 27 22 26 27 22 26 27 22 26 27 22 26 27 22 26 27 22 26 27 22 26 27 22 26 27 22 26 27 22 26 27 22 26 27 22 26 27 22 26 27 22 26 27 22 26 27 22 26 27 22 26 27 22 26 27 22 26 27 22 26 27 22 26 27 22 26 27 22 26 27 22 26 27 22 26 27 22 26 27 22 26 27 22 26 27 22 26 27 22 26 27 22 26 27 22 26 27 22 26 27 22 26 27 22 26 27 22 26 27 22 26 27 22 26 27 22 26 27 22 26 27 22 26 27 22 26 27 22 26 27 22 26 27 22 26 27 22 26 27
22 26 27 22 26 27 22 26 27 86 90 90 90 94 94 70 74 74 22 26 27 86 90 90 71 75 75 71 75 75 82 86 86 22 26 27 89 93 93 81 85 85 86 90 90 69 73 73 84 84 84 91 91 91 89 89 89 93 93 93 91 91 91 92 92 92 79 79 79 92 92 92 92 92 92 92 92 92 90 90 90 90 90 90 81 81 81 92 92 92 91 91 91 92 92 92 90 90 90 84 84 84 85 85 85 90 90 90 91 91 91 90 90 90 92 92 92 123 103 144 91 91 91 124 103 144 79 79 79 87 87 87 91 91 91 92 92 92 85 85 85 92 92 92 92 92 92 89 89 89 90 90 90 82 82 82 92 92 92 88 88 88 79 79 79 92 92 92 89 89 89 86 86 86 92 92 92 88 88 88 87 87 87 86 86 86 136 102 141 80 80 80 91 91 91 88 88 88 88 88 88 84 84 84 84 84 84 128 103 143 90 90 90 90 90 90 86 86 86 83 83 83 90 90 90 86 86 86 91 91 91 85 85 85 78 78 78 79 79 79 88 88 88 83 83 83 92 92 92 82 82 82 90 90 90 91 91 91 79 79 79 82 82 82 129 103 142 89 89 89 130 102 142 91 91 91 88 88 88 92 92 92 92 92 92 81 81 81 116 104 146 92 92 92 84 84 84 92 92 92 79 79 79 91 91 91 92 92 92 79 79 79 80 80 80 92 92 92 93 93 93 91 91 91 90 90 90 82 82 82 85 85 85 93 93 93 92 92 92 92 92 92 86 86 86 88 88 88 88 88 88 81 81 81 92 92 92 92 92 92 92 92 92 92 92 92 92 92 92 92 92 92 85 85 85 81 85 83 79 83 81 97 101 99 79 83 81 79 83 81 87 91 89 97 101 99 89 93 91 75 79 77 87 91 89 94 98 96 96 100 98 87 91 89 90 94 92 87 91 89 92 96 94 88 92 90 83 87 85 88 92 90 80 84 82 95 99 97 87 91 89 90 94 92 88 92 90 91 95 93 81 85 83 94 98 96 90 94 92 77 81 79 78 82 80 92 96 94 92 96 94 83 87 85 90 94 92 96 100 98 75 79 77 91 95 93 83 87 85 76 80 78 93 97 95 74 78 76 89 93 91 97 101 99 96 100 98 76 80 78 82 86 84 76 80 78 96 100 98 96 100 98 85 89 87 84 88 86 93 97 95 96 100 98 93 97 95 87 91 89 97 101 99 89 93 91 87 91 89 83 87 85 89 93 91 96 100 98 95 99 97 98 102 100 97 101 99 93 97 95 78 82 80 92 96 94 88 92 90 92 96 94 90 94 92 92 96 94 88 92 90 95 99 97 81 85 83 77 81 79 94 98 96 87 91 89 81 85 83 83 87 85 84 88 86 95 99 97 93 97 95 22 26 27 22 26 27 22 26 27 22 26 27 22 26 27 22 26 27 22 26 27 22 26 27 22 26 27 22 26 27 22 26 27 22 26 27 22 26 27 22 26 27 22 26 27 22 26 27 22 26 27 22 26 27 22 26 27 22 26 27 22 26 27 22 26 27 22 26 27 22 26 27 22 26 27 22 26 27 22 26 27 22 26 27 22 26 27 22 26 27 22 26 27 22 26 27 22 26 27 22 26 27 22 26 27 22 26 27 22 26 27 22 26 27 22 26 27 22 26 27 22 26 27 22 26 27 22 26 27 22 26 27 22 26 27 22 26 27 22 26 27 22 26 27 22 26 27
22 26 27 22 26 27 22 26 27 89 93 93 89 93 93 87 91 91 22 26 27 74 78 78 92 96 96 82 86 86 71 75 75 22 26 27 82 86 86 92 96 96 74 78 78 82 86 86 83 83 83 91 91 91 88 88 88 84 84 84 91 91 91 91 91 91 93 93 93 86 86 86 85 85 85 92 92 92 93 93 93 84 84 84 82 82 82 93 93 93 93 93 93 89 89 89 83 83 83 93 93 93 91 91 91 92 92 92 86 86 86 88 88 88 92 92 92 91 91 91 90 90 90 91 91 91 82 82 82 93 93 93 94 94 94 88 88 88 92 92 92 83 83 83 86 86 86 84 84 84 93 93 93 93 93 93 90 90 90 91 91 91 92 92 92 91 91 91 90 90 90 91 91 91 92 92 92 88 88 88 82 82 82 93 93 93 93 93 93 93 93 93 91 91 91 83 83 83 91 91 91 93 93 93 90 90 90 90 90 90 93 93 93 92 92 92 86 86 86 84 84 84 93 93 93 92 92 92 82 82 82 91 91 91 89 89 89 88 88 88 94 94 94 84 84 84 92 92 92 91 91 91 92 92 92 92 92 92 85 85 85 140 107 146 90 90 90 84 84 84 86 86 86 88 88 88 92 92 92 92 92 92 87 87 87 92 92 92 92 92 92 93 93 93 83 83 83 92 92 92 85 85 85 94 94 94 91 91 91 126 108 150 92 92 92 84 84 84 86 86 86 90 90 90 84 84 84 92 92 92 89 89 89 82 82 82 88 88 88 85 85 85 93 93 93 82 82 82 94 94 94 92 92 92 91 91 91 89 89 89 93 93 93 92 92 92 133 108 148 92 92 92 85 85 85 83 87 85 77 81 79 84 88 86 98 102 100 88 92 90 97 101 99 81 85 83 90 94 92 91 95 93 88 92 90 94 98 96 80 84 82 98 102 100 92 96 94 96 100 98 79 83 81 96 100 98 97 101 99 87 91 89 93 97 95 97 101 99 85 89 87 96 100 98 93 97 95 80 84 82 97 101 99 90 94 92 76 80 78 90 94 92 88 92 90 88 92 90 97 101 99 93 97 95 93 97 95 80 84 82 95 99 97 97 101 99 83 87 85 74 78 76 92 96 94 96 100 98 84 88 86 93 97 95 83 87 85 77 81 79 94 98 96 97 101 99 82 86 84 78 82 80 77 81 79 82 86 84 87 91 89 97 101 99 83 87 85 86 90 88 85 89 87 88 92 90 93 97 95 94 98 96 86 90 88 83 87 85 92 96 94 80 84 82 89 93 91 95 99 97 93 97 95 93 97 95 97 101 99 79 83 81 95 99 97 85 89 87 90 94 92 85 89 87 89 93 91 86 90 88 86 90 88 86 90 88 81 85 83 87 91 89 95 99 97 87 91 89 79 83 81 22 26 27 22 26 27 22 26 27 22 26 27 22 26 27 22 26 27 22 26 27 22 26 27 22 26 27 22 26 27 22 26 27 22 26 27 22 26 27 22 26 27 22 26 27 22 26 27 22 26 27 22 26 27 22 26 27 22 26 27 22 26 27 22 26 27 22 26 27 22 26 27 22 26 27 22 26 27 22 26 27 22 26 27 22 26 27 22 26 27 22 26 27 22 26 27 22 26 27 22 26 27 22 26 27 22 26 27 22 26 27 22 26 27 22 26 27 22 26 27 22 26 27 22 26 27 22 26 27 22 26 27 22 26 27 22 26 27 22 26 27 22 26 27 22 26 27
22 26 27 22 26 27 22 26 27 78 82 82 87 91 91 76 80 80 22 26 27 88 92 92 82 86 86 77 81 81 80 84 84 22 26 27 86 90 90 92 96 96 78 82 82 72 76 76 93 93 93 91 91 91 94 94 94 85 85 85 94 94 94 91 91 91 87 87 87 89 89 89 90 90 90 93 93 93 93 93 93 88 88 88 85 85 85 87 87 87 93 93 93 89 89 89 85 85 85 89 89 89 94 94 94 90 90 90 89 89 89 87 87 87 85 85 85 92 92 92 88 88 88 91 91 91 93 93 93 94 94 94 84 84 84 92 92 92 84 84 84 91 91 91 93 93 93 127 111 153 94 94 94 90 90 90 86 86 86 86 86 86 93 93 93 90 90 90 89 89 89 92 92 92 92 92 92 83 83 83 92 92 92 89 89 89 88 88 88 135 110 151 94 94 94 85 85 85 92 92 92 94 94 94 93 93 93 88 88 88 93 93 93 93 93 93 92 92 92 89 89 89 88 88 88 85 85 85 91 91 91 93 93 93 93 93 93 93 93 93 91 91 91 85 85 85 91 91 91 143 109 148 93 93 93 93 93 93 91 91 91 91 91 91 84 84 84 84 84 84 90 90 90 91 91 91 94 94 94 94 94 94 86 86 86 91 91 91 92 92 92 93 93 93 94 94 94 89 89 89 146 108 147 93 93 93 94 94 94 91 91 91 86 86 86 91 91 91 91 91 91 92 92 92 93 93 93 92 92 92 83 83 83 91 91 91 90 90 90 94 94 94 91 91 91 85 85 85 87 87 87 140 109 149 94 94 94 85 85 85 90 90 90 93 93 93 92 92 92 90 90 90 89 89 89 81 85 83 92 96 94 79 83 81 84 88 86 95 99 97 75 79 77 91 95 93 94 98 96 93 97 95 79 83 81 89 93 91 82 86 84 84 88 86 83 87 85 95 99 97 94 98 96 85 89 87 90 94 92 97 101 99 89 93 91 97 101 99 92 96 94 93 97 95 79 83 81 95 99 97 86 90 88 85 89 87 88 92 90 86 90 88 88 92 90 76 80 78 88 92 90 83 87 85 82 86 84 95 99 97 84 88 86 82 86 84 78 82 80 77 81 79 75 79 77 75 79 77 74 78 76 81 85 83 78 82 80 93 97 95 74 78 76 81 85 83 81 85 83 98 102 100 91 95 93 77 81 79 88 92 90 79 83 81 97 101 99 84 88 86 77 81 79 91 95 93 89 93 91 77 81 79 91 95 93 92 96 94 87 91 89 90 94 92 94 98 96 76 80 78 91 95 93 88 92 90 88 92 90 93 97 95 97 101 99 87 91 89 88 92 90 81 85 83 92 96 94 95 99 97 82 86 84 75 79 77 81 85 83 97 101 99 91 95 93 82 86 84 84 88 86 22 26 27 22 26 27 22 26 27 22 26 27 22 26 27 22 26 27 22 26 27 22 26 27 22 26 27 22 26 27 22 26 27 22 26 27 22 26 27 22 26 27 22 26 27 22 26 27 22 26 27 22 26 27 22 26 27 22 26 27 22 26 27 22 26 27 22 26 27 22 26 27 22 26 27 22 26 27 22 26 27 22 26 27 22 26 27 22 26 27 22 26 27 22 26 27 22 26 27 22 26 27 22 26 27 22 26 27 22 26 27 22 26 27 22 26 27 22 26 27 22 26 27 22 26 27 22 26 27 22 26 27 22 26 27 22 26 27 22 26 27 22 26 27 22 26 27
22 26 27 22 26 27 22 26 27 69 73 73 92 96 96 93 97 97 22 26 27 88 92 92 80 84 84 92 96 96 76 80 80 22 26 27 74 78 78 72 76 76 86 90 90 79 83 83 131 109 150 90 90 90 85 85 85 94 94 94 130 109 150 87 87 87 92 92 92 93 93 93 84 84 84 94 94 94 85 85 85 92 92 92 93 93 93 93 93 93 93 93 93 93 93 93 92 92 92 93 93 93 94 94 94 92 92 92 92 92 92 93 93 93 90 90 90 91 91 91 94 94 94 94 94 94 93 93 93 141 107 147 92 92 92 93 93 93 89 89 89 92 92 92 93 93 93 85 85 85 94 94 94 92 92 92 89 89 89 92 92 92 94 94 94 144 107 146 88 88 88 90 90 90 93 93 93 93 93 93 141 107 147 139 107 147 94 94 94 84 84 84 94 94 94 84 84 84 145 107 146 93 93 93 92 92 92 92 92 92 93 93 93 93 93 93 90 90 90 89 89 89 94 94 94 91 91 91 92 92 92 93 93 93 92 92 92 93 93 93 88 88 88 86 86 86 92 92 92 94 94 94 92 92 92 91 91 91 93 93 93 84 84 84 83 83 83 128 109 150 93 93 93 91 91 91 82 82 82 87 87 87 90 90 90 93 93 93 92 92 92 85 85 85 86 86 86 89 89 89 93 93 93 88 88 88 83 83 83 94 94 94 85 85 85 91 91 91 93 93 93 94 94 94 93 93 93 91 91 91 93 93 93 89 89 89 91 91 91 125 109 151 92 92 92 84 84 84 91 91 91 86 86 86 93 93 93 93 93 93 93 93 93 88 88 88 92 92 92 85 85 85 94 94 94 75 79 77 83 87 85 91 95 93 79 83 81 86 90 88 79 83 81 74 78 76 78 82 80 87 91 89 91 95 93 90 94 92 88 92 90 89 93 91 89 93 91 89 93 91 78 82 80 89 93 91 90 94 92 92 96 94 85 89 87 92 96 94 76 80 78 96 100 98 86 90 88 88 92 90 74 78 76 86 90 88 90 94 92 96 100 98 93 97 95 93 97 95 81 85 83 83 87 85 83 87 85 84 88 86 87 91 89 94 98 96 96 100 98 90 94 92 93 97 95 78 82 80 76 80 78 87 91 89 96 100 98 77 81 79 87 91 89 82 86 84 80 84 82 82 86 84 80 84 82 94 98 96 83 87 85 79 83 81 78 82 80 80 84 82 81 85 83 77 81 79 84 88 86 80 84 82 82 86 84 78 82 80 87 91 89 77 81 79 97 101 99 84 88 86 93 97 95 97 101 99 93 97 95 75 79 77 79 83 81 87 91 89 92 96 94 81 85 83 85 89 87 86 90 88 82 86 84 97 101 99 75 79 77 93 97 95 90 94 92 92 96 94 78 82 80 22 26 27 22 26 27 22 26 27 22 26 27 22 26 27 22 26 27 22 26 27 22 26 27 22 26 27 22 26 27 22 26 27 22 26 27 22 26 27 22 26 27 22 26 27 22 26 27 22 26 27 22 26 27 22 26 27 22 26 27 22 26 27 22 26 27 22 26 27 22 26 27 22 26 27 22 26 27 22 26 27 22 26 27 22 26 27 22 26 27 22 26 27 22 26 27 22 26 27 22 26 27 22 26 27 22 26 27 22 26 27 22 26 27 22 26 27 22 26 27 22 26 27 22 26 27 22 26 27 22 26 27 22 26 27 22 26 27 22 26 27 22 26 27 22 26 27
22 26 27 22 26 27 22 26 27 88 92 92 81 85 85 90 94 94 22 26 27 85 89 89 73 77 77 81 85 85 75 79 79 22 26 27 69 73 73 84 88 88 85 89 89 75 79 79 137 103 142 83 83 83 80 80 80 93 93 93 91 91 91 79 79 79 90 90 90 80 80 80 91 91 91 93 93 93 93 93 93 86 86 86 91 91 91 80 80 80 88 88 88 92 92 92 84 84 84 90 90 90 82 82 82 82 82 82 92 92 92 91 91 91 90 90 90 90 90 90 85 85 85 92 92 92 89 89 89 93 93 93 93 93 93 90 90 90 92 92 92 83 83 83 91 91 91 83 83 83 90 90 90 79 79 79 92 92 92 81 81 81 92 92 92 83 83 83 88 88 88 86 86 86 82 82 82 79 79 79 93 93 93 89 89 89 131 103 143 84 84 84 88 88 88 92 92 92 89 89 89 93 93 93 85 85 85 84 84 84 82 82 82 90 90 90 91 91 91 127 104 145 91 91 91 133 103 143 91 91 91 82 82 82 80 80 80 88 88 88 90 90 90 90 90 90 91 91 91 92 92 92 85 85 85 89 89 89 92 92 92 90 90 90 79 79 79 92 92 92 140 102 141 92 92 92 83 83 83 80 80 80 93 93 93 91 91 91 85 85 85 91 91 91 126 104 145 92 92 92 79 79 79 88 88 88 125 104 145 93 93 93 86 86 86 82 82 82 90 90 90 92 92 92 87 87 87 91 91 91 91 91 91 84 84 84 93 93 93 90 90 90 86 86 86 85 85 85 83 83 83 91 91 91 93 93 93 87 87 87 92 92 92 86 86 86 85 85 85 87 87 87 81 81 81 97 101 99 91 95 93 76 80 78 90 94 92 89 93 91 94 98 96 89 93 91 79 83 81 95 99 97 82 86 84 81 85 83 88 92 90 83 87 85 84 88 86 93 97 95 87 91 89 90 94 92 88 92 90 78 82 80 88 92 90 74 78 76 79 83 81 85 89 87 86 90 88 96 100 98 86 90 88 98 102 100 97 101 99 87 91 89 88 92 90 96 100 98 86 90 88 96 100 98 83 87 85 76 80 78 81 85 83 91 95 93 91 95 93 86 90 88 79 83 81 75 79 77 91 95 93 76 80 78 76 80 78 74 78 76 92 96 94 97 101 99 95 99 97 82 86 84 83 87 85 98 102 100 86 90 88 76 80 78 93 97 95 88 92 90 77 81 79 81 85 83 86 90 88 94 98 96 96 100 98 94 98 96 85 89 87 76 80 78 80 84 82 82 86 84 76 80 78 78 82 80 75 79 77 80 84 82 77 81 79 75 79 77 92 96 94 96 100 98 92 96 94 79 83 81 82 86 84 77 81 79 96 100 98 94 98 96 83 87 85 92 96 94 86 90 88 22 26 27 22 26 27 22 26 27 22 26 27 22 26 27 22 26 27 22 26 27 22 26 27 22 26 27 22 26 27 22 26 27 22 26 27 22 26 27 22 26 27 22 26 27 22 26 27 22 26 27 22 26 27 22 26 27 22 26 27 22 26 27 22 26 27 22 26 27 22 26 27 22 26 27 22 26 27 22 26 27 22 26 27 22 26 27 22 26 27 22 26 27 22 26 27 22 26 27 22 26 27 22 26 27 22 26 27 22 26 27 22 26 27 22 26 27 22 26 27 22 26 27 22 26 27 22 26 27 22 26 27 22 26 27 22 26 27 22 26 27 22 26 27 22 26 27
22 26 27 22 26 27 22 26 27 85 89 89 83 87 87 85 89 89 22 26 27 88 92 92 87 91 91 93 97 97 84 88 88 22 26 27 71 75 75 69 73 73 83 87 87 71 75 75 91 91 91 74 74 74 89 89 89 90 90 90 90 90 90 88 88 88 80 80 80 88 88 88 86 86 86 77 77 77 75 75 75 79 79 79 82 82 82 83 83 83 84 84 84 90 90 90 91 91 91 82 82 82 84 84 84 77 77 77 80 80 80 89 89 89 91 91 91 76 76 76 74 74 74 90 90 90 79 79 79 82 82 82 85 85 85 90 90 90 113 99 140 88 88 88 79 79 79 118 98 138 88 88 88 91 91 91 81 81 81 86 86 86 81 81 81 91 91 91 83 83 83 79 79 79 89 89 89 80 80 80 88 88 88 82 82 82 90 90 90 89 89 89 91 91 91 89 89 89 88 88 88 91 91 91 83 83 83 91 91 91 80 80 80 117 98 139 80 80 80 90 90 90 116 99 139 84 84 84 90 90 90 91 91 91 85 85 85 82 82 82 91 91 91 75 75 75 91 91 91 79 79 79 86 86 86 76 76 76 81 81 81 121 98 138 91 91 91 90 90 90 90 90 90 91 91 91 88 88 88 87 87 87 91 91 91 123 98 137 89 89 89 80 80 80 85 85 85 87 87 87 80 80 80 89 89 89 79 79 79 84 84 84 80 80 80 76 76 76 91 91 91 77 77 77 91 91 91 83 83 83 86 86 86 74 74 74 85 85 85 83 83 83 90 90 90 90 90 90 90 90 90 91 91 91 112 99 140 87 87 87 86 86 86 82 82 82 82 82 82 86 86 86 84 84 84 95 99 97 84 88 86 82 86 84 80 84 82 83 87 85 90 94 92 77 81 79 85 89 87 91 95 93 77 81 79 90 94 92 83 87 85 96 100 98 77 81 79 97 101 99 87 91 89 88 92 90 89 93 91 96 100 98 85 89 87 75 79 77 79 83 81 94 98 96 80 84 82 86 90 88 79 83 81 85 89 87 84 88 86 87 91 89 94 98 96 83 87 85 87 91 89 97 101 99 91 95 93 89 93 91 91 95 93 96 100 98 74 78 76 97 101 99 90 94 92 84 88 86 76 80 78 89 93 91 95 99 97 79 83 81 81 85 83 95 99 97 76 80 78 85 89 87 87 91 89 97 101 99 83 87 85 75 79 77 82 86 84 85 89 87 93 97 95 85 89 87 79 83 81 94 98 96 92 96 94 86 90 88 94 98 96 85 89 87 78 82 80 75 79 77 84 88 86 85 89 87 80 84 82 76 80 78 80 84 82 98 102 100 86 90 88 95 99 97 76 80 78 81 85 83 91 95 93 95 99 97 84 88 86 86 90 88 81 85 83 81 85 83 95 99 97 22 26 27 22 26 27 22 26 27 22 26 27 22 26 27 22 26 27 22 26 27 22 26 27 22 26 27 22 26 27 22 26 27 22 26 27 22 26 27 22 26 27 22 26 27 22 26 27 22 26 27 22 26 27 22 26 27 22 26 27 22 26 27 22 26 27 22 26 27 22 26 27 22 26 27 22 26 27 22 26 27 22 26 27 22 26 27 22 26 27 22 26 27 22 26 27 22 26 27 22 26 27 22 26 27 22 26 27 22 26 27 22 26 27 22 26 27 22 26 27 22 26 27 22 26 27 22 26 27 22 26 27 22 26 27 22 26 27 22 26 27 22 26 27 22 26 27
22 26 27 22 26 27 22 26 27 89 93 93 86 90 90 74 78 78 22 26 27 74 78 78 92 96 96 75 79 79 92 96 96 22 26 27 69 73 73 93 97 97 85 89 89 84 88 88 82 82 82 70 70 70 75 75 75 79 79 79 81 81 81 87 87 87 74 74 74 84 84 84 85 85 85 82 82 82 85 85 85 87 87 87 74 74 74 80 80 80 85 85 85 72 72 72 76 76 76 75 75 75 85 85 85 84 84 84 82 82 82 72 72 72 130 90 126 82 82 82 80 80 80 74 74 74 73 73 73 82 82 82 82 82 82 72 72 72 77 77 77 82 82 82 129 90 127 77 77 77 82 82 82 80 80 80 83 83 83 84 84 84 80 80 80 76 76 76 74 74 74 84 84 84 73 73 73 71 71 71 85 85 85 75 75 75 78 78 78 73 73 73 85 85 85 80 80 80 71 71 71 71 71 71 73 73 73 83 83 83 75 75 75 72 72 72 72 72 72 70 70 70 72 72 72 78 78 78 77 77 77 74 74 74 79 79 79 73 73 73 84 84 84 70 70 70 86 86 86 80 80 80 81 81 81 74 74 74 73 73 73 82 82 82 71 71 71 80 80 80 75 75 75 82 82 82 123 91 128 79 79 79 71 71 71 75 75 75 73 73 73 83 83 83 82 82 82 69 69 69 72 72 72 83 83 83 104 93 133 75 75 75 80 80 80 86 86 86 80 80 80 83 83 83 80 80 80 83 83 83 84 84 84 78 78 78 78 78 78 86 86 86 71 71 71 73 73 73 70 70 70 108 92 132 74 74 74 86 86 86 80 80 80 86 86 86 82 82 82 85 85 85 69 69 69 78 82 80 93 97 95 76 80 78 78 82 80 88 92 90 92 96 94 79 83 81 74 78 76 90 94 92 78 82 80 93 97 95 82 86 84 84 88 86 86 90 88 90 94 92 83 87 85 85 89 87 93 97 95 83 87 85 87 91 89 97 101 99 92 96 94 84 88 86 93 97 95 94 98 96 75 79 77 91 95 93 90 94 92 97 101 99 82 86 84 94 98 96 96 100 98 94 98 96 81 85 83 74 78 76 77 81 79 95 99 97 83 87 85 78 82 80 80 84 82 94 98 96 76 80 78 79 83 81 90 94 92 84 88 86 83 87 85 97 101 99 97 101 99 98 102 100 84 88 86 75 79 77 86 90 88 96 100 98 97 101 99 81 85 83 80 84 82 88 92 90 86 90 88 83 87 85 77 81 79 94 98 96 85 89 87 91 95 93 95 99 97 90 94 92 76 80 78 86 90 88 86 90 88 96 100 98 80 84 82 83 87 85 81 85 83 93 97 95 93 97 95 95 99 97 86 90 88 76 80 78 86 90 88 90 94 92 86 90 88 81 85 83 90 94 92 22 26 27 22 26 27 22 26 27 22 26 27 22 26 27 22 26 27 22 26 27 22 26 27 22 26 27 22 26 27 22 26 27 22 26 27 22 26 27 22 26 27 22 26 27 22 26 27 22 26 27 22 26 27 22 26 27 22 26 27 22 26 27 22 26 27 22 26 27 22 26 27 22 26 27 22 26 27 22 26 27 22 26 27 22 26 27 22 26 27 22 26 27 22 26 27 22 26 27 22 26 27 22 26 27 22 26 27 22 26 27 22 26 27 22 26 27 22 26 27 22 26 27 22 26 27 22 26 27 22 26 27 22 26 27 22 26 27 22 26 27 22 26 27 22 26 27
22 26 27 22 26 27 22 26 27 79 83 83 72 76 76 76 80 80 22 26 27 84 88 88 75 79 79 81 85 85 91 95 95 22 26 27 80 84 84 74 78 78 85 89 89 81 85 85 83 83 83 80 80 80 74 74 74 74 74 74 82 82 82 76 76 76 82 82 82 73 73 73 78 78 78 77 77 77 75 75 75 83 83 83 123 85 121 83 83 83 77 77 77 80 80 80 77 77 77 75 75 75 74 74 74 74 74 74 79 79 79 83 83 83 67 67 67 77 77 77 69 69 69 69 69 69 78 78 78 65 65 65 66 66 66 77 77 77 80 80 80 74 74 74 70 70 70 118 85 122 78 78 78 78 78 78 82 82 82 78 78 78 75 75 75 74 74 74 78 78 78 78 78 78 78 78 78 83 83 83 76 76 76 77 77 77 79 79 79 83 83 83 67 67 67 78 78 78 79 79 79 69 69 69 72 72 72 80 80 80 124 85 121 78 78 78 79 79 79 69 69 69 74 74 74 70 70 70 73 73 73 70 70 70 66 66 66 74 74 74 83 83 83 76 76 76 75 75 75 69 69 69 109 87 125 69 69 69 67 67 67 79 79 79 72 72 72 83 83 83 80 80 80 69 69 69 111 86 124 65 65 65 67 67 67 124 85 121 66 66 66 105 87 126 78 78 78 67 67 67 125 85 121 74 74 74 83 83 83 83 83 83 73 73 73 80 80 80 73 73 73 80 80 80 77 77 77 77 77 77 77 77 77 83 83 83 67 67 67 69 69 69 79 79 79 81 81 81 84 84 84 80 80 80 66 66 66 77 77 77 66 66 66 72 72 72 82 82 82 73 73 73 74 74 74 86 90 88 91 95 93 87 91 89 80 84 82 91 95 93 93 97 95 97 101 99 93 97 95 80 84 82 94 98 96 80 84 82 84 88 86 74 78 76 93 97 95 90 94 92 76 80 78 86 90 88 96 100 98 79 83 81 76 80 78 87 91 89 95 99 97 83 87 85 93 97 95 94 98 96 86 90 88 77 81 79 90 94 92 85 89 87 81 85 83 94 98 96 77 81 79 91 95 93 90 94 92 84 88 86 76 80 78 84 88 86 81 85 83 94 98 96 90 94 92 90 94 92 97 101 99 80 84 82 94 98 96 89 93 91 76 80 78 96 100 98 96 100 98 96 100 98 96 100 98 87 91 89 77 81 79 89 93 91 78 82 80 97 101 99 87 91 89 82 86 84 82 86 84 88 92 90 80 84 82 76 80 78 91 95 93 75 79 77 82 86 84 93 97 95 95 99 97 95 99 97 92 96 94 83 87 85 80 84 82 75 79 77 77 81 79 91 95 93 74 78 76 74 78 76 89 93 91 97 101 99 94 98 96 87 91 89 82 86 84 75 79 77 88 92 90 22 26 27 22 26 27 22 26 27 22 26 27 22 26 27 22 26 27 22 26 27 22 26 27 22 26 27 22 26 27 22 26 27 22 26 27 22 26 27 22 26 27 22 26 27 22 26 27 22 26 27 22 26 27 22 26 27 22 26 27 22 26 27 22 26 27 22 26 27 22 26 27 22 26 27 22 26 27 22 26 27 22 26 27 22 26 27 22 26 27 22 26 27 22 26 27 22 26 27 22 26 27 22 26 27 22 26 27 22 26 27 22 26 27 22 26 27 22 26 27 22 26 27 22 26 27 22 26 27 22 26 27 22 26 27 22 26 27 22 26 27 22 26 27 22 26 27
22 26 27 22 26 27 22 26 27 76 80 80 71 75 75 87 91 91 22 26 27 86 90 90 89 93 93 86 90 90 78 82 82 22 26 27 75 79 79 69 73 73 82 86 86 83 87 87 67 67 67 77 77 77 71 71 71 79 79 79 72 72 72 75 75 75 72 72 72 69 69 69 123 81 116 73 73 73 66 66 66 66 66 66 74 74 74 79 79 79 71 71 71 77 77 77 81 81 81 64 64 64 71 71 71 71 71 71 78 78 78 66 66 66 69 69 69 63 63 63 66 66 66 77 77 77 122 81 116 65 65 65 75 75 75 71 71 71 80 80 80 79 79 79 79 79 79 78 78 78 80 80 80 64 64 64 79 79 79 63 63 63 76 76 76 77 77 77 68 68 68 79 79 79 77 77 77 97 84 123 64 64 64 100 84 122 74 74 74 72 72 72 70 70 70 74 74 74 65 65 65 71 71 71 72 72 72 70 70 70 73 73 73 71 71 71 77 77 77 75 75 75 67 67 67 68 68 68 77 77 77 80 80 80 77 77 77 66 66 66 74 74 74 74 74 74 67 67 67 66 66 66 72 72 72 112 82 119 80 80 80 80 80 80 79 79 79 77 77 77 81 81 81 76 76 76 68 68 68 73 73 73 63 63 63 78 78 78 78 78 78 78 78 78 78 78 78 78 78 78 81 81 81 77 77 77 72 72 72 67 67 67 63 63 63 80 80 80 80 80 80 75 75 75 65 65 65 77 77 77 74 74 74 80 80 80 78 78 78 80 80 80 78 78 78 78 78 78 71 71 71 65 65 65 63 63 63 75 75 75 80 80 80 78 78 78 108 83 120 79 79 79 109 83 120 83 87 85 93 97 95 95 99 97 81 85 83 78 82 80 81 85 83 87 91 89 89 93 91 87 91 89 85 89 87 81 85 83 91 95 93 83 87 85 87 91 89 96 100 98 96 100 98 87 91 89 77 81 79 85 89 87 78 82 80 97 101 99 88 92 90 77 81 79 90 94 92 98 102 100 96 100 98 79 83 81 86 90 88 88 92 90 82 86 84 83 87 85 95 99 97 79 83 81 74 78 76 79 83 81 94 98 96 84 88 86 91 95 93 86 90 88 78 82 80 94 98 96 77 81 79 84 88 86 90 94 92 85 89 87 75 79 77 82 86 84 77 81 79 86 90 88 77 81 79 94 98 96 78 82 80 91 95 93 93 97 95 91 95 93 92 96 94 87 91 89 96 100 98 88 92 90 95 99 97 82 86 84 96 100 98 80 84 82 83 87 85 83 87 85 80 84 82 90 94 92 97 101 99 83 87 85 83 87 85 97 101 99 78 82 80 84 88 86 76 80 78 98 102 100 78 82 80 77 81 79 81 85 83 92 96 94 89 93 91 97 101 99 91 95 93 22 26 27 22 26 27 22 26 27 22 26 27 22 26 27 22 26 27 22 26 27 22 26 27 22 26 27 22 26 27 22 26 27 22 26 27 22 26 27 22 26 27 22 26 27 22 26 27 22 26 27 22 26 27 22 26 27 22 26 27 22 26 27 22 26 27 22 26 27 22 26 27 22 26 27 22 26 27 22 26 27 22 26 27 22 26 27 22 26 27 22 26 27 22 26 27 22 26 27 22 26 27 22 26 27 22 26 27 22 26 27 22 26 27 22 26 27 22 26 27 22 26 27 22 26 27 22 26 27 22 26 27 22 26 27 22 26 27 22 26 27 22 26 27 22 26 27
22 26 27 22 26 27 22 26 27 90 94 94 85 89 89 85 89 89 22 26 27 72 76 76 92 96 96 90 94 94 82 86 86 22 26 27 74 78 78 80 84 84 73 77 77 72 76 76 74 74 74 66 66 66 77 77 77 65 65 65 73 73 73 74 74 74 63 63 63 72 72 72 79 79 79 66 66 66 66 66 66 64 64 64 77 77 77 67 67 67 73 73 73 66 66 66 75 75 75 76 76 76 79 79 79 78 78 78 74 74 74 105 81 118 75 75 75 74 74 74 62 62 62 67 67 67 68 68 68 74 74 74 62 62 62 75 75 75 75 75 75 79 79 79 68 68 68 73 73 73 62 62 62 73 73 73 72 72 72 102 81 119 62 62 62 75 75 75 78 78 78 63 63 63 72 72 72 75 75 75 74 74 74 62 62 62 63 63 63 62 62 62 75 75 75 79 79 79 73 73 73 76 76 76 77 77 77 74 74 74 70 70 70 62 62 62 63 63 63 74 74 74 77 77 77 72 72 72 75 75 75 72 72 72 78 78 78 77 77 77 70 70 70 79 79 79 106 81 118 78 78 78 62 62 62 67 67 67 63 63 63 68 68 68 68 68 68 79 79 79 69 69 69 75 75 75 78 78 78 61 61 61 75 75 75 71 71 71 62 62 62 75 75 75 63 63 63 68 68 68 67 67 67 75 75 75 77 77 77 71 71 71 74 74 74 73 73 73 67 67 67 105 81 118 69 69 69 74 74 74 63 63 63 62 62 62 63 63 63 68 68 68 74 74 74 75 75 75 73 73 73 66 66 66 71 71 71 79 79 79 61 61 61 70 70 70 79 79 79 74 74 74 99 82 120 88 92 90 87 91 89 87 91 89 97 101 99 94 98 96 93 97 95 80 84 82 90 94 92 87 91 89 90 94 92 81 85 83 97 101 99 78 82 80 77 81 79 79 83 81 80 84 82 80 84 82 76 80 78 79 83 81 81 85 83 78 82 80 88 92 90 88 92 90 96 100 98 83 87 85 88 92 90 96 100 98 94 98 96 81 85 83 89 93 91 81 85 83 94 98 96 89 93 91 77 81 79 85 89 87 96 100 98 95 99 97 84 88 86 79 83 81 76 80 78 86 90 88 91 95 93 79 83 81 75 79 77 88 92 90 94 98 96 90 94 92 78 82 80 78 82 80 96 100 98 92 96 94 74 78 76 87 91 89 89 93 91 86 90 88 89 93 91 78 82 80 87 91 89 78 82 80 83 87 85 86 90 88 75 79 77 77 81 79 89 93 91 82 86 84 89 93 91 95 99 97 95 99 97 91 95 93 81 85 83 86 90 88 77 81 79 76 80 78 86 90 88 83 87 85 75 79 77 76 80 78 79 83 81 78 82 80 84 88 86 91 95 93 89 93 91 22 26 27 22 26 27 22 26 27 22 26 27 22 26 27 22 26 27 22 26 27 22 26 27 22 26 27 22 26 27 22 26 27 22 26 27 22 26 27 22 26 27 22 26 27 22 26 27 22 26 27 22 26 27 22 26 27 22 26 27 22 26 27 22 26 27 22 26 27 22 26 27 22 26 27 22 26 27 22 26 27 22 26 27 22 26 27 22 26 27 22 26 27 22 26 27 22 26 27 22 26 27 22 26 27 22 26 27 22 26 27 22 26 27 22 26 27 22 26 27 22 26 27 22 26 27 22 26 27 22 26 27 22 26 27 22 26 27 22 26 27 22 26 27 22 26 27
22 26 27 22 26 27 22 26 27 81 85 85 72 76 76 70 74 74 22 26 27 73 77 77 91 95 95 77 81 81 76 80 80 22 26 27 74 78 78 78 82 82 90 94 94 79 83 83 69 69 69 92 80 119 69 69 69 60 60 60 66 66 66 71 71 71 71 71 71 77 77 77 72 72 72 73 73 73 62 62 62 117 77 112 69 69 69 70 70 70 72 72 72 74 74 74 76 76 76 73 73 73 73 73 73 66 66 66 77 77 77 61 61 61 73 73 73 64 64 64 63 63 63 66 66 66 72 72 72 63 63 63 60 60 60 66 66 66 69 69 69 64 64 64 68 68 68 68 68 68 69 69 69 72 72 72 71 71 71 69 69 69 61 61 61 71 71 71 67 67 67 68 68 68 69 69 69 109 78 115 118 77 112 75 75 75 75 75 75 60 60 60 63 63 63 72 72 72 73 73 73 94 80 119 77 77 77 60 60 60 69 69 69 63 63 63 67 67 67 70 70 70 63 63 63 64 64 64 67 67 67 72 72 72 77 77 77 76 76 76 74 74 74 73 73 73 75 75 75 97 80 118 71 71 71 77 77 77 74 74 74 73 73 73 76 76 76 60 60 60 68 68 68 64 64 64 72 72 72 70 70 70 67 67 67 77 77 77 61 61 61 78 78 78 63 63 63 65 65 65 76 76 76 65 65 65 72 72 72 72 72 72 66 66 66 100 79 117 66 66 66 62 62 62 66 66 66 73 73 73 69 69 69 77 77 77 68 68 68 66 66 66 67 67 67 64 64 64 76 76 76 74 74 74 69 69 69 78 78 78 62 62 62 72 72 72 73 73 73 67 67 67 71 71 71 77 81 79 89 93 91 94 98 96 85 89 87 92 96 94 77 81 79 94 98 96 79 83 81 78 82 80 96 100 98 91 95 93 87 91 89 93 97 95 79 83 81 76 80 78 95 99 97 78 82 80 98 102 100 93 97 95 88 92 90 93 97 95 92 96 94 88 92 90 94 98 96 84 88 86 94 98 96 75 79 77 95 99 97 84 88 86 87 91 89 79 83 81 80 84 82 83 87 85 91 95 93 86 90 88 89 93 91 97 101 99 77 81 79 83 87 85 93 97 95 82 86 84 83 87 85 87 91 89 78 82 80 74 78 76 97 101 99 87 91 89 88 92 90 92 96 94 74 78 76 92 96 94 87 91 89 85 89 87 83 87 85 93 97 95 91 95 93 94 98 96 88 92 90 84 88 86 79 83 81 86 90 88 84 88 86 84 88 86 87 91 89 89 93 91 92 96 94 98 102 100 85 89 87 76 80 78 82 86 84 78 82 80 91 95 93 77 81 79 78 82 80 90 94 92 91 95 93 97 101 99 83 87 85 91 95 93 76 80 78 82 86 84 81 85 83 22 26 27 22 26 27 22 26 27 22 26 27 22 26 27 22 26 27 22 26 27 22 26 27 22 26 27 22 26 27 22 26 27 22 26 27 22 26 27 22 26 27 22 26 27 22 26 27 22 26 27 22 26 27 22 26 27 22 26 27 22 26 27 22 26 27 22 26 27 22 26 27 22 26 27 22 26 27 22 26 27 22 26 27 22 26 27 22 26 27 22 26 27 22 26 27 22 26 27 22 26 27 22 26 27 22 26 27 22 26 27 22 26 27 22 26 27 22 26 27 22 26 27 22 26 27 22 26 27 22 26 27 22 26 27 22 26 27 22 26 27 22 26 27 22 26 27
22 26 27 22 26 27 22 26 27 77 81 81 85 89 89 90 94 94 22 26 27 73 77 77 80 84 84 82 86 86 83 87 87 22 26 27 92 96 96 75 79 79 73 77 77 77 81 81 74 74 74 75 75 75 74 74 74 74 74 74 111 75 110 69 69 69 69 69 69 60 60 60 60 60 60 62 62 62 60 60 60 59 59 59 63 63 63 73 73 73 62 62 62 58 58 58 75 75 75 61 61 61 75 75 75 74 74 74 70 70 70 75 75 75 72 72 72 71 71 71 69 69 69 76 76 76 71 71 71 74 74 74 73 73 73 108 75 111 72 72 72 67 67 67 71 71 71 57 57 57 68 68 68 68 68 68 74 74 74 67 67 67 64 64 64 74 74 74 69 69 69 71 71 71 61 61 61 99 76 113 68 68 68 64 64 64 69 69 69 72 72 72 60 60 60 108 75 111 61 61 61 74 74 74 74 74 74 62 62 62 71 71 71 68 68 68 75 75 75 58 58 58 69 69 69 73 73 73 63 63 63 95 77 114 60 60 60 66 66 66 71 71 71 64 64 64 68 68 68 73 73 73 69 69 69 71 71 71 67 67 67 75 75 75 74 74 74 60 60 60 66 66 66 64 64 64 71 71 71 62 62 62 67 67 67 60 60 60 66 66 66 57 57 57 60 60 60 75 75 75 64 64 64 63 63 63 61 61 61 61 61 61 57 57 57 72 72 72 60 60 60 69 69 69 63 63 63 62 62 62 76 76 76 74 74 74 75 75 75 69 69 69 75 75 75 76 76 76 75 75 75 72 72 72 64 64 64 63 63 63 73 73 73 74 74 74 69 69 69 61 61 61 60 60 60 97 101 99 97 101 99 93 97 95 76 80 78 84 88 86 79 83 81 79 83 81 93 97 95 88 92 90 95 99 97 80 84 82 94 98 96 86 90 88 82 86 84 81 85 83 77 81 79 78 82 80 79 83 81 91 95 93 85 89 87 93 97 95 80 84 82 92 96 94 91 95 93 87 91 89 97 101 99 91 95 93 89 93 91 89 93 91 82 86 84 81 85 83 83 87 85 76 80 78 78 82 80 81 85 83 95 99 97 90 94 92 77 81 79 91 95 93 82 86 84 94 98 96 87 91 89 79 83 81 80 84 82 94 98 96 91 95 93 76 80 78 87 91 89 86 90 88 77 81 79 91 95 93 74 78 76 92 96 94 83 87 85 84 88 86 83 87 85 91 95 93 92 96 94 98 102 100 84 88 86 85 89 87 98 102 100 74 78 76 80 84 82 82 86 84 88 92 90 87 91 89 97 101 99 75 79 77 85 89 87 91 95 93 78 82 80 89 93 91 92 96 94 79 83 81 81 85 83 85 89 87 93 97 95 96 100 98 86 90 88 91 95 93 75 79 77 22 26 27 22 26 27 22 26 27 22 26 27 22 26 27 22 26 27 22 26 27 22 26 27 22 26 27 22 26 27 22 26 27 22 26 27 22 26 27 22 26 27 22 26 27 22 26 27 22 26 27 22 26 27 22 26 27 22 26 27 22 26 27 22 26 27 22 26 27 22 26 27 22 26 27 22 26 27 22 26 27 22 26 27 22 26 27 22 26 27 22 26 27 22 26 27 22 26 27 22 26 27 22 26 27 22 26 27 22 26 27 22 26 27 22 26 27 22 26 27 22 26 27 22 26 27 22 26 27 22 26 27 22 26 27 22 26 27 22 26 27 22 26 27 22 26 27
22 26 27 22 26 27 22 26 27 71 75 75 92 96 96 88 92 92 22 26 27 89 93 93 73 77 77 78 82 82 87 91 91 22 26 27 92 96 96 77 81 81 82 86 86 74 78 78 58 58 58 69 69 69 69 69 69 55 55 55 65 65 65 60 60 60 57 57 57 54 54 54 72 72 72 72 72 72 70 70 70 71 71 71 112 69 103 71 71 71 66 66 66 54 54 54 56 56 56 55 55 55 71 71 71 59 59 59 72 72 72 66 66 66 69 69 69 56 56 56 61 61 61 66 66 66 69 69 69 62 62 62 71 71 71 72 72 72 70 70 70 62 62 62 62 62 62 58 58 58 60 60 60 62 62 62 92 72 109 67 67 67 97 71 107 67 67 67 70 70 70 65 65 65 66 66 66 71 71 71 61 61 61 71 71 71 69 69 69 70 70 70 68 68 68 60 60 60 71 71 71 62 62 62 61 61 61 63 63 63 66 66 66 57 57 57 66 66 66 71 71 71 65 65 65 71 71 71 55 55 55 63 63 63 67 67 67 56 56 56 68 68 68 62 62 62 59 59 59 112 69 103 69 69 69 65 65 65 68 68 68 67 67 67 58 58 58 69 69 69 60 60 60 66 66 66 63 63 63 63 63 63 71 71 71 63 63 63 62 62 62 68 68 68 69 69 69 68 68 68 61 61 61 69 69 69 71 71 71 69 69 69 65 65 65 58 58 58 56 56 56 64 64 64 55 55 55 64 64 64 62 62 62 70 70 70 54 54 54 62 62 62 60 60 60 72 72 72 61 61 61 61 61 61 64 64 64 56 56 56 62 62 62 68 68 68 55 55 55 55 55 55 63 63 63 90 94 92 76 80 78 81 85 83 84 88 86 79 83 81 80 84 82 77 81 79 88 92 90 93 97 95 87 91 89 87 91 89 77 81 79 96 100 98 75 79 77 92 96 94 79 83 81 90 94 92 94 98 96 76 80 78 81 85 83 84 88 86 93 97 95 95 99 97 92 96 94 98 102 100 97 101 99 85 89 87 97 101 99 88 92 90 85 89 87 83 87 85 81 85 83 90 94 92 79 83 81 93 97 95 75 79 77 75 79 77 77 81 79 75 79 77 92 96 94 85 89 87 78 82 80 86 90 88 95 99 97 84 88 86 96 100 98 76 80 78 90 94 92 90 94 92 93 97 95 91 95 93 77 81 79 84 88 86 89 93 91 85 89 87 86 90 88 79 83 81 83 87 85 97 101 99 92 96 94 97 101 99 98 102 100 84 88 86 89 93 91 87 91 89 89 93 91 93 97 95 80 84 82 81 85 83 89 93 91 97 101 99 84 88 86 74 78 76 78 82 80 80 84 82 87 91 89 79 83 81 92 96 94 87 91 89 94 98 96 89 93 91 80 84 82 22 26 27 22 26 27 22 26 27 22 26 27 22 26 27 22 26 27 22 26 27 22 26 27 22 26 27 22 26 27 22 26 27 22 26 27 22 26 27 22 26 27 22 26 27 22 26 27 22 26 27 22 26 27 22 26 27 22 26 27 22 26 27 22 26 27 22 26 27 22 26 27 22 26 27 22 26 27 22 26 27 22 26 27 22 26 27 22 26 27 22 26 27 22 26 27 22 26 27 22 26 27 22 26 27 22 26 27 22 26 27 22 26 27 22 26 27 22 26 27 22 26 27 22 26 27 22 26 27 22 26 27 22 26 27 22 26 27 22 26 27 22 26 27 22 26 27
22 26 27 22 26 27 22 26 27 69 73 73 82 86 86 73 77 77 22 26 27 84 88 88 90 94 94 71 75 75 81 85 85 22 26 27 86 90 90 91 95 95 81 85 85 76 80 80 56 56 56 64 64 64 63 63 63 103 63 98 54 54 54 60 60 60 61 61 61 62 62 62 62 62 62 53 53 53 64 64 64 58 58 58 59 59 59 63 63 63 53 53 53 57 57 57 51 51 51 105 63 97 62 62 62 60 60 60 66 66 66 64 64 64 56 56 56 61 61 61 68 68 68 99 64 99 64 64 64 52 52 52 50 50 50 53 53 53 52 52 52 63 63 63 101 64 98 66 66 66 54 54 54 50 50 50 60 60 60 93 65 100 54 54 54 100 64 98 56 56 56 68 68 68 60 60 60 54 54 54 61 61 61 68 68 68 66 66 66 52 52 52 56 56 56 66 66 66 59 59 59 56 56 56 62 62 62 60 60 60 54 54 54 50 50 50 56 56 56 60 60 60 53 53 53 58 58 58 52 52 52 52 52 52 52 52 52 50 50 50 67 67 67 59 59 59 63 63 63 52 52 52 67 67 67 105 63 97 68 68 68 52 52 52 59 59 59 64 64 64 55 55 55 66 66 66 57 57 57 68 68 68 67 67 67 79 66 104 61 61 61 62 62 62 59 59 59 50 50 50 51 51 51 66 66 66 63 63 63 50 50 50 51 51 51 53 53 53 65 65 65 61 61 61 63 63 63 55 55 55 57 57 57 54 54 54 57 57 57 65 65 65 55 55 55 58 58 58 59 59 59 49 49 49 60 60 60 55 55 55 64 64 64 64 64 64 55 55 55 67 67 67 66 66 66 89 93 91 90 94 92 90 94 92 87 91 89 96 100 98 91 95 93 81 85 83 91 95 93 92 96 94 86 90 88 80 84 82 90 94 92 86 90 88 84 88 86 97 101 99 95 99 97 81 85 83 77 81 79 80 84 82 90 94 92 81 85 83 89 93 91 92 96 94 93 97 95 82 86 84 74 78 76 80 84 82 81 85 83 80 84 82 89 93 91 83 87 85 94 98 96 91 95 93 94 98 96 91 95 93 76 80 78 86 90 88 97 101 99 97 101 99 78 82 80 93 97 95 95 99 97 84 88 86 77 81 79 81 85 83 75 79 77 87 91 89 92 96 94 77 81 79 97 101 99 92 96 94 83 87 85 96 100 98 95 99 97 93 97 95 84 88 86 80 84 82 91 95 93 80 84 82 74 78 76 95 99 97 81 85 83 96 100 98 76 80 78 96 100 98 93 97 95 80 84 82 83 87 85 82 86 84 91 95 93 88 92 90 87 91 89 76 80 78 90 94 92 81 85 83 79 83 81 96 100 98 78 82 80 91 95 93 90 94 92 87 91 89 91 95 93 22 26 27 22 26 27 22 26 27 22 26 27 22 26 27 22 26 27 22 26 27 22 26 27 22 26 27 22 26 27 22 26 27 22 26 27 22 26 27 22 26 27 22 26 27 22 26 27 22 26 27 22 26 27 22 26 27 22 26 27 22 26 27 22 26 27 22 26 27 22 26 27 22 26 27 22 26 27 22 26 27 22 26 27 22 26 27 22 26 27 22 26 27 22 26 27 22 26 27 22 26 27 22 26 27 22 26 27 22 26 27 22 26 27 22 26 27 22 26 27 22 26 27 22 26 27 22 26 27 22 26 27 22 26 27 22 26 27 22 26 27 22 26 27 22 26 27
22 26 27 22 26 27 22 26 27 82 86 86 84 88 88 83 87 87 22 26 27 88 92 92 78 82 82 80 84 84 91 95 95 22 26 27 76 80 80 73 77 77 79 83 83 92 96 96 56 56 56 57 57 57 56 56 56 53 53 53 45 45 45 58 58 58 54 54 54 50 50 50 53 53 53 54 54 54 58 58 58 55 55 55 60 60 60 50 50 50 90 59 94 63 63 63 50 50 50 49 49 49 54 54 54 53 53 53 49 49 49 60 60 60 57 57 57 49 49 49 71 62 99 71 62 99 57 57 57 61 61 61 60 60 60 59 59 59 60 60 60 62 62 62 59 59 59 52 52 52 57 57 57 55 55 55 62 62 62 61 61 61 57 57 57 49 49 49 59 59 59 48 48 48 61 61 61 98 58 92 48 48 48 62 62 62 47 47 47 48 48 48 62 62 62 91 59 94 62 62 62 62 62 62 85 60 95 49 49 49 52 52 52 61 61 61 58 58 58 58 58 58 52 52 52 47 47 47 55 55 55 62 62 62 52 52 52 64 64 64 62 62 62 61 61 61 57 57 57 53 53 53 60 60 60 46 46 46 52 52 52 63 63 63 52 52 52 57 57 57 58 58 58 54 54 54 56 56 56 52 52 52 61 61 61 87 60 95 60 60 60 58 58 58 46 46 46 48 48 48 57 57 57 53 53 53 49 49 49 57 57 57 45 45 45 59 59 59 63 63 63 51 51 51 53 53 53 59 59 59 61 61 61 47 47 47 51 51 51 70 62 100 49 49 49 58 58 58 57 57 57 50 50 50 55 55 55 61 61 61 47 47 47 62 62 62 64 64 64 62 62 62 46 46 46 76 80 78 84 88 86 94 98 96 90 94 92 96 100 98 97 101 99 80 84 82 77 81 79 94 98 96 88 92 90 83 87 85 77 81 79 96 100 98 88 92 90 83 87 85 88 92 90 95 99 97 81 85 83 78 82 80 89 93 91 82 86 84 84 88 86 91 95 93 96 100 98 87 91 89 80 84 82 97 101 99 94 98 96 87 91 89 89 93 91 87 91 89 83 87 85 82 86 84 98 102 100 97 101 99 83 87 85 82 86 84 88 92 90 91 95 93 87 91 89 96 100 98 84 88 86 96 100 98 79 83 81 87 91 89 74 78 76 97 101 99 82 86 84 85 89 87 92 96 94 74 78 76 82 86 84 89 93 91 82 86 84 90 94 92 84 88 86 88 92 90 95 99 97 76 80 78 89 93 91 78 82 80 83 87 85 77 81 79 84 88 86 95 99 97 77 81 79 77 81 79 83 87 85 88 92 90 77 81 79 85 89 87 95 99 97 95 99 97 84 88 86 87 91 89 82 86 84 79 83 81 87 91 89 90 94 92 77 81 79 87 91 89 79 83 81 22 26 27 22 26 27 22 26 27 22 26 27 22 26 27 22 26 27 22 26 27 22 26 27 22 26 27 22 26 27 22 26 27 22 26 27 22 26 27 22 26 27 22 26 27 22 26 27 22 26 27 22 26 27 22 26 27 22 26 27 22 26 27 22 26 27 22 26 27 22 26 27 22 26 27 22 26 27 22 26 27 22 26 27 22 26 27 22 26 27 22 26 27 22 26 27 22 26 27 22 26 27 22 26 27 22 26 27 22 26 27 22 26 27 22 26 27 22 26 27 22 26 27 22 26 27 22 26 27 22 26 27 22 26 27 22 26 27 22 26 27 22 26 27 22 26 27
22 26 27 22 26 27 22 26 27 89 93 93 78 82 82 77 81 81 22 26 27 71 75 75 74 78 78 72 76 76 87 91 91 22 26 27 80 84 84 89 93 93 71 75 75 79 83 83 53 53 53 87 58 93 57 57 57 54 54 54 60 60 60 87 58 93 47 47 47 50 50 50 54 54 54 60 60 60 45 45 45 45 45 45 57 57 57 95 57 90 69 60 98 56 56 56 51 51 51 52 52 52 58 58 58 58 58 58 58 58 58 51 51 51 57 57 57 61 61 61 50 50 50 52 52 52 55 55 55 46 46 46 54 54 54 99 56 89 53 53 53 49 49 49 61 61 61 56 56 56 57 57 57 48 48 48 61 61 61 69 60 97 62 62 62 72 60 97 47 47 47 62 62 62 51 51 51 47 47 47 73 59 96 57 57 57 58 58 58 75 59 96 57 57 57 58 58 58 55 55 55 53 53 53 47 47 47 60 60 60 60 60 60 55 55 55 53 53 53 53 53 53 52 52 52 52 52 52 45 45 45 45 45 45 58 58 58 49 49 49 44 44 44 47 47 47 55 55 55 61 61 61 47 47 47 48 48 48 46 46 46 58 58 58 61 61 61 53 53 53 62 62 62 44 44 44 58 58 58 48 48 48 57 57 57 58 58 58 91 57 92 47 47 47 69 60 97 62 62 62 50 50 50 58 58 58 54 54 54 60 60 60 62 62 62 49 49 49 44 44 44 61 61 61 58 58 58 49 49 49 51 51 51 46 46 46 57 57 57 59 59 59 85 58 93 75 59 96 61 61 61 56 56 56 61 61 61 58 58 58 58 58 58 55 55 55 59 59 59 62 62 62 62 62 62 80 84 82 88 92 90 85 89 87 95 99 97 79 83 81 91 95 93 90 94 92 94 98 96 77 81 79 90 94 92 88 92 90 85 89 87 88 92 90 98 102 100 92 96 94 75 79 77 82 86 84 78 82 80 90 94 92 78 82 80 97 101 99 94 98 96 92 96 94 77 81 79 87 91 89 98 102 100 91 95 93 75 79 77 83 87 85 97 101 99 84 88 86 97 101 99 90 94 92 92 96 94 78 82 80 81 85 83 88 92 90 81 85 83 88 92 90 90 94 92 81 85 83 88 92 90 77 81 79 76 80 78 97 101 99 80 84 82 97 101 99 83 87 85 87 91 89 84 88 86 77 81 79 75 79 77 74 78 76 82 86 84 82 86 84 80 84 82 76 80 78 96 100 98 86 90 88 95 99 97 85 89 87 96 100 98 97 101 99 92 96 94 82 86 84 84 88 86 76 80 78 94 98 96 88 92 90 86 90 88 89 93 91 75 79 77 78 82 80 91 95 93 91 95 93 82 86 84 81 85 83 91 95 93 81 85 83 98 102 100 83 87 85 80 84 82 22 26 27 22 26 27 22 26 27 22 26 27 22 26 27 22 26 27 22 26 27 22 26 27 22 26 27 22 26 27 22 26 27 22 26 27 22 26 27 22 26 27 22 26 27 22 26 27 22 26 27 22 26 27 22 26 27 22 26 27 22 26 27 22 26 27 22 26 27 22 26 27 22 26 27 22 26 27 22 26 27 22 26 27 22 26 27 22 26 27 22 26 27 22 26 27 22 26 27 22 26 27 22 26 27 22 26 27 22 26 27 22 26 27 22 26 27 22 26 27 22 26 27 22 26 27 22 26 27 22 26 27 22 26 27 22 26 27 22 26 27 22 26 27 22 26 27
22 26 27 22 26 27 22 26 27 89 93 93 91 95 95 93 97 97 22 26 27 71 75 75 91 95 95 90 94 94 92 96 96 22 26 27 74 78 78 78 82 82 83 87 87 91 95 95 64 64 64 50 50 50 56 56 56 56 56 56 51 51 51 61 61 61 62 62 62 47 47 47 51 51 51 80 61 98 64 64 64 61 61 61 61 61 61 62 62 62 56 56 56 64 64 64 61 61 61 51 51 51 59 59 59 49 49 49 55 55 55 83 61 97 63 63 63 54 54 54 60 60 60 58 58 58 80 61 98 50 50 50 60 60 60 60 60 60 61 61 61 80 61 98 64 64 64 57 57 57 63 63 63 46 46 46 46 46 46 62 62 62 52 52 52 55 55 55 47 47 47 64 64 64 63 63 63 54 54 54 54 54 54 63 63 63 58 58 58 55 55 55 49 49 49 52 52 52 58 58 58 58 58 58 52 52 52 57 57 57 58 58 58 62 62 62 61 61 61 58 58 58 60 60 60 54 54 54 63 63 63 61 61 61 46 46 46 77 62 99 88 61 96 58 58 58 56 56 56 50 50 50 64 64 64 55 55 55 61 61 61 60 60 60 59 59 59 57 57 57 63 63 63 59 59 59 48 48 48 50 50 50 50 50 50 60 60 60 51 51 51 50 50 50 60 60 60 62 62 62 59 59 59 80 61 98 51 51 51 100 59 93 51 51 51 63 63 63 63 63 63 58 58 58 55 55 55 51 51 51 89 60 96 47 47 47 50 50 50 58 58 58 54 54 54 49 49 49 60 60 60 77 62 99 57 57 57 63 63 63 49 49 49 54 54 54 49 49 49 57 57 57 51 51 51 84 88 86 94 98 96 79 83 81 96 100 98 94 98 96 92 96 94 89 93 91 85 89 87 79 83 81 93 97 95 78 82 80 75 79 77 95 99 97 94 98 96 80 84 82 95 99 97 82 86 84 98 102 100 82 86 84 80 84 82 78 82 80 92 96 94 82 86 84 80 84 82 79 83 81 85 89 87 85 89 87 88 92 90 96 100 98 92 96 94 88 92 90 80 84 82 83 87 85 77 81 79 89 93 91 95 99 97 87 91 89 79 83 81 88 92 90 90 94 92 86 90 88 87 91 89 97 101 99 95 99 97 89 93 91 76 80 78 86 90 88 90 94 92 92 96 94 82 86 84 97 101 99 77 81 79 79 83 81 77 81 79 80 84 82 96 100 98 85 89 87 81 85 83 78 82 80 88 92 90 79 83 81 90 94 92 77 81 79 88 92 90 76 80 78 88 92 90 77 81 79 75 79 77 95 99 97 78 82 80 75 79 77 80 84 82 89 93 91 98 102 100 79 83 81 94 98 96 77 81 79 79 83 81 92 96 94 74 78 76 86 90 88 83 87 85 22 26 27 22 26 27 22 26 27 22 26 27 22 26 27 22 26 27 22 26 27 22 26 27 22 26 27 22 26 27 22 26 27 22 26 27 22 26 27 22 26 27 22 26 27 22 26 27 22 26 27 22 26 27 22 26 27 22 26 27 22 26 27 22 26 27 22 26 27 22 26 27 22 26 27 22 26 27 22 26 27 22 26 27 22 26 27 22 26 27 22 26 27 22 26 27 22 26 27 22 26 27 22 26 27 22 26 27 22 26 27 22 26 27 22 26 27 22 26 27 22 26 27 22 26 27 22 26 27 22 26 27 22 26 27 22 26 27 22 26 27 22 26 27 22 26 27
22 26 27 22 26 27 22 26 27 91 95 95 75 79 79 85 89 89 22 26 27 71 75 75 79 83 83 86 90 90 87 91 91 22 26 27 79 83 83 90 94 94 73 77 77 84 88 88 66 66 66 53 53 53 52 52 52 68 68 68 54 54 54 50 50 50 58 58 58 61 61 61 68 68 68 68 68 68 64 64 64 66 66 66 68 68 68 67 67 67 62 62 62 64 64 64 63 63 63 66 66 66 59 59 59 77 68 106 67 67 67 62 62 62 51 51 51 67 67 67 60 60 60 57 57 57 60 60 60 58 58 58 67 67 67 66 66 66 63 63 63 64 64 64 56 56 56 61 61 61 54 54 54 50 50 50 62 62 62 63 63 63 56 56 56 58 58 58 62 62 62 56 56 56 51 51 51 51 51 51 51 51 51 57 57 57 66 66 66 67 67 67 59 59 59 63 63 63 52 52 52 51 51 51 55 55 55 60 60 60 68 68 68 54 54 54 56 56 56 63 63 63 63 63 63 107 64 98 59 59 59 93 66 102 68 68 68 57 57 57 60 60 60 64 64 64 62 62 62 50 50 50 64 64 64 61 61 61 52 52 52 62 62 62 56 56 56 52 52 52 89 67 103 52 52 52 56 56 56 68 68 68 103 65 99 65 65 65 60 60 60 93 66 102 61 61 61 62 62 62 64 64 64 53 53 53 60 60 60 77 68 106 51 51 51 53 53 53 57 57 57 67 67 67 62 62 62 55 55 55 53 53 53 66 66 66 65 65 65 62 62 62 61 61 61 58 58 58 52 52 52 56 56 56 64 64 64 67 67 67 61 61 61 67 67 67 56 56 56 62 62 62 54 54 54 97 101 99 93 97 95 84 88 86 77 81 79 81 85 83 83 87 85 92 96 94 94 98 96 80 84 82 95 99 97 88 92 90 94 98 96 79 83 81 75 79 77 85 89 87 86 90 88 89 93 91 76 80 78 94 98 96 91 95 93 74 78 76 75 79 77 80 84 82 84 88 86 91 95 93 79 83 81 81 85 83 92 96 94 93 97 95 91 95 93 97 101 99 98 102 100 77 81 79 94 98 96 93 97 95 95 99 97 90 94 92 94 98 96 82 86 84 88 92 90 94 98 96 78 82 80 92 96 94 86 90 88 78 82 80 87 91 89 93 97 95 92 96 94 96 100 98 82 86 84 95 99 97 79 83 81 79 83 81 76 80 78 89 93 91 83 87 85 87 91 89 94 98 96 77 81 79 89 93 91 90 94 92 86 90 88 94 98 96 77 81 79 75 79 77 75 79 77 92 96 94 84 88 86 89 93 91 85 89 87 88 92 90 93 97 95 88 92 90 93 97 95 97 101 99 76 80 78 88 92 90 89 93 91 76 80 78 94 98 96 92 96 94 91 95 93 22 26 27 22 26 27 22 26 27 22 26 27 22 26 27 22 26 27 22 26 27 22 26 27 22 26 27 22 26 27 22 26 27 22 26 27 22 26 27 22 26 27 22 26 27 22 26 27 22 26 27 22 26 27 22 26 27 22 26 27 22 26 27 22 26 27 22 26 27 22 26 27 22 26 27 22 26 27 22 26 27 22 26 27 22 26 27 22 26 27 22 26 27 22 26 27 22 26 27 22 26 27 22 26 27 22 26 27 22 26 27 22 26 27 22 26 27 22 26 27 22 26 27 22 26 27 22 26 27 22 26 27 22 26 27 22 26 27 22 26 27 22 26 27 22 26 27
22 26 27 22 26 27 22 26 27 71 75 75 80 84 84 80 84 84 22 26 27 80 84 84 84 88 88 73 77 77 83 87 87 22 26 27 81 85 85 69 73 73 79 83 83 75 79 79 55 55 55 65 65 65 67 67 67 61 61 61 57 57 57 61 61 61 59 59 59 73 73 73 58 58 58 90 73 111 56 56 56 66 66 66 71 71 71 68 68 68 62 62 62 65 65 65 62 62 62 63 63 63 55 55 55 60 60 60 70 70 70 65 65 65 71 71 71 69 69 69 63 63 63 68 68 68 62 62 62 91 73 111 71 71 71 69 69 69 60 60 60 71 71 71 58 58 58 67 67 67 70 70 70 67 67 67 62 62 62 60 60 60 62 62 62 71 71 71 60 60 60 56 56 56 57 57 57 86 74 112 66 66 66 72 72 72 67 67 67 58 58 58 70 70 70 65 65 65 67 67 67 71 71 71 64 64 64 58 58 58 66 66 66 55 55 55 62 62 62 63 63 63 70 70 70 56 56 56 69 69 69 72 72 72 58 58 58 63 63 63 68 68 68 66 66 66 61 61 61 60 60 60 67 67 67 62 62 62 68 68 68 68 68 68 64 64 64 57 57 57 65 65 65 64 64 64 59 59 59 67 67 67 70 70 70 58 58 58 60 60 60 55 55 55 101 72 108 63 63 63 58 58 58 57 57 57 69 69 69 58 58 58 58 58 58 69 69 69 67 67 67 59 59 59 72 72 72 72 72 72 63 63 63 73 73 73 66 66 66 62 62 62 68 68 68 69 69 69 63 63 63 67 67 67 70 70 70 55 55 55 71 71 71 73 73 73 67 67 67 56 56 56 69 69 69 84 88 86 84 88 86 98 102 100 97 101 99 91 95 93 78 82 80 79 83 81 76 80 78 93 97 95 80 84 82 83 87 85 89 93 91 88 92 90 84 88 86 93 97 95 86 90 88 84 88 86 75 79 77 87 91 89 92 96 94 95 99 97 77 81 79 76 80 78 90 94 92 81 85 83 92 96 94 76 80 78 83 87 85 89 93 91 81 85 83 88 92 90 83 87 85 82 86 84 87 91 89 81 85 83 87 91 89 81 85 83 98 102 100 88 92 90 79 83 81 87 91 89 84 88 86 90 94 92 79 83 81 91 95 93 88 92 90 95 99 97 94 98 96 98 102 100 83 87 85 95 99 97 97 101 99 85 89 87 78 82 80 85 89 87 77 81 79 96 100 98 76 80 78 97 101 99 86 90 88 93 97 95 91 95 93 86 90 88 76 80 78 82 86 84 93 97 95 97 101 99 93 97 95 98 102 100 81 85 83 78 82 80 93 97 95 89 93 91 77 81 79 84 88 86 84 88 86 88 92 90 80 84 82 86 90 88 78 82 80 80 84 82 84 88 86 22 26 27 22 26 27 22 26 27 22 26 27 22 26 27 22 26 27 22 26 27 22 26 27 22 26 27 22 26 27 22 26 27 22 26 27 22 26 27 22 26 27 22 26 27 22 26 27 22 26 27 22 26 27 22 26 27 22 26 27 22 26 27 22 26 27 22 26 27 22 26 27 22 26 27 22 26 27 22 26 27 22 26 27 22 26 27 22 26 27 22 26 27 22 26 27 22 26 27 22 26 27 22 26 27 22 26 27 22 26 27 22 26 27 22 26 27 22 26 27 22 26 27 22 26 27 22 26 27 22 26 27 22 26 27 22 26 27 22 26 27 22 26 27 22 26 27
22 26 27 22 26 27 22 26 27 88 92 92 88 92 92 81 85 85 22 26 27 71 75 75 77 81 81 90 94 94 72 76 76 22 26 27 89 93 93 74 78 78 77 81 81 87 91 91 90 78 117 74 74 74 64 64 64 71 71 71 73 73 73 62 62 62 114 75 110 60 60 60 68 68 68 58 58 58 73 73 73 71 71 71 61 61 61 58 58 58 62 62 62 90 78 117 94 78 116 60 60 60 66 66 66 74 74 74 63 63 63 60 60 60 89 78 117 70 70 70 64 64 64 63 63 63 94 78 116 64 64 64 76 76 76 61 61 61 70 70 70 72 72 72 63 63 63 75 75 75 73 73 73 69 69 69 71 71 71 70 70 70 73 73 73 99 77 114 60 60 60 62 62 62 62 62 62 73 73 73 76 76 76 75 75 75 67 67 67 61 61 61 58 58 58 73 73 73 74 74 74 69 69 69 69 69 69 64 64 64 72 72 72 75 75 75 73 73 73 76 76 76 72 72 72 94 78 116 60 60 60 63 63 63 74 74 74 61 61 61 63 63 63 75 75 75 67 67 67 76 76 76 75 75 75 64 64 64 74 74 74 70 70 70 73 73 73 76 76 76 65 65 65 72 72 72 63 63 63 72 72 72 64 64 64 68 68 68 70 70 70 69 69 69 61 61 61 63 63 63 65 65 65 74 74 74 77 77 77 63 63 63 61 61 61 72 72 72 76 76 76 64 64 64 63 63 63 99 77 114 60 60 60 71 71 71 60 60 60 61 61 61 75 75 75 73 73 73 109 76 111 73 73 73 61 61 61 67 67 67 61 61 61 71 71 71 70 70 70 70 70 70 58 58 58 82 86 84 79 83 81 77 81 79 79 83 81 95 99 97 85 89 87 94 98 96 87 91 89 92 96 94 96 100 98 85 89 87 88 92 90 75 79 77 96 100 98 90 94 92 86 90 88 91 95 93 90 94 92 91 95 93 96 100 98 77 81 79 80 84 82 97 101 99 91 95 93 87 91 89 83 87 85 92 96 94 76 80 78 96 100 98 93 97 95 77 81 79 88 92 90 76 80 78 93 97 95 93 97 95 89 93 91 95 99 97 84 88 86 95 99 97 84 88 86 77 81 79 90 94 92 93 97 95 84 88 86 96 100 98 74 78 76 84 88 86 77 81 79 94 98 96 94 98 96 92 96 94 96 100 98 96 100 98 82 86 84 94 98 96 83 87 85 80 84 82 85 89 87 75 79 77 78 82 80 93 97 95 95 99 97 94 98 96 82 86 84 84 88 86 90 94 92 89 93 91 79 83 81 92 96 94 86 90 88 77 81 79 88 92 90 96 100 98 83 87 85 79 83 81 86 90 88 75 79 77 95 99 97 74 78 76 83 87 85 96 100 98 98 102 100 22 26 27 22 26 27 22 26 27 22 26 27 22 26 27 22 26 27 22 26 27 22 26 27 22 26 27 22 26 27 22 26 27 22 26 27 22 26 27 22 26 27 22 26 27 22 26 27 22 26 27 22 26 27 22 26 27 22 26 27 22 26 27 22 26 27 22 26 27 22 26 27 22 26 27 22 26 27 22 26 27 22 26 27 22 26 27 22 26 27 22 26 27 22 26 27 22 26 27 22 26 27 22 26 27 22 26 27 22 26 27 22 26 27 22 26 27 22 26 27 22 26 27 22 26 27 22 26 27 22 26 27 22 26 27 22 26 27 22 26 27 22 26 27 22 26 27
22 26 27 22 26 27 22 26 27 80 84 84 79 83 83 76 80 80 22 26 27 79 83 83 82 86 86 84 88 88 71 75 75 22 26 27 76 80 80 89 93 93 91 95 95 80 84 84 75 75 75 76 76 76 72 72 72 66 66 66 77 77 77 64 64 64 62 62 62 75 75 75 62 62 62 74 74 74 77 77 77 60 60 60 64 64 64 75 75 75 77 77 77 64 64 64 71 71 71 78 78 78 78 78 78 72 72 72 70 70 70 72 72 72 61 61 61 76 76 76 64 64 64 71 71 71 64 64 64 71 71 71 77 77 77 70 70 70 75 75 75 68 68 68 68 68 68 61 61 61 75 75 75 71 71 71 76 76 76 73 73 73 95 80 119 64 64 64 63 63 63 74 74 74 73 73 73 63 63 63 76 76 76 61 61 61 74 74 74 67 67 67 77 77 77 77 77 77 63 63 63 71 71 71 63 63 63 77 77 77 76 76 76 75 75 75 74 74 74 72 72 72 75 75 75 72 72 72 71 71 71 74 74 74 66 66 66 70 70 70 65 65 65 72 72 72 68 68 68 75 75 75 73 73 73 65 65 65 74 74 74 62 62 62 77 77 77 64 64 64 72 72 72 63 63 63 61 61 61 72 72 72 71 71 71 67 67 67 74 74 74 78 78 78 63 63 63 73 73 73 113 78 114 68 68 68 68 68 68 97 80 118 75 75 75 61 61 61 67 67 67 63 63 63 77 77 77 71 71 71 70 70 70 61 61 61 62 62 62 67 67 67 72 72 72 98 80 118 75 75 75 115 78 113 99 80 118 69 69 69 67 67 67 72 72 72 68 68 68 106 79 116 67 67 67 83 87 85 93 97 95 89 93 91 96 100 98 89 93 91 75 79 77 76 80 78 88 92 90 87 91 89 86 90 88 97 101 99 75 79 77 88 92 90 84 88 86 88 92 90 89 93 91 77 81 79 82 86 84 84 88 86 83 87 85 82 86 84 77 81 79 80 84 82 75 79 77 80 84 82 84 88 86 96 100 98 77 81 79 88 92 90 95 99 97 90 94 92 89 93 91 89 93 91 84 88 86 75 79 77 93 97 95 74 78 76 95 99 97 78 82 80 86 90 88 90 94 92 76 80 78 81 85 83 85 89 87 93 97 95 94 98 96 95 99 97 94 98 96 78 82 80 80 84 82 88 92 90 85 89 87 96 100 98 77 81 79 76 80 78 85 89 87 91 95 93 95 99 97 81 85 83 80 84 82 85 89 87 92 96 94 81 85 83 88 92 90 81 85 83 79 83 81 85 89 87 75 79 77 89 93 91 76 80 78 90 94 92 90 94 92 92 96 94 79 83 81 95 99 97 89 93 91 86 90 88 83 87 85 85 89 87 92 96 94 97 101 99 98 102 100 22 26 27 22 26 27 22 26 27 22 26 27 22 26 27 22 26 27 22 26 27 22 26 27 22 26 27 22 26 27 22 26 27 22 26 27 22 26 27 22 26 27 22 26 27 22 26 27 22 26 27 22 26 27 22 26 27 22 26 27 22 26 27 22 26 27 22 26 27 22 26 27 22 26 27 22 26 27 22 26 27 22 26 27 22 26 27 22 26 27 22 26 27 22 26 27 22 26 27 22 26 27 22 26 27 22 26 27 22 26 27 22 26 27 22 26 27 22 26 27 22 26 27 22 26 27 22 26 27 22 26 27 22 26 27 22 26 27 22 26 27 22 26 27 22 26 27
22 26 27 22 26 27 22 26 27 90 94 94 91 95 95 88 92 92 22 26 27 91 95 95 72 76 76 72 76 76 88 92 92 22 26 27 91 95 95 77 81 81 86 90 90 82 86 86 62 62 62 77 77 77 70 70 70 76 76 76 74 74 74 72 72 72 79 79 79 77 77 77 62 62 62 76 76 76 102 82 120 68 68 68 62 62 62 71 71 71 67 67 67 67 67 67 100 82 120 74 74 74 70 70 70 79 79 79 70 70 70 64 64 64 77 77 77 96 82 121 75 75 75 77 77 77 70 70 70 72 72 72 77 77 77 114 80 116 64 64 64 62 62 62 65 65 65 78 78 78 66 66 66 78 78 78 64 64 64 71 71 71 74 74 74 71 71 71 62 62 62 64 64 64 69 69 69 65 65 65 79 79 79 73 73 73 70 70 70 70 70 70 75 75 75 68 68 68 77 77 77 80 80 80 118 79 115 92 83 122 73 73 73 73 73 73 105 81 119 92 83 122 67 67 67 77 77 77 76 76 76 75 75 75 79 79 79 67 67 67 97 82 121 61 61 61 75 75 75 79 79 79 63 63 63 112 80 117 65 65 65 68 68 68 97 82 121 72 72 72 74 74 74 78 78 78 69 69 69 67 67 67 76 76 76 79 79 79 66 66 66 72 72 72 71 71 71 72 72 72 72 72 72 74 74 74 74 74 74 61 61 61 63 63 63 71 71 71 67 67 67 99 82 120 73 73 73 72 72 72 71 71 71 67 67 67 77 77 77 71 71 71 63 63 63 62 62 62 69 69 69 62 62 62 72 72 72 74 74 74 78 78 78 78 78 78 74 74 74 94 82 122 65 65 65 79 83 81 79 83 81 97 101 99 97 101 99 93 97 95 83 87 85 76 80 78 92 96 94 83 87 85 80 84 82 85 89 87 81 85 83 75 79 77 91 95 93 86 90 88 88 92 90 77 81 79 95 99 97 98 102 100 92 96 94 87 91 89 96 100 98 81 85 83 81 85 83 94 98 96 90 94 92 96 100 98 75 79 77 75 79 77 88 92 90 94 98 96 78 82 80 78 82 80 87 91 89 76 80 78 92 96 94 92 96 94 87 91 89 76 80 78 94 98 96 95 99 97 94 98 96 88 92 90 83 87 85 79 83 81 86 90 88 78 82 80 83 87 85 79 83 81 81 85 83 82 86 84 95 99 97 88 92 90 78 82 80 93 97 95 90 94 92 96 100 98 90 94 92 81 85 83 78 82 80 86 90 88 93 97 95 76 80 78 94 98 96 80 84 82 90 94 92 97 101 99 97 101 99 79 83 81 80 84 82 87 91 89 91 95 93 96 100 98 87 91 89 85 89 87 91 95 93 84 88 86 93 97 95 93 97 95 85 89 87 74 78 76 82 86 84 22 26 27 22 26 27 22 26 27 22 26 27 22 26 27 22 26 27 22 26 27 22 26 27 22 26 27 22 26 27 22 26 27 22 26 27 22 26 27 22 26 27 22 26 27 22 26 27 22 26 27 22 26 27 22 26 27 22 26 27 22 26 27 22 26 27 22 26 27 22 26 27 22 26 27 22 26 27 22 26 27 22 26 27 22 26 27 22 26 27 22 26 27 22 26 27 22 26 27 22 26 27 22 26 27 22 26 27 22 26 27 22 26 27 22 26 27 22 26 27 22 26 27 22 26 27 22 26 27 22 26 27 22 26 27 22 26 27 22 26 27 22 26 27 22 26 27
22 26 27 22 26 27 22 26 27 79 83 83 71 75 75 84 88 88 22 26 27 69 73 73 72 76 76 80 84 84 89 93 93 22 26 27 82 86 86 80 84 84 74 78 78 91 95 95 68 68 68 65 65 65 65 65 65 81 81 81 102 84 123 119 82 118 67 67 67 68 68 68 75 75 75 67 67 67 68 68 68 79 79 79 64 64 64 79 79 79 63 63 63 76 76 76 79 79 79 99 85 124 68 68 68 76 76 76 75 75 75 67 67 67 80 80 80 72 72 72 76 76 76 79 79 79 78 78 78 69 69 69 74 74 74 64 64 64 78 78 78 75 75 75 77 77 77 71 71 71 74 74 74 81 81 81 79 79 79 76 76 76 70 70 70 72 72 72 64 64 64 66 66 66 73 73 73 75 75 75 78 78 78 75 75 75 64 64 64 79 79 79 74 74 74 63 63 63 75 75 75 78 78 78 77 77 77 78 78 78 77 77 77 80 80 80 80 80 80 75 75 75 76 76 76 74 74 74 74 74 74 81 81 81 71 71 71 72 72 72 81 81 81 78 78 78 67 67 67 75 75 75 66 66 66 71 71 71 71 71 71 80 80 80 68 68 68 69 69 69 66 66 66 69 69 69 67 67 67 66 66 66 72 72 72 105 84 122 64 64 64 75 75 75 69 69 69 75 75 75 114 83 120 80 80 80 80 80 80 77 77 77 67 67 67 80 80 80 97 85 124 77 77 77 78 78 78 72 72 72 65 65 65 115 83 119 80 80 80 67 67 67 75 75 75 122 82 117 77 77 77 69 69 69 76 76 76 77 77 77 68 68 68 75 75 75 80 80 80 64 64 64 67 67 67 79 83 81 94 98 96 93 97 95 77 81 79 93 97 95 98 102 100 80 84 82 76 80 78 93 97 95 78 82 80 81 85 83 78 82 80 74 78 76 83 87 85 80 84 82 89 93 91 80 84 82 93 97 95 84 88 86 84 88 86 83 87 85 86 90 88 95 99 97 91 95 93 91 95 93 89 93 91 84 88 86 93 97 95 75 79 77 83 87 85 87 91 89 85 89 87 78 82 80 94 98 96 75 79 77 74 78 76 91 95 93 77 81 79 91 95 93 95 99 97 86 90 88 81 85 83 93 97 95 81 85 83 76 80 78 79 83 81 96 100 98 84 88 86 77 81 79 89 93 91 82 86 84 93 97 95 90 94 92 83 87 85 84 88 86 94 98 96 80 84 82 75 79 77 92 96 94 81 85 83 93 97 95 89 93 91 77 81 79 89 93 91 97 101 99 78 82 80 96 100 98 88 92 90 74 78 76 78 82 80 83 87 85 92 96 94 82 86 84 85 89 87 95 99 97 92 96 94 92 96 94 78 82 80 76 80 78 86 90 88 80 84 82 94 98 96 22 26 27 22 26 27 22 26 27 22 26 27 22 26 27 22 26 27 22 26 27 22 26 27 22 26 27 22 26 27 22 26 27 22 26 27 22 26 27 22 26 27 22 26 27 22 26 27 22 26 27 22 26 27 22 26 27 22 26 27 22 26 27 22 26 27 22 26 27 22 26 27 22 26 27 22 26 27 22 26 27 22 26 27 22 26 27 22 26 27 22 26 27 22 26 27 22 26 27 22 26 27 22 26 27 22 26 27 22 26 27 22 26 27 22 26 27 22 26 27 22 26 27 22 26 27 22 26 27 22 26 27 22 26 27 22 26 27 22 26 27 22 26 27 22 26 27
22 26 27 22 26 27 22 26 27 72 76 76 82 86 86 92 96 96 22 26 27 86 90 90 71 75 75 90 94 94 73 77 77 22 26 27 82 86 86 91 95 95 85 89 89 80 84 84 73 73 73 81 81 81 78 78 78 74 74 74 70 70 70 68 68 68 66 66 66 67 67 67 75 75 75 83 83 83 83 83 83 78 78 78 84 84 84 76 76 76 79 79 79 80 80 80 78 78 78 68 68 68 83 83 83 80 80 80 71 71 71 66 66 66 69 69 69 79 79 79 68 68 68 75 75 75 69 69 69 83 83 83 79 79 79 66 66 66 83 83 83 78 78 78 80 80 80 69 69 69 79 79 79 67 67 67 74 74 74 72 72 72 78 78 78 83 83 83 73 73 73 68 68 68 76 76 76 69 69 69 122 86 123 79 79 79 82 82 82 73 73 73 75 75 75 69 69 69 82 82 82 81 81 81 79 79 79 115 87 125 79 79 79 78 78 78 67 67 67 84 84 84 77 77 77 76 76 76 78 78 78 74 74 74 106 88 127 79 79 79 79 79 79 112 87 125 75 75 75 80 80 80 71 71 71 80 80 80 76 76 76 107 88 127 67 67 67 76 76 76 76 76 76 82 82 82 77 77 77 76 76 76 67 67 67 76 76 76 67 67 67 122 86 123 82 82 82 72 72 72 80 80 80 78 78 78 72 72 72 114 87 125 74 74 74 75 75 75 71 71 71 78 78 78 75 75 75 67 67 67 84 84 84 73 73 73 83 83 83 79 79 79 81 81 81 68 68 68 111 87 126 70 70 70 107 88 127 121 86 123 82 82 82 83 83 83 76 76 76 68 68 68 79 79 79 87 91 89 79 83 81 94 98 96 75 79 77 97 101 99 79 83 81 94 98 96 96 100 98 78 82 80 75 79 77 93 97 95 87 91 89 91 95 93 78 82 80 82 86 84 95 99 97 91 95 93 75 79 77 85 89 87 80 84 82 75 79 77 76 80 78 89 93 91 90 94 92 90 94 92 90 94 92 91 95 93 93 97 95 87 91 89 91 95 93 96 100 98 77 81 79 78 82 80 88 92 90 85 89 87 97 101 99 92 96 94 74 78 76 77 81 79 86 90 88 85 89 87 92 96 94 87 91 89 81 85 83 76 80 78 93 97 95 80 84 82 90 94 92 81 85 83 85 89 87 96 100 98 75 79 77 96 100 98 74 78 76 78 82 80 79 83 81 86 90 88 96 100 98 76 80 78 89 93 91 75 79 77 78 82 80 93 97 95 76 80 78 87 91 89 96 100 98 95 99 97 93 97 95 75 79 77 77 81 79 85 89 87 90 94 92 95 99 97 76 80 78 91 95 93 94 98 96 76 80 78 94 98 96 85 89 87 75 79 77 85 89 87 79 83 81 22 26 27 22 26 27 22 26 27 22 26 27 22 26 27 22 26 27 22 26 27 22 26 27 22 26 27 22 26 27 22 26 27 22 26 27 22 26 27 22 26 27 22 26 27 22 26 27 22 26 27 22 26 27 22 26 27 22 26 27 22 26 27 22 26 27 22 26 27 22 26 27 22 26 27 22 26 27 22 26 27 22 26 27 22 26 27 22 26 27 22 26 27 22 26 27 22 26 27 22 26 27 22 26 27 22 26 27 22 26 27 22 26 27 22 26 27 22 26 27 22 26 27 22 26 27 22 26 27 22 26 27 22 26 27 22 26 27 22 26 27 22 26 27 22 26 27
22 26 27 22 26 27 22 26 27 92 96 96 74 78 78 73 77 77 22 26 27 88 92 92 82 86 86 82 86 86 93 97 97 22 26 27 72 76 76 90 94 94 69 73 73 88 92 92 77 77 77 82 82 82 74 74 74 73 73 73 82 82 82 80 80 80 74 74 74 85 85 85 88 88 88 89 89 89 87 87 87 86 86 86 86 86 86 128 91 129 86 86 86 86 86 86 87 87 87 72 72 72 77 77 77 75 75 75 70 70 70 88 88 88 72 72 72 85 85 85 83 83 83 88 88 88 77 77 77 79 79 79 75 75 75 74 74 74 83 83 83 84 84 84 85 85 85 82 82 82 82 82 82 82 82 82 75 75 75 80 80 80 85 85 85 75 75 75 88 88 88 74 74 74 81 81 81 78 78 78 75 75 75 86 86 86 82 82 82 82 82 82 86 86 86 119 92 131 76 76 76 75 75 75 70 70 70 85 85 85 81 81 81 74 74 74 82 82 82 78 78 78 88 88 88 73 73 73 80 80 80 88 88 88 86 86 86 79 79 79 80 80 80 89 89 89 85 85 85 76 76 76 84 84 84 82 82 82 82 82 82 82 82 82 84 84 84 106 94 134 77 77 77 84 84 84 72 72 72 70 70 70 87 87 87 85 85 85 78 78 78 70 70 70 86 86 86 70 70 70 106 94 135 82 82 82 71 71 71 72 72 72 74 74 74 80 80 80 78 78 78 88 88 88 80 80 80 83 83 83 82 82 82 121 92 130 82 82 82 77 77 77 80 80 80 73 73 73 76 76 76 74 74 74 84 84 84 83 83 83 89 89 89 81 81 81 72 72 72 73 73 73 85 85 85 79 83 81 75 79 77 84 88 86 75 79 77 85 89 87 80 84 82 92 96 94 80 84 82 78 82 80 94 98 96 82 86 84 89 93 91 81 85 83 76 80 78 93 97 95 92 96 94 88 92 90 92 96 94 91 95 93 74 78 76 75 79 77 93 97 95 97 101 99 85 89 87 90 94 92 97 101 99 90 94 92 79 83 81 76 80 78 83 87 85 77 81 79 82 86 84 85 89 87 87 91 89 77 81 79 85 89 87 83 87 85 78 82 80 77 81 79 77 81 79 91 95 93 93 97 95 95 99 97 77 81 79 90 94 92 85 89 87 77 81 79 89 93 91 76 80 78 76 80 78 77 81 79 76 80 78 76 80 78 92 96 94 85 89 87 74 78 76 92 96 94 75 79 77 76 80 78 95 99 97 77 81 79 80 84 82 87 91 89 94 98 96 95 99 97 93 97 95 90 94 92 89 93 91 79 83 81 80 84 82 97 101 99 92 96 94 77 81 79 84 88 86 80 84 82 96 100 98 77 81 79 85 89 87 87 91 89 97 101 99 74 78 76 95 99 97 22 26 27 22 26 27 22 26 27 22 26 27 22 26 27 22 26 27 22 26 27 22 26 27 22 26 27 22 26 27 22 26 27 22 26 27 22 26 27 22 26 27 22 26 27 22 26 27 22 26 27 22 26 27 22 26 27 22 26 27 22 26 27 22 26 27 22 26 27 22 26 27 22 26 27 22 26 27 22 26 27 22 26 27 22 26 27 22 26 27 22 26 27 22 26 27 22 26 27 22 26 27 22 26 27 22 26 27 22 26 27 22 26 27 22 26 27 22 26 27 22 26 27 22 26 27 22 26 27 22 26 27 22 26 27 22 26 27 22 26 27 22 26 27 22 26 27
22 26 27 22 26 27 22 26 27 78 82 82 78 82 82 77 81 81 22 26 27 92 96 96 71 75 75 76 80 80 77 81 81 22 26 27 83 87 87 77 81 81 83 87 87 83 87 87 91 91 91 82 82 82 86 86 86 91 91 91 91 91 91 79 79 79 130 98 137 75 75 75 91 91 91 90 90 90 80 80 80 77 77 77 87 87 87 85 85 85 91 91 91 75 75 75 89 89 89 83 83 83 75 75 75 90 90 90 89 89 89 87 87 87 88 88 88 87 87 87 120 100 140 87 87 87 126 99 138 84 84 84 91 91 91 84 84 84 77 77 77 86 86 86 79 79 79 86 86 86 91 91 91 88 88 88 122 99 139 79 79 79 76 76 76 83 83 83 75 75 75 82 82 82 91 91 91 80 80 80 85 85 85 86 86 86 88 88 88 88 88 88 92 92 92 80 80 80 87 87 87 82 82 82 79 79 79 80 80 80 80 80 80 79 79 79 79 79 79 88 88 88 83 83 83 88 88 88 82 82 82 82 82 82 89 89 89 84 84 84 89 89 89 80 80 80 86 86 86 79 79 79 88 88 88 90 90 90 79 79 79 91 91 91 87 87 87 86 86 86 79 79 79 79 79 79 86 86 86 78 78 78 82 82 82 90 90 90 91 91 91 86 86 86 76 76 76 83 83 83 76 76 76 78 78 78 91 91 91 91 91 91 77 77 77 91 91 91 75 75 75 86 86 86 88 88 88 80 80 80 79 79 79 86 86 86 78 78 78 83 83 83 85 85 85 92 92 92 80 80 80 88 88 88 76 76 76 127 99 138 91 91 91 90 90 90 86 86 86 86 86 86 91 91 91 88 92 90 76 80 78 78 82 80 86 90 88 77 81 79 84 88 86 91 95 93 93 97 95 93 97 95 93 97 95 81 85 83 74 78 76 84 88 86 79 83 81 81 85 83 93 97 95 89 93 91 85 89 87 97 101 99 95 99 97 75 79 77 77 81 79 85 89 87 80 84 82 77 81 79 87 91 89 79 83 81 82 86 84 80 84 82 79 83 81 92 96 94 86 90 88 84 88 86 83 87 85 85 89 87 87 91 89 79 83 81 95 99 97 84 88 86 87 91 89 77 81 79 80 84 82 88 92 90 93 97 95 82 86 84 95 99 97 87 91 89 85 89 87 78 82 80 89 93 91 75 79 77 97 101 99 79 83 81 88 92 90 91 95 93 84 88 86 76 80 78 92 96 94 87 91 89 93 97 95 92 96 94 88 92 90 88 92 90 84 88 86 87 91 89 86 90 88 89 93 91 85 89 87 95 99 97 85 89 87 81 85 83 85 89 87 98 102 100 79 83 81 76 80 78 77 81 79 94 98 96 82 86 84 77 81 79 89 93 91 95 99 97 83 87 85 22 26 27 22 26 27 22 26 27 22 26 27 22 26 27 22 26 27 22 26 27 22 26 27 22 26 27 22 26 27 22 26 27 22 26 27 22 26 27 22 26 27 22 26 27 22 26 27 22 26 27 22 26 27 22 26 27 22 26 27 22 26 27 22 26 27 22 26 27 22 26 27 22 26 27 22 26 27 22 26 27 22 26 27 22 26 27 22 26 27 22 26 27 22 26 27 22 26 27 22 26 27 22 26 27 22 26 27 22 26 27 22 26 27 22 26 27 22 26 27 22 26 27 22 26 27 22 26 27 22 26 27 22 26 27 22 26 27 22 26 27 22 26 27 22 26 27
22 26 27 22 26 27 22 26 27 91 95 95 93 97 97 87 91 91 22 26 27 88 92 92 75 79 79 76 80 80 87 91 91 22 26 27 88 92 92 74 78 78 72 76 76 71 75 75 83 83 83 91 91 91 81 81 81 91 91 91 93 93 93 86 86 86 84 84 84 92 92 92 142 103 142 91 91 91 91 91 91 92 92 92 89 89 89 84 84 84 90 90 90 125 106 147 80 80 80 83 83 83 91 91 91 83 83 83 88 88 88 88 88 88 91 91 91 83 83 83 91 91 91 90 90 90 91 91 91 80 80 80 93 93 93 83 83 83 93 93 93 93 93 93 92 92 92 80 80 80 92 92 92 93 93 93 88 88 88 91 91 91 86 86 86 82 82 82 88 88 88 82 82 82 92 92 92 82 82 82 85 85 85 85 85 85 121 106 148 93 93 93 89 89 89 83 83 83 91 91 91 85 85 85 91 91 91 86 86 86 83 83 83 92 92 92 93 93 93 93 93 93 91 91 91 92 92 92 92 92 92 85 85 85 82 82 82 86 86 86 92 92 92 92 92 92 93 93 93 85 85 85 93 93 93 82 82 82 90 90 90 92 92 92 93 93 93 89 89 89 92 92 92 142 103 142 90 90 90 80 80 80 87 87 87 91 91 91 80 80 80 92 92 92 92 92 92 84 84 84 90 90 90 91 91 91 92 92 92 92 92 92 91 91 91 91 91 91 90 90 90 88 88 88 91 91 91 91 91 91 92 92 92 92 92 92 93 93 93 88 88 88 92 92 92 129 105 145 82 82 82 81 81 81 92 92 92 92 92 92 93 93 93 82 82 82 92 92 92 89 89 89 82 82 82 92 96 94 80 84 82 76 80 78 97 101 99 91 95 93 86 90 88 81 85 83 90 94 92 96 100 98 87 91 89 97 101 99 87 91 89 85 89 87 88 92 90 84 88 86 84 88 86 87 91 89 79 83 81 78 82 80 86 90 88 81 85 83 86 90 88 81 85 83 76 80 78 80 84 82 74 78 76 86 90 88 81 85 83 92 96 94 77 81 79 91 95 93 87 91 89 90 94 92 97 101 99 86 90 88 93 97 95 85 89 87 82 86 84 82 86 84 89 93 91 80 84 82 88 92 90 77 81 79 86 90 88 91 95 93 77 81 79 83 87 85 87 91 89 88 92 90 95 99 97 86 90 88 81 85 83 98 102 100 93 97 95 86 90 88 81 85 83 88 92 90 84 88 86 86 90 88 89 93 91 96 100 98 92 96 94 94 98 96 79 83 81 75 79 77 90 94 92 86 90 88 96 100 98 90 94 92 94 98 96 90 94 92 98 102 100 83 87 85 84 88 86 88 92 90 84 88 86 74 78 76 89 93 91 85 89 87 86 90 88 90 94 92 90 94 92 22 26 27 22 26 27 22 26 27 22 26 27 22 26 27 22 26 27 22 26 27 22 26 27 22 26 27 22 26 27 22 26 27 22 26 27 22 26 27 22 26 27 22 26 27 22 26 27 22 26 27 22 26 27 22 26 27 22 26 27 22 26 27 22 26 27 22 26 27 22 26 27 22 26 27 22 26 27 22 26 27 22 26 27 22 26 27 22 26 27 22 26 27 22 26 27 22 26 27 22 26 27 22 26 27 22 26 27 22 26 27 22 26 27 22 26 27 22 26 27 22 26 27 22 26 27 22 26 27 22 26 27 22 26 27 22 26 27 22 26 27 22 26 27 22 26 27
22 26 27 22 26 27 22 26 27 78 82 82 80 84 84 84 88 88 22 26 27 89 93 93 73 77 77 74 78 78 91 95 95 22 26 27 70 74 74 89 93 93 71 75 75 71 75 75 88 88 88 92 92 92 92 92 92 94 94 94 92 92 92 89 89 89 90 90 90 83 83 83 91 91 91 93 93 93 85 85 85 88 88 88 84 84 84 89 89 89 94 94 94 83 83 83 88 88 88 94 94 94 83 83 83 90 90 90 94 94 94 85 85 85 94 94 94 90 90 90 92 92 92 91 91 91 85 85 85 94 94 94 90 90 90 85 85 85 85 85 85 85 85 85 94 94 94 93 93 93 93 93 93 90 90 90 134 109 150 93 93 93 86 86 86 87 87 87 130 109 151 86 86 86 92 92 92 90 90 90 93 93 93 94 94 94 93 93 93 93 93 93 92 92 92 89 89 89 94 94 94 88 88 88 92 92 92 123 110 153 89 89 89 88 88 88 89 89 89 94 94 94 90 90 90 88 88 88 88 88 88 91 91 91 93 93 93 93 93 93 92 92 92 124 110 152 94 94 94 91 91 91 89 89 89 92 92 92 85 85 85 94 94 94 92 92 92 94 94 94 89 89 89 88 88 88 93 93 93 92 92 92 92 92 92 88 88 88 89 89 89 92 92 92 84 84 84 89 89 89 92 92 92 93 93 93 92 92 92 92 92 92 82 82 82 93 93 93 87 87 87 91 91 91 92 92 92 93 93 93 85 85 85 85 85 85 91 91 91 92 92 92 88 88 88 94 94 94 93 93 93 93 93 93 82 82 82 88 88 88 92 92 92 88 88 88 90 90 90 89 89 89 87 87 87 86 90 88 95 99 97 77 81 79 83 87 85 93 97 95 94 98 96 78 82 80 80 84 82 92 96 94 97 101 99 79 83 81 83 87 85 94 98 96 92 96 94 74 78 76 90 94 92 91 95 93 79 83 81 78 82 80 77 81 79 89 93 91 76 80 78 84 88 86 78 82 80 94 98 96 82 86 84 81 85 83 97 101 99 89 93 91 78 82 80 94 98 96 80 84 82 84 88 86 86 90 88 80 84 82 81 85 83 78 82 80 94 98 96 82 86 84 89 93 91 75 79 77 85 89 87 82 86 84 94 98 96 89 93 91 89 93 91 89 93 91 94 98 96 80 84 82 96 100 98 90 94 92 89 93 91 89 93 91 80 84 82 91 95 93 96 100 98 79 83 81 78 82 80 97 101 99 82 86 84 84 88 86 81 85 83 96 100 98 80 84 82 74 78 76 96 100 98 92 96 94 77 81 79 79 83 81 93 97 95 89 93 91 78 82 80 96 100 98 77 81 79 81 85 83 74 78 76 91 95 93 78 82 80 97 101 99 81 85 83 90 94 92 81 85 83 22 26 27 22 26 27 22 26 27 22 26 27 22 26 27 22 26 27 22 26 27 22 26 27 22 26 27 22 26 27 22 26 27 22 26 27 22 26 27 22 26 27 22 26 27 22 26 27 22 26 27 22 26 27 22 26 27 22 26 27 22 26 27 22 26 27 22 26 27 22 26 27 22 26 27 22 26 27 22 26 27 22 26 27 22 26 27 22 26 27 22 26 27 22 26 27 22 26 27 22 26 27 22 26 27 22 26 27 22 26 27 22 26 27 22 26 27 22 26 27 22 26 27 22 26 27 22 26 27 22 26 27 22 26 27 22 26 27 22 26 27 22 26 27 22 26 27
22 26 27 22 26 27 22 26 27 86 90 90 83 87 87 93 97 97 22 26 27 74 78 78 71 75 75 72 76 76 71 75 75 22 26 27 82 86 86 83 87 87 77 81 81 84 88 88 93 93 93 84 84 84 84 84 84 132 110 151 93 93 93 94 94 94 93 93 93 83 83 83 91 91 91 91 91 91 91 91 91 93 93 93 89 89 89 91 91 91 94 94 94 92 92 92 93 93 93 137 109 150 94 94 94 94 94 94 92 92 92 94 94 94 83 83 83 91 91 91 93 93 93 85 85 85 139 109 149 91 91 91 94 94 94 91 91 91 93 93 93 90 90 90 93 93 93 91 91 91 92 92 92 93 93 93 93 93 93 93 93 93 92 92 92 93 93 93 91 91 91 90 90 90 86 86 86 91 91 91 91 91 91 85 85 85 89 89 89 91 91 91 87 87 87 93 93 93 85 85 85 93 93 93 92 92 92 94 94 94 90 90 90 93 93 93 126 111 153 94 94 94 92 92 92 93 93 93 91 91 91 91 91 91 93 93 93 86 86 86 92 92 92 93 93 93 89 89 89 85 85 85 130 110 152 131 110 151 92 92 92 86 86 86 83 83 83 91 91 91 85 85 85 92 92 92 91 91 91 92 92 92 91 91 91 85 85 85 93 93 93 93 93 93 86 86 86 93 93 93 89 89 89 90 90 90 91 91 91 93 93 93 124 111 153 93 93 93 88 88 88 93 93 93 92 92 92 92 92 92 92 92 92 91 91 91 90 90 90 94 94 94 90 90 90 88 88 88 87 87 87 93 93 93 94 94 94 85 85 85 93 93 93 91 91 91 93 93 93 93 93 93 86 86 86 81 85 83 93 97 95 95 99 97 93 97 95 87 91 89 77 81 79 80 84 82 96 100 98 78 82 80 79 83 81 95 99 97 87 91 89 82 86 84 88 92 90 97 101 99 80 84 82 80 84 82 84 88 86 86 90 88 85 89 87 92 96 94 89 93 91 76 80 78 79 83 81 75 79 77 95 99 97 88 92 90 88 92 90 88 92 90 92 96 94 92 96 94 92 96 94 93 97 95 90 94 92 96 100 98 82 86 84 83 87 85 96 100 98 78 82 80 94 98 96 86 90 88 74 78 76 86 90 88 79 83 81 92 96 94 81 85 83 82 86 84 79 83 81 83 87 85 97 101 99 84 88 86 80 84 82 89 93 91 87 91 89 88 92 90 74 78 76 93 97 95 76 80 78 86 90 88 75 79 77 91 95 93 79 83 81 92 96 94 90 94 92 75 79 77 88 92 90 88 92 90 90 94 92 76 80 78 81 85 83 87 91 89 98 102 100 88 92 90 86 90 88 95 99 97 78 82 80 80 84 82 78 82 80 93 97 95 94 98 96 97 101 99 86 90 88 22 26 27 22 26 27 22 26 27 22 26 27 22 26 27 22 26 27 22 26 27 22 26 27 22 26 27 22 26 27 22 26 27 22 26 27 22 26 27 22 26 27 22 26 27 22 26 27 22 26 27 22 26 27 22 26 27 22 26 27 22 26 27 22 26 27 22 26 27 22 26 27 22 26 27 22 26 27 22 26 27 22 26 27 22 26 27 22 26 27 22 26 27 22 26 27 22 26 27 22 26 27 22 26 27 22 26 27 22 26 27 22 26 27 22 26 27 22 26 27 22 26 27 22 26 27 22 26 27 22 26 27 22 26 27 22 26 27 22 26 27 22 26 27 22 26 27
22 26 27 22 26 27 22 26 27 78 82 82 90 94 94 76 80 80 22 26 27 73 77 77 82 86 86 73 77 77 75 79 79 22 26 27 81 85 85 81 85 85 83 87 87 89 93 93 87 87 87 88 88 88 86 86 86 82 82 82 91 91 91 82 82 82 120 108 150 92 92 92 92 92 92 84 84 84 86 86 86 85 85 85 92 92 92 92 92 92 83 83 83 84 84 84 93 93 93 83 83 83 127 107 149 91 91 91 91 91 91 87 87 87 93 93 93 86 86 86 81 81 81 92 92 92 92 92 92 82 82 82 91 91 91 93 93 93 89 89 89 93 93 93 126 108 149 93 93 93 92 92 92 84 84 84 91 91 91 130 107 148 144 105 144 127 107 149 87 87 87 93 93 93 91 91 91 93 93 93 93 93 93 135 106 147 136 106 146 90 90 90 87 87 87 93 93 93 86 86 86 92 92 92 86 86 86 91 91 91 92 92 92 94 94 94 81 81 81 86 86 86 93 93 93 87 87 87 93 93 93 124 108 150 84 84 84 94 94 94 93 93 93 89 89 89 93 93 93 93 93 93 85 85 85 94 94 94 92 92 92 92 92 92 85 85 85 92 92 92 91 91 91 84 84 84 93 93 93 94 94 94 82 82 82 93 93 93 92 92 92 92 92 92 92 92 92 91 91 91 92 92 92 83 83 83 93 93 93 91 91 91 84 84 84 83 83 83 84 84 84 91 91 91 93 93 93 90 90 90 83 83 83 94 94 94 93 93 93 85 85 85 85 85 85 86 86 86 93 93 93 138 106 146 92 92 92 89 89 89 93 93 93 91 91 91 86 86 86 88 88 88 83 83 83 82 86 84 97 101 99 77 81 79 88 92 90 80 84 82 92 96 94 84 88 86 83 87 85 77 81 79 77 81 79 77 81 79 76 80 78 81 85 83 74 78 76 87 91 89 90 94 92 86 90 88 77 81 79 84 88 86 84 88 86 86 90 88 78 82 80 87 91 89 74 78 76 90 94 92 76 80 78 95 99 97 81 85 83 86 90 88 79 83 81 87 91 89 85 89 87 93 97 95 97 101 99 92 96 94 90 94 92 94 98 96 85 89 87 78 82 80 82 86 84 83 87 85 85 89 87 94 98 96 75 79 77 81 85 83 83 87 85 88 92 90 95 99 97 79 83 81 87 91 89 84 88 86 93 97 95 87 91 89 79 83 81 80 84 82 88 92 90 80 84 82 93 97 95 86 90 88 95 99 97 82 86 84 76 80 78 96 100 98 75 79 77 92 96 94 88 92 90 86 90 88 88 92 90 97 101 99 94 98 96 76 80 78 98 102 100 76 80 78 88 92 90 74 78 76 85 89 87 92 96 94 95 99 97 89 93 91 74 78 76 91 95 93 87 91 89 22 26 27 22 26 27 22 26 27 22 26 27 22 26 27 22 26 27 22 26 27 22 26 27 22 26 27 22 26 27 22 26 27 22 26 27 22 26 27 22 26 27 22 26 27 22 26 27 22 26 27 22 26 27 22 26 27 22 26 27 22 26 27 22 26 27 22 26 27 22 26 27 22 26 27 22 26 27 22 26 27 22 26 27 22 26 27 22 26 27 22 26 27 22 26 27 22 26 27 22 26 27 22 26 27 22 26 27 22 26 27 22 26 27 22 26 27 22 26 27 22 26 27 22 26 27 22 26 27 22 26 27 22 26 27 22 26 27 22 26 27 22 26 27 22 26 27
22 26 27 22 26 27 22 26 27 90 94 94 89 93 93 82 86 86 22 26 27 70 74 74 70 74 74 89 93 93 81 85 85 22 26 27 70 74 74 78 82 82 90 94 94 74 78 78 84 84 84 83 83 83 78 78 78 92 92 92 124 102 142 80 80 80 84 84 84 88 88 88 86 86 86 84 84 84 89 89 89 78 78 78 78 78 78 88 88 88 92 92 92 79 79 79 88 88 88 129 101 141 84 84 84 78 78 78 92 92 92 84 84 84 89 89 89 78 78 78 138 100 138 87 87 87 87 87 87 81 81 81 115 103 144 119 102 144 87 87 87 88 88 88 92 92 92 88 88 88 81 81 81 90 90 90 92 92 92 84 84 84 92 92 92 85 85 85 92 92 92 85 85 85 92 92 92 79 79 79 137 100 139 91 91 91 84 84 84 80 80 80 91 91 91 92 92 92 92 92 92 88 88 88 77 77 77 91 91 91 91 91 91 91 91 91 79 79 79 127 101 141 89 89 89 92 92 92 90 90 90 80 80 80 78 78 78 92 92 92 91 91 91 91 91 91 79 79 79 92 92 92 90 90 90 86 86 86 92 92 92 92 92 92 90 90 90 92 92 92 82 82 82 78 78 78 92 92 92 92 92 92 86 86 86 91 91 91 92 92 92 79 79 79 89 89 89 82 82 82 78 78 78 77 77 77 89 89 89 82 82 82 91 91 91 79 79 79 83 83 83 82 82 82 86 86 86 82 82 82 90 90 90 90 90 90 140 100 138 85 85 85 91 91 91 84 84 84 92 92 92 88 88 88 79 79 79 82 82 82 86 86 86 83 83 83 77 77 77 80 80 80 92 92 92 78 82 80 88 92 90 93 97 95 75 79 77 81 85 83 82 86 84 95 99 97 83 87 85 77 81 79 92 96 94 93 97 95 90 94 92 83 87 85 86 90 88 85 89 87 89 93 91 76 80 78 92 96 94 92 96 94 89 93 91 80 84 82 96 100 98 84 88 86 77 81 79 78 82 80 96 100 98 79 83 81 92 96 94 91 95 93 77 81 79 75 79 77 81 85 83 97 101 99 89 93 91 86 90 88 80 84 82 96 100 98 95 99 97 87 91 89 79 83 81 78 82 80 79 83 81 78 82 80 88 92 90 82 86 84 97 101 99 77 81 79 94 98 96 81 85 83 82 86 84 84 88 86 88 92 90 89 93 91 86 90 88 84 88 86 85 89 87 76 80 78 77 81 79 80 84 82 91 95 93 83 87 85 80 84 82 85 89 87 88 92 90 79 83 81 81 85 83 88 92 90 75 79 77 94 98 96 78 82 80 94 98 96 88 92 90 74 78 76 86 90 88 91 95 93 79 83 81 89 93 91 84 88 86 77 81 79 98 102 100 95 99 97 76 80 78 22 26 27 22 26 27 22 26 27 22 26 27 22 26 27 22 26 27 22 26 27 22 26 27 22 26 27 22 26 27 22 26 27 22 26 27 22 26 27 22 26 27 22 26 27 22 26 27 22 26 27 22 26 27 22 26 27 22 26 27 22 26 27 22 26 27 22 26 27 22 26 27 22 26 27 22 26 27 22 26 27 22 26 27 22 26 27 22 26 27 22 26 27 22 26 27 22 26 27 22 26 27 22 26 27 22 26 27 22 26 27 22 26 27 22 26 27 22 26 27 22 26 27 22 26 27 22 26 27 22 26 27 22 26 27 22 26 27 22 26 27 22 26 27 22 26 27
22 26 27 22 26 27 22 26 27 78 82 82 78 82 82 77 81 81 22 26 27 81 85 85 77 81 81 88 92 92 83 87 87 22 26 27 71 75 75 86 90 90 85 89 89 72 76 76 76 76 76 88 88 88 88 88 88 90 90 90 74 74 74 89 89 89 81 81 81 73 73 73 75 75 75 79 79 79 86 86 86 80 80 80 89 89 89 78 78 78 79 79 79 76 76 76 77 77 77 75 75 75 86 86 86 81 81 81 72 72 72 86 86 86 76 76 76 77 77 77 77 77 77 78 78 78 75 75 75 87 87 87 77 77 77 88 88 88 75 75 75 82 82 82 89 89 89 88 88 88 83 83 83 90 90 90 78 78 78 89 89 89 73 73 73 119 95 134 83 83 83 79 79 79 88 88 88 83 83 83 84 84 84 89 89 89 76 76 76 119 95 134 89 89 89 74 74 74 80 80 80 82 82 82 73 73 73 83 83 83 75 75 75 126 94 133 84 84 84 78 78 78 90 90 90 85 85 85 73 73 73 89 89 89 75 75 75 74 74 74 89 89 89 74 74 74 87 87 87 85 85 85 77 77 77 76 76 76 77 77 77 79 79 79 85 85 85 90 90 90 85 85 85 78 78 78 83 83 83 73 73 73 77 77 77 108 97 137 77 77 77 84 84 84 83 83 83 82 82 82 81 81 81 90 90 90 72 72 72 85 85 85 77 77 77 89 89 89 81 81 81 90 90 90 86 86 86 90 90 90 72 72 72 89 89 89 87 87 87 77 77 77 89 89 89 75 75 75 81 81 81 87 87 87 75 75 75 90 90 90 90 90 90 85 85 85 88 88 88 82 82 82 90 90 90 89 93 91 86 90 88 80 84 82 96 100 98 92 96 94 88 92 90 84 88 86 94 98 96 78 82 80 81 85 83 74 78 76 95 99 97 98 102 100 88 92 90 87 91 89 86 90 88 95 99 97 89 93 91 81 85 83 78 82 80 82 86 84 83 87 85 85 89 87 78 82 80 79 83 81 91 95 93 84 88 86 98 102 100 91 95 93 75 79 77 83 87 85 74 78 76 95 99 97 90 94 92 78 82 80 86 90 88 75 79 77 80 84 82 83 87 85 78 82 80 89 93 91 77 81 79 85 89 87 93 97 95 79 83 81 84 88 86 90 94 92 97 101 99 96 100 98 84 88 86 85 89 87 96 100 98 89 93 91 93 97 95 95 99 97 80 84 82 97 101 99 88 92 90 91 95 93 89 93 91 97 101 99 88 92 90 87 91 89 97 101 99 94 98 96 87 91 89 79 83 81 88 92 90 85 89 87 93 97 95 76 80 78 90 94 92 81 85 83 78 82 80 80 84 82 87 91 89 83 87 85 93 97 95 88 92 90 79 83 81 82 86 84 95 99 97 22 26 27 22 26 27 22 26 27 22 26 27 22 26 27 22 26 27 22 26 27 22 26 27 22 26 27 22 26 27 22 26 27 22 26 27 22 26 27 22 26 27 22 26 27 22 26 27 22 26 27 22 26 27 22 26 27 22 26 27 22 26 27 22 26 27 22 26 27 22 26 27 22 26 27 22 26 27 22 26 27 22 26 27 22 26 27 22 26 27 22 26 27 22 26 27 22 26 27 22 26 27 22 26 27 22 26 27 22 26 27 22 26 27 22 26 27 22 26 27 22 26 27 22 26 27 22 26 27 22 26 27 22 26 27 22 26 27 22 26 27 22 26 27 22 26 27
22 26 27 22 26 27 22 26 27 91 95 95 88 92 92 83 87 87 22 26 27 73 77 77 84 88 88 70 74 74 92 96 96 22 26 27 85 89 89 71 75 75 87 91 91 72 76 76 120 88 126 76 76 76 85 85 85 78 78 78 81 81 81 74 74 74 77 77 77 74 74 74 82 82 82 75 75 75 112 89 128 86 86 86 77 77 77 82 82 82 128 87 124 79 79 79 74 74 74 72 72 72 73 73 73 74 74 74 82 82 82 77 77 77 84 84 84 71 71 71 72 72 72 80 80 80 72 72 72 78 78 78 122 88 125 68 68 68 82 82 82 78 78 78 73 73 73 77 77 77 85 85 85 86 86 86 74 74 74 68 68 68 80 80 80 82 82 82 73 73 73 83 83 83 85 85 85 85 85 85 111 90 128 74 74 74 80 80 80 86 86 86 106 90 130 85 85 85 71 71 71 85 85 85 83 83 83 75 75 75 84 84 84 78 78 78 68 68 68 81 81 81 82 82 82 83 83 83 80 80 80 81 81 81 71 71 71 78 78 78 85 85 85 70 70 70 78 78 78 80 80 80 69 69 69 73 73 73 74 74 74 80 80 80 80 80 80 71 71 71 78 78 78 69 69 69 68 68 68 86 86 86 79 79 79 82 82 82 68 68 68 78 78 78 82 82 82 84 84 84 69 69 69 78 78 78 78 78 78 71 71 71 84 84 84 78 78 78 80 80 80 69 69 69 75 75 75 69 69 69 111 90 129 85 85 85 74 74 74 74 74 74 69 69 69 83 83 83 77 77 77 81 81 81 123 88 125 80 80 80 74 74 74 85 85 85 116 89 127 69 69 69 72 72 72 85 89 87 95 99 97 81 85 83 97 101 99 77 81 79 87 91 89 78 82 80 95 99 97 78 82 80 93 97 95 75 79 77 74 78 76 91 95 93 80 84 82 85 89 87 78 82 80 77 81 79 96 100 98 87 91 89 74 78 76 85 89 87 75 79 77 84 88 86 93 97 95 91 95 93 91 95 93 93 97 95 92 96 94 98 102 100 89 93 91 79 83 81 92 96 94 92 96 94 95 99 97 80 84 82 96 100 98 79 83 81 96 100 98 95 99 97 92 96 94 86 90 88 88 92 90 88 92 90 88 92 90 92 96 94 79 83 81 88 92 90 94 98 96 89 93 91 78 82 80 76 80 78 89 93 91 93 97 95 91 95 93 92 96 94 87 91 89 90 94 92 91 95 93 75 79 77 80 84 82 89 93 91 82 86 84 91 95 93 83 87 85 79 83 81 91 95 93 87 91 89 88 92 90 79 83 81 77 81 79 94 98 96 77 81 79 76 80 78 90 94 92 78 82 80 97 101 99 76 80 78 80 84 82 79 83 81 91 95 93 88 92 90 82 86 84 22 26 27 22 26 27 22 26 27 22 26 27 22 26 27 22 26 27 22 26 27 22 26 27 22 26 27 22 26 27 22 26 27 22 26 27 22 26 27 22 26 27 22 26 27 22 26 27 22 26 27 22 26 27 22 26 27 22 26 27 22 26 27 22 26 27 22 26 27 22 26 27 22 26 27 22 26 27 22 26 27 22 26 27 22 26 27 22 26 27 22 26 27 22 26 27 22 26 27 22 26 27 22 26 27 22 26 27 22 26 27 22 26 27 22 26 27 22 26 27 22 26 27 22 26 27 22 26 27 22 26 27 22 26 27 22 26 27 22 26 27 22 26 27 22 26 27
22 26 27 22 26 27 22 26 27 87 91 91 84 88 88 75 79 79 22 26 27 72 76 76 79 83 83 89 93 93 76 80 80 22 26 27 76 80 80 89 93 93 74 78 78 71 75 75 79 79 79 71 71 71 71 71 71 82 82 82 77 77 77 65 65 65 64 64 64 81 81 81 72 72 72 64 64 64 78 78 78 66 66 66 81 81 81 77 77 77 66 66 66 76 76 76 118 84 120 106 85 124 74 74 74 73 73 73 75 75 75 82 82 82 76 76 76 80 80 80 74 74 74 82 82 82 104 85 124 79 79 79 78 78 78 78 78 78 121 83 119 81 81 81 76 76 76 82 82 82 76 76 76 69 69 69 75 75 75 74 74 74 78 78 78 71 71 71 64 64 64 74 74 74 73 73 73 81 81 81 80 80 80 71 71 71 77 77 77 67 67 67 66 66 66 80 80 80 82 82 82 71 71 71 73 73 73 71 71 71 78 78 78 107 85 123 65 65 65 74 74 74 67 67 67 68 68 68 69 69 69 81 81 81 73 73 73 74 74 74 68 68 68 74 74 74 67 67 67 77 77 77 72 72 72 76 76 76 67 67 67 65 65 65 68 68 68 80 80 80 66 66 66 76 76 76 81 81 81 77 77 77 76 76 76 79 79 79 79 79 79 71 71 71 123 83 119 66 66 66 81 81 81 67 67 67 78 78 78 69 69 69 78 78 78 79 79 79 74 74 74 74 74 74 76 76 76 78 78 78 73 73 73 66 66 66 71 71 71 75 75 75 67 67 67 79 79 79 72 72 72 74 74 74 115 84 121 69 69 69 66 66 66 70 70 70 66 66 66 77 77 77 80 80 80 87 91 89 82 86 84 94 98 96 78 82 80 90 94 92 92 96 94 76 80 78 90 94 92 75 79 77 87 91 89 92 96 94 84 88 86 79 83 81 91 95 93 76 80 78 96 100 98 86 90 88 92 96 94 90 94 92 96 100 98 87 91 89 83 87 85 82 86 84 86 90 88 80 84 82 96 100 98 76 80 78 88 92 90 86 90 88 92 96 94 77 81 79 89 93 91 93 97 95 79 83 81 86 90 88 93 97 95 80 84 82 97 101 99 89 93 91 85 89 87 93 97 95 87 91 89 78 82 80 96 100 98 77 81 79 80 84 82 84 88 86 87 91 89 79 83 81 77 81 79 98 102 100 95 99 97 84 88 86 91 95 93 82 86 84 96 100 98 94 98 96 85 89 87 82 86 84 75 79 77 85 89 87 94 98 96 83 87 85 93 97 95 92 96 94 95 99 97 94 98 96 86 90 88 77 81 79 87 91 89 83 87 85 88 92 90 95 99 97 81 85 83 81 85 83 91 95 93 81 85 83 82 86 84 89 93 91 86 90 88 74 78 76 91 95 93 22 26 27 22 26 27 22 26 27 22 26 27 22 26 27 22 26 27 22 26 27 22 26 27 22 26 27 22 26 27 22 26 27 22 26 27 22 26 27 22 26 27 22 26 27 22 26 27 22 26 27 22 26 27 22 26 27 22 26 27 22 26 27 22 26 27 22 26 27 22 26 27 22 26 27 22 26 27 22 26 27 22 26 27 22 26 27 22 26 27 22 26 27 22 26 27 22 26 27 22 26 27 22 26 27 22 26 27 22 26 27 22 26 27 22 26 27 22 26 27 22 26 27 22 26 27 22 26 27 22 26 27 22 26 27 22 26 27 22 26 27 22 26 27 22 26 27
22 26 27 22 26 27 22 26 27 93 97 97 82 86 86 73 77 77 22 26 27 83 87 87 90 94 94 74 78 78 88 92 92 22 26 27 81 85 85 73 77 77 77 81 81 78 82 82 66 66 66 63 63 63 79 79 79 119 80 116 79 79 79 68 68 68 73 73 73 74 74 74 63 63 63 77 77 77 62 62 62 67 67 67 70 70 70 74 74 74 68 68 68 74 74 74 66 66 66 80 80 80 72 72 72 76 76 76 68 68 68 80 80 80 76 76 76 97 83 122 77 77 77 78 78 78 70 70 70 64 64 64 78 78 78 69 69 69 77 77 77 65 65 65 98 83 122 62 62 62 72 72 72 78 78 78 70 70 70 67 67 67 76 76 76 67 67 67 63 63 63 75 75 75 77 77 77 77 77 77 79 79 79 76 76 76 73 73 73 64 64 64 79 79 79 65 65 65 79 79 79 67 67 67 78 78 78 62 62 62 77 77 77 66 66 66 76 76 76 72 72 72 79 79 79 68 68 68 76 76 76 78 78 78 71 71 71 67 67 67 65 65 65 69 69 69 63 63 63 69 69 69 75 75 75 76 76 76 67 67 67 77 77 77 76 76 76 78 78 78 66 66 66 106 82 119 72 72 72 74 74 74 62 62 62 79 79 79 67 67 67 75 75 75 75 75 75 68 68 68 77 77 77 102 82 121 77 77 77 77 77 77 67 67 67 72 72 72 62 62 62 71 71 71 74 74 74 76 76 76 74 74 74 76 76 76 74 74 74 65 65 65 69 69 69 72 72 72 74 74 74 75 75 75 80 80 80 66 66 66 77 77 77 63 63 63 77 77 77 71 71 71 71 71 71 97 101 99 87 91 89 91 95 93 77 81 79 84 88 86 76 80 78 91 95 93 92 96 94 92 96 94 95 99 97 75 79 77 98 102 100 80 84 82 83 87 85 89 93 91 83 87 85 83 87 85 91 95 93 91 95 93 81 85 83 78 82 80 93 97 95 95 99 97 86 90 88 91 95 93 80 84 82 94 98 96 87 91 89 86 90 88 88 92 90 79 83 81 82 86 84 77 81 79 85 89 87 93 97 95 96 100 98 94 98 96 79 83 81 83 87 85 96 100 98 91 95 93 93 97 95 87 91 89 89 93 91 87 91 89 97 101 99 91 95 93 88 92 90 97 101 99 86 90 88 83 87 85 88 92 90 75 79 77 92 96 94 81 85 83 93 97 95 85 89 87 86 90 88 85 89 87 94 98 96 88 92 90 79 83 81 84 88 86 92 96 94 88 92 90 96 100 98 75 79 77 79 83 81 80 84 82 91 95 93 86 90 88 95 99 97 84 88 86 77 81 79 86 90 88 88 92 90 85 89 87 92 96 94 84 88 86 95 99 97 90 94 92 95 99 97 22 26 27 22 26 27 22 26 27 22 26 27 22 26 27 22 26 27 22 26 27 22 26 27 22 26 27 22 26 27 22 26 27 22 26 27 22 26 27 22 26 27 22 26 27 22 26 27 22 26 27 22 26 27 22 26 27 22 26 27 22 26 27 22 26 27 22 26 27 22 26 27 22 26 27 22 26 27 22 26 27 22 26 27 22 26 27 22 26 27 22 26 27 22 26 27 22 26 27 22 26 27 22 26 27 22 26 27 22 26 27 22 26 27 22 26 27 22 26 27 22 26 27 22 26 27 22 26 27 22 26 27 22 26 27 22 26 27 22 26 27 22 26 27 22 26 27
22 26 27 22 26 27 22 26 27 89 93 93 77 81 81 85 89 89 22 26 27 81 85 85 87 91 91 91 95 95 74 78 78 22 26 27 86 90 90 90 94 94 79 83 83 76 80 80 74 74 74 76 76 76 70 70 70 78 78 78 112 79 115 74 74 74 77 77 77 74 74 74 70 70 70 76 76 76 74 74 74 78 78 78 65 65 65 77 77 77 62 62 62 63 63 63 75 75 75 62 62 62 74 74 74 68 68 68 73 73 73 66 66 66 75 75 75 69 69 69 61 61 61 64 64 64 78 78 78 66 66 66 75 75 75 62 62 62 65 65 65 77 77 77 64 64 64 100 81 119 69 69 69 63 63 63 78 78 78 72 72 72 63 63 63 75 75 75 76 76 76 68 68 68 78 78 78 67 67 67 72 72 72 70 70 70 67 67 67 63 63 63 66 66 66 69 69 69 63 63 63 63 63 63 67 67 67 73 73 73 72 72 72 70 70 70 72 72 72 73 73 73 76 76 76 76 76 76 72 72 72 73 73 73 78 78 78 77 77 77 79 79 79 64 64 64 68 68 68 78 78 78 67 67 67 73 73 73 65 65 65 70 70 70 73 73 73 66 66 66 66 66 66 72 72 72 68 68 68 73 73 73 77 77 77 72 72 72 98 81 119 62 62 62 62 62 62 60 60 60 78 78 78 75 75 75 76 76 76 72 72 72 61 61 61 66 66 66 72 72 72 60 60 60 69 69 69 79 79 79 64 64 64 65 65 65 102 80 118 70 70 70 68 68 68 64 64 64 69 69 69 66 66 66 74 74 74 63 63 63 70 70 70 63 63 63 65 65 65 72 72 72 79 79 79 74 78 76 86 90 88 90 94 92 96 100 98 75 79 77 80 84 82 88 92 90 98 102 100 98 102 100 82 86 84 77 81 79 95 99 97 91 95 93 85 89 87 76 80 78 78 82 80 78 82 80 79 83 81 79 83 81 86 90 88 84 88 86 87 91 89 78 82 80 82 86 84 84 88 86 79 83 81 75 79 77 93 97 95 95 99 97 83 87 85 94 98 96 88 92 90 81 85 83 76 80 78 91 95 93 86 90 88 79 83 81 93 97 95 76 80 78 83 87 85 86 90 88 97 101 99 95 99 97 85 89 87 82 86 84 79 83 81 77 81 79 93 97 95 87 91 89 86 90 88 93 97 95 77 81 79 87 91 89 93 97 95 98 102 100 88 92 90 87 91 89 97 101 99 78 82 80 77 81 79 86 90 88 86 90 88 93 97 95 75 79 77 98 102 100 77 81 79 96 100 98 86 90 88 81 85 83 74 78 76 92 96 94 80 84 82 75 79 77 96 100 98 96 100 98 77 81 79 78 82 80 75 79 77 87 91 89 90 94 92 97 101 99 91 95 93 22 26 27 22 26 27 22 26 27 22 26 27 22 26 27 22 26 27 22 26 27 22 26 27 22 26 27 22 26 27 22 26 27 22 26 27 22 26 27 22 26 27 22 26 27 22 26 27 22 26 27 22 26 27 22 26 27 22 26 27 22 26 27 22 26 27 22 26 27 22 26 27 22 26 27 22 26 27 22 26 27 22 26 27 22 26 27 22 26 27 22 26 27 22 26 27 22 26 27 22 26 27 22 26 27 22 26 27 22 26 27 22 26 27 22 26 27 22 26 27 22 26 27 22 26 27 22 26 27 22 26 27 22 26 27 22 26 27 22 26 27 22 26 27 22 26 27
22 26 27 22 26 27 22 26 27 83 87 87 92 96 96 77 81 81 22 26 27 90 94 94 78 82 82 79 83 83 83 87 87 22 26 27 82 86 86 80 84 84 93 97 97 69 73 73 77 77 77 59 59 59 71 71 71 68 68 68 60 60 60 76 76 76 77 77 77 61 61 61 76 76 76 59 59 59 72 72 72 74 74 74 75 75 75 60 60 60 66 66 66 76 76 76 61 61 61 60 60 60 77 77 77 70 70 70 60 60 60 61 61 61 68 68 68 60 60 60 70 70 70 94 79 117 72 72 72 70 70 70 73 73 73 70 70 70 75 75 75 63 63 63 77 77 77 77 77 77 74 74 74 61 61 61 68 68 68 62 62 62 73 73 73 73 73 73 61 61 61 60 60 60 70 70 70 65 65 65 75 75 75 68 68 68 73 73 73 64 64 64 76 76 76 68 68 68 62 62 62 59 59 59 116 76 111 71 71 71 75 75 75 65 65 65 66 66 66 69 69 69 63 63 63 68 68 68 74 74 74 67 67 67 74 74 74 63 63 63 60 60 60 67 67 67 73 73 73 69 69 69 64 64 64 74 74 74 72 72 72 69 69 69 73 73 73 74 74 74 103 78 115 74 74 74 107 77 114 71 71 71 75 75 75 63 63 63 69 69 69 61 61 61 65 65 65 64 64 64 67 67 67 72 72 72 66 66 66 66 66 66 75 75 75 64 64 64 68 68 68 70 70 70 61 61 61 66 66 66 73 73 73 75 75 75 66 66 66 71 71 71 69 69 69 61 61 61 62 62 62 73 73 73 72 72 72 71 71 71 63 63 63 77 77 77 77 77 77 68 68 68 105 78 114 82 86 84 82 86 84 87 91 89 87 91 89 81 85 83 95 99 97 77 81 79 85 89 87 76 80 78 82 86 84 84 88 86 75 79 77 82 86 84 93 97 95 88 92 90 79 83 81 96 100 98 86 90 88 92 96 94 82 86 84 87 91 89 77 81 79 87 91 89 96 100 98 86 90 88 96 100 98 84 88 86 86 90 88 79 83 81 85 89 87 80 84 82 86 90 88 85 89 87 85 89 87 94 98 96 83 87 85 77 81 79 84 88 86 88 92 90 82 86 84 91 95 93 87 91 89 90 94 92 78 82 80 81 85 83 84 88 86 94 98 96 89 93 91 83 87 85 76 80 78 92 96 94 86 90 88 86 90 88 90 94 92 95 99 97 85 89 87 77 81 79 82 86 84 90 94 92 79 83 81 91 95 93 85 89 87 84 88 86 90 94 92 83 87 85 76 80 78 82 86 84 80 84 82 86 90 88 88 92 90 78 82 80 98 102 100 84 88 86 90 94 92 77 81 79 90 94 92 83 87 85 84 88 86 75 79 77 78 82 80 86 90 88 86 90 88 22 26 27 22 26 27 22 26 27 22 26 27 22 26 27 22 26 27 22 26 27 22 26 27 22 26 27 22 26 27 22 26 27 22 26 27 22 26 27 22 26 27 22 26 27 22 26 27 22 26 27 22 26 27 22 26 27 22 26 27 22 26 27 22 26 27 22 26 27 22 26 27 22 26 27 22 26 27 22 26 27 22 26 27 22 26 27 22 26 27 22 26 27 22 26 27 22 26 27 22 26 27 22 26 27 22 26 27 22 26 27 22 26 27 22 26 27 22 26 27 22 26 27 22 26 27 22 26 27 22 26 27 22 26 27 22 26 27 22 26 27 22 26 27 22 26 27
22 26 27 22 26 27 22 26 27 86 90 90 77 81 81 85 89 89 22 26 27 77 81 81 72 76 76 81 85 85 77 81 81 22 26 27 92 96 96 85 89 89 85 89 89 72 76 76 71 71 71 57 57 57 58 58 58 61 61 61 64 64 64 69 69 69 63 63 63 71 71 71 69 69 69 68 68 68 60 60 60 57 57 57 69 69 69 99 74 111 58 58 58 56 56 56 69 69 69 58 58 58 74 74 74 61 61 61 66 66 66 106 73 109 61 61 61 72 72 72 73 73 73 71 71 71 73 73 73 96 75 112 69 69 69 64 64 64 100 74 111 100 74 111 63 63 63 58 58 58 72 72 72 69 69 69 72 72 72 59 59 59 61 61 61 62 62 62 69 69 69 70 70 70 68 68 68 67 67 67 112 73 107 66 66 66 68 68 68 73 73 73 71 71 71 57 57 57 57 57 57 73 73 73 61 61 61 58 58 58 67 67 67 71 71 71 69 69 69 64 64 64 62 62 62 58 58 58 68 68 68 59 59 59 74 74 74 67 67 67 62 62 62 70 70 70 74 74 74 60 60 60 59 59 59 66 66 66 61 61 61 109 73 108 66 66 66 64 64 64 74 74 74 64 64 64 66 66 66 64 64 64 73 73 73 74 74 74 58 58 58 65 65 65 72 72 72 62 62 62 62 62 62 70 70 70 56 56 56 69 69 69 62 62 62 62 62 62 66 66 66 62 62 62 72 72 72 60 60 60 64 64 64 61 61 61 62 62 62 72 72 72 69 69 69 67 67 67 69 69 69 57 57 57 69 69 69 73 73 73 72 72 72 108 73 109 68 68 68 59 59 59 62 62 62 78 82 80 78 82 80 76 80 78 89 93 91 80 84 82 89 93 91 82 86 84 82 86 84 88 92 90 83 87 85 91 95 93 85 89 87 75 79 77 83 87 85 80 84 82 93 97 95 92 96 94 93 97 95 97 101 99 78 82 80 76 80 78 92 96 94 91 95 93 88 92 90 96 100 98 77 81 79 77 81 79 84 88 86 81 85 83 85 89 87 86 90 88 85 89 87 82 86 84 93 97 95 95 99 97 80 84 82 81 85 83 96 100 98 89 93 91 81 85 83 91 95 93 83 87 85 91 95 93 75 79 77 96 100 98 92 96 94 76 80 78 76 80 78 92 96 94 84 88 86 93 97 95 77 81 79 74 78 76 97 101 99 90 94 92 77 81 79 82 86 84 91 95 93 85 89 87 94 98 96 89 93 91 97 101 99 79 83 81 76 80 78 95 99 97 76 80 78 74 78 76 96 100 98 98 102 100 85 89 87 80 84 82 97 101 99 76 80 78 85 89 87 86 90 88 83 87 85 96 100 98 91 95 93 83 87 85 75 79 77 86 90 88 96 100 98 22 26 27 22 26 27 22 26 27 22 26 27 22 26 27 22 26 27 22 26 27 22 26 27 22 26 27 22 26 27 22 26 27 22 26 27 22 26 27 22 26 27 22 26 27 22 26 27 22 26 27 22 26 27 22 26 27 22 26 27 22 26 27 22 26 27 22 26 27 22 26 27 22 26 27 22 26 27 22 26 27 22 26 27 22 26 27 22 26 27 22 26 27 22 26 27 22 26 27 22 26 27 22 26 27 22 26 27 22 26 27 22 26 27 22 26 27 22 26 27 22 26 27 22 26 27 22 26 27 22 26 27 22 26 27 22 26 27 22 26 27 22 26 27 22 26 27
22 26 27 22 26 27 22 26 27 76 80 80 73 77 77 76 80 80 22 26 27 71 75 75 77 81 81 84 88 88 83 87 87 22 26 27 70 74 74 79 83 83 88 92 92 80 84 84 61 61 61 63 63 63 60 60 60 69 69 69 62 62 62 69 69 69 65 65 65 89 69 107 65 65 65 67 67 67 86 70 107 68 68 68 54 54 54 67 67 67 62 62 62 110 67 101 71 71 71 69 69 69 68 68 68 68 68 68 53 53 53 66 66 66 57 57 57 60 60 60 70 70 70 62 62 62 55 55 55 56 56 56 56 56 56 65 65 65 66 66 66 100 68 103 56 56 56 68 68 68 109 67 101 65 65 65 65 65 65 62 62 62 68 68 68 63 63 63 64 64 64 53 53 53 52 52 52 62 62 62 69 69 69 52 52 52 52 52 52 67 67 67 53 53 53 66 66 66 106 67 102 55 55 55 68 68 68 54 54 54 56 56 56 56 56 56 62 62 62 56 56 56 62 62 62 53 53 53 68 68 68 69 69 69 58 58 58 68 68 68 57 57 57 54 54 54 63 63 63 67 67 67 60 60 60 55 55 55 64 64 64 70 70 70 64 64 64 107 67 102 64 64 64 56 56 56 63 63 63 70 70 70 104 68 102 66 66 66 59 59 59 69 69 69 53 53 53 64 64 64 56 56 56 64 64 64 86 70 107 68 68 68 55 55 55 66 66 66 56 56 56 66 66 66 57 57 57 65 65 65 65 65 65 55 55 55 71 71 71 63 63 63 61 61 61 69 69 69 61 61 61 67 67 67 65 65 65 61 61 61 65 65 65 58 58 58 70 70 70 62 62 62 56 56 56 95 99 97 90 94 92 98 102 100 86 90 88 84 88 86 76 80 78 75 79 77 91 95 93 98 102 100 89 93 91 88 92 90 98 102 100 74 78 76 87 91 89 92 96 94 89 93 91 89 93 91 77 81 79 87 91 89 93 97 95 91 95 93 90 94 92 76 80 78 98 102 100 86 90 88 79 83 81 93 97 95 76 80 78 82 86 84 80 84 82 85 89 87 92 96 94 78 82 80 75 79 77 90 94 92 94 98 96 91 95 93 91 95 93 93 97 95 95 99 97 84 88 86 81 85 83 97 101 99 80 84 82 95 99 97 76 80 78 77 81 79 87 91 89 93 97 95 78 82 80 88 92 90 89 93 91 89 93 91 79 83 81 77 81 79 90 94 92 91 95 93 82 86 84 93 97 95 88 92 90 81 85 83 90 94 92 80 84 82 82 86 84 91 95 93 84 88 86 90 94 92 94 98 96 81 85 83 74 78 76 76 80 78 91 95 93 92 96 94 83 87 85 81 85 83 76 80 78 85 89 87 85 89 87 79 83 81 90 94 92 84 88 86 82 86 84 22 26 27 22 26 27 22 26 27 22 26 27 22 26 27 22 26 27 22 26 27 22 26 27 22 26 27 22 26 27 22 26 27 22 26 27 22 26 27 22 26 27 22 26 27 22 26 27 22 26 27 22 26 27 22 26 27 22 26 27 22 26 27 22 26 27 22 26 27 22 26 27 22 26 27 22 26 27 22 26 27 22 26 27 22 26 27 22 26 27 22 26 27 22 26 27 22 26 27 22 26 27 22 26 27 22 26 27 22 26 27 22 26 27 22 26 27 22 26 27 22 26 27 22 26 27 22 26 27 22 26 27 22 26 27 22 26 27 22 26 27 22 26 27 22 26 27
22 26 27 22 26 27 22 26 27 84 88 88 79 83 83 90 94 94 22 26 27 92 96 96 90 94 94 70 74 74 74 78 78 22 26 27 92 96 96 83 87 87 70 74 74 72 76 76 61 61 61 96 62 96 60 60 60 60 60 60 47 47 47 50 50 50 57 57 57 58 58 58 53 53 53 66 66 66 65 65 65 62 62 62 61 61 61 50 50 50 62 62 62 64 64 64 56 56 56 61 61 61 59 59 59 58 58 58 65 65 65 64 64 64 63 63 63 56 56 56 61 61 61 57 57 57 50 50 50 52 52 52 56 56 56 55 55 55 63 63 63 49 49 49 50 50 50 66 66 66 58 58 58 102 61 95 52 52 52 48 48 48 54 54 54 64 64 64 64 64 64 57 57 57 65 65 65 58 58 58 53 53 53 62 62 62 51 51 51 49 49 49 53 53 53 54 54 54 61 61 61 63 63 63 48 48 48 52 52 52 64 64 64 83 63 100 49 49 49 63 63 63 60 60 60 50 50 50 54 54 54 59 59 59 54 54 54 62 62 62 54 54 54 62 62 62 64 64 64 64 64 64 60 60 60 49 49 49 64 64 64 65 65 65 47 47 47 63 63 63 55 55 55 58 58 58 62 62 62 52 52 52 63 63 63 47 47 47 101 61 95 53 53 53 49 49 49 59 59 59 61 61 61 56 56 56 58 58 58 64 64 64 79 64 101 61 61 61 54 54 54 97 62 96 50 50 50 66 66 66 64 64 64 66 66 66 51 51 51 96 62 96 57 57 57 57 57 57 73 65 103 58 58 58 57 57 57 47 47 47 53 53 53 64 64 64 66 66 66 52 52 52 56 56 56 92 96 94 87 91 89 85 89 87 89 93 91 76 80 78 76 80 78 91 95 93 83 87 85 93 97 95 98 102 100 94 98 96 81 85 83 91 95 93 82 86 84 96 100 98 93 97 95 88 92 90 95 99 97 87 91 89 84 88 86 81 85 83 91 95 93 97 101 99 80 84 82 87 91 89 90 94 92 84 88 86 77 81 79 93 97 95 85 89 87 79 83 81 81 85 83 94 98 96 75 79 77 88 92 90 76 80 78 75 79 77 94 98 96 93 97 95 89 93 91 79 83 81 98 102 100 81 85 83 80 84 82 84 88 86 89 93 91 83 87 85 91 95 93 89 93 91 97 101 99 94 98 96 94 98 96 76 80 78 96 100 98 75 79 77 88 92 90 77 81 79 97 101 99 97 101 99 85 89 87 85 89 87 80 84 82 83 87 85 88 92 90 77 81 79 86 90 88 90 94 92 87 91 89 85 89 87 78 82 80 80 84 82 93 97 95 84 88 86 76 80 78 94 98 96 79 83 81 92 96 94 87 91 89 83 87 85 91 95 93 84 88 86 86 90 88 22 26 27 22 26 27 22 26 27 22 26 27 22 26 27 22 26 27 22 26 27 22 26 27 22 26 27 22 26 27 22 26 27 22 26 27 22 26 27 22 26 27 22 26 27 22 26 27 22 26 27 22 26 27 22 26 27 22 26 27 22 26 27 22 26 27 22 26 27 22 26 27 22 26 27 22 26 27 22 26 27 22 26 27 22 26 27 22 26 27 22 26 27 22 26 27 22 26 27 22 26 27 22 26 27 22 26 27 22 26 27 22 26 27 22 26 27 22 26 27 22 26 27 22 26 27 22 26 27 22 26 27 22 26 27 22 26 27 22 26 27 22 26 27 22 26 27
22 26 27 22 26 27 22 26 27 83 87 87 89 93 93 75 79 79 22 26 27 71 75 75 84 88 88 76 80 80 80 84 84 22 26 27 88 92 92 69 73 73 83 87 87 93 97 97 22 26 27 22 26 27 22 26 27 22 26 27 22 26 27 22 26 27 22 26 27 22 26 27 22 26 27 22 26 27 22 26 27 22 26 27 22 26 27 22 26 27 22 26 27 22 26 27 22 26 27 22 26 27 22 26 27 22 26 27 22 26 27 22 26 27 22 26 27 22 26 27 22 26 27 22 26 27 22 26 27 22 26 27 22 26 27 22 26 27 22 26 27 22 26 27 22 26 27 22 26 27 22 26 27 22 26 27 22 26 27 22 26 27 22 26 27 22 26 27 22 26 27 22 26 27 22 26 27 22 26 27 22 26 27 22 26 27 22 26 27 22 26 27 22 26 27 22 26 27 22 26 27 22 26 27 22 26 27 22 26 27 22 26 27 22 26 27 22 26 27 22 26 27 22 26 27 22 26 27 22 26 27 22 26 27 22 26 27 22 26 27 22 26 27 22 26 27 22 26 27 22 26 27 22 26 27 22 26 27 22 26 27 22 26 27 22 26 27 22 26 27 22 26 27 22 26 27 22 26 27 22 26 27 22 26 27 22 26 27 22 26 27 22 26 27 22 26 27 22 26 27 22 26 27 22 26 27 22 26 27 22 26 27 22 26 27 22 26 27 22 26 27 22 26 27 22 26 27 22 26 27 22 26 27 22 26 27 22 26 27 22 26 27 22 26 27 22 26 27 22 26 27 22 26 27 22 26 27 22 26 27 22 26 27 22 26 27 22 26 27 22 26 27 22 26 27 77 81 79 85 89 87 89 93 91 87 91 89 80 84 82 94 98 96 76 80 78 86 90 88 80 84 82 85 89 87 78 82 80 77 81 79 86 90 88 81 85 83 78 82 80 84 88 86 93 97 95 77 81 79 87 91 89 86 90 88 84 88 86 95 99 97 98 102 100 81 85 83 77 81 79 94 98 96 91 95 93 78 82 80 76 80 78 88 92 90 86 90 88 81 85 83 75 79 77 86 90 88 83 87 85 86 90 88 80 84 82 76 80 78 92 96 94 93 97 95 97 101 99 91 95 93 84 88 86 81 85 83 80 84 82 86 90 88 86 90 88 80 84 82 96 100 98 75 79 77 85 89 87 90 94 92 82 86 84 96 100 98 77 81 79 95 99 97 92 96 94 87 91 89 80 84 82 92 96 94 79 83 81 94 98 96 86 90 88 86 90 88 75 79 77 75 79 77 97 101 99 81 85 83 83 87 85 87 91 89 79 83 81 76 80 78 77 81 79 79 83 81 88 92 90 90 94 92 89 93 91 85 89 87 95 99 97 81 85 83 88 92 90 91 95 93 22 26 27 22 26 27 22 26 27 22 26 27 22 26 27 22 26 27 22 26 27 22 26 27 22 26 27 22 26 27 22 26 27 22 26 27 22 26 27 22 26 27 22 26 27 22 26 27 22 26 27 22 26 27 22 26 27 22 26 27 22 26 27 22 26 27 22 26 27 22 26 27 22 26 27 22 26 27 22 26 27 22 26 27 22 26 27 22 26 27 22 26 27 22 26 27 22 26 27 22 26 27 22 26 27 22 26 27 22 26 27 22 26 27 22 26 27 22 26 27 22 26 27 22 26 27 22 26 27 22 26 27 22 26 27 22 26 27 22 26 27 22 26 27 22 26 27
