P3
# Text-only default cover for prop_book.obj
32 48
255
232 196 78 232 196 78 232 196 78 232 196 78 232 196 78 232 196 78 232 196 78 232 196 78 232 196 78 232 196 78 232 196 78 232 196 78 232 196 78 232 196 78 232 196 78 232 196 78 232 196 78 232 196 78 232 196 78 232 196 78 232 196 78 232 196 78 232 196 78 232 196 78 232 196 78 232 196 78 232 196 78 232 196 78 232 196 78 232 196 78 232 196 78 232 196 78
232 196 78 82 28 38 82 28 38 82 28 38 118 46 54 118 46 54 118 46 54 118 46 54 82 28 38 82 28 38 82 28 38 82 28 38 118 46 54 118 46 54 118 46 54 118 46 54 82 28 38 82 28 38 82 28 38 82 28 38 118 46 54 118 46 54 118 46 54 118 46 54 82 28 38 82 28 38 82 28 38 82 28 38 118 46 54 118 46 54 118 46 54 232 196 78
232 196 78 82 28 38 82 28 38 82 28 38 118 46 54 118 46 54 118 46 54 118 46 54 82 28 38 82 28 38 82 28 38 82 28 38 118 46 54 118 46 54 118 46 54 118 46 54 82 28 38 82 28 38 82 28 38 82 28 38 118 46 54 118 46 54 118 46 54 118 46 54 82 28 38 82 28 38 82 28 38 82 28 38 118 46 54 118 46 54 118 46 54 232 196 78
232 196 78 82 28 38 82 28 38 82 28 38 118 46 54 118 46 54 118 46 54 118 46 54 82 28 38 82 28 38 82 28 38 82 28 38 118 46 54 118 46 54 118 46 54 118 46 54 82 28 38 82 28 38 82 28 38 82 28 38 118 46 54 118 46 54 118 46 54 118 46 54 82 28 38 82 28 38 82 28 38 82 28 38 118 46 54 118 46 54 118 46 54 232 196 78
232 196 78 82 28 38 82 28 38 82 28 38 118 46 54 118 46 54 118 46 54 118 46 54 82 28 38 82 28 38 82 28 38 82 28 38 118 46 54 118 46 54 118 46 54 118 46 54 82 28 38 82 28 38 82 28 38 82 28 38 118 46 54 118 46 54 118 46 54 118 46 54 82 28 38 82 28 38 82 28 38 82 28 38 118 46 54 118 46 54 118 46 54 232 196 78
232 196 78 82 28 38 82 28 38 82 28 38 118 46 54 118 46 54 118 46 54 118 46 54 82 28 38 82 28 38 82 28 38 82 28 38 118 46 54 118 46 54 118 46 54 118 46 54 82 28 38 82 28 38 82 28 38 82 28 38 118 46 54 118 46 54 118 46 54 118 46 54 82 28 38 82 28 38 82 28 38 82 28 38 118 46 54 118 46 54 118 46 54 232 196 78
232 196 78 42 82 132 42 82 132 42 82 132 42 82 132 42 82 132 42 82 132 42 82 132 42 82 132 42 82 132 42 82 132 42 82 132 42 82 132 42 82 132 42 82 132 42 82 132 42 82 132 42 82 132 42 82 132 42 82 132 42 82 132 42 82 132 42 82 132 42 82 132 42 82 132 42 82 132 42 82 132 42 82 132 42 82 132 42 82 132 42 82 132 232 196 78
232 196 78 42 82 132 42 82 132 42 82 132 42 82 132 42 82 132 42 82 132 42 82 132 42 82 132 42 82 132 42 82 132 42 82 132 42 82 132 42 82 132 42 82 132 42 82 132 42 82 132 42 82 132 42 82 132 42 82 132 42 82 132 42 82 132 42 82 132 42 82 132 42 82 132 42 82 132 42 82 132 42 82 132 42 82 132 42 82 132 42 82 132 232 196 78
232 196 78 42 82 132 42 82 132 42 82 132 42 82 132 42 82 132 42 82 132 42 82 132 42 82 132 42 82 132 42 82 132 42 82 132 42 82 132 42 82 132 42 82 132 42 82 132 42 82 132 42 82 132 42 82 132 42 82 132 42 82 132 42 82 132 42 82 132 42 82 132 42 82 132 42 82 132 42 82 132 42 82 132 42 82 132 42 82 132 42 82 132 232 196 78
232 196 78 42 82 132 42 82 132 42 82 132 42 82 132 42 82 132 42 82 132 42 82 132 42 82 132 42 82 132 42 82 132 42 82 132 42 82 132 42 82 132 42 82 132 42 82 132 42 82 132 42 82 132 42 82 132 42 82 132 42 82 132 42 82 132 42 82 132 42 82 132 42 82 132 42 82 132 42 82 132 42 82 132 42 82 132 42 82 132 42 82 132 232 196 78
232 196 78 42 82 132 42 82 132 42 82 132 42 82 132 42 82 132 42 82 132 42 82 132 42 82 132 42 82 132 42 82 132 42 82 132 42 82 132 42 82 132 42 82 132 42 82 132 42 82 132 42 82 132 42 82 132 42 82 132 42 82 132 42 82 132 42 82 132 42 82 132 42 82 132 42 82 132 42 82 132 42 82 132 42 82 132 42 82 132 42 82 132 232 196 78
232 196 78 42 82 132 42 82 132 42 82 132 42 82 132 42 82 132 42 82 132 42 82 132 42 82 132 42 82 132 42 82 132 42 82 132 42 82 132 42 82 132 42 82 132 42 82 132 42 82 132 42 82 132 42 82 132 42 82 132 42 82 132 42 82 132 42 82 132 42 82 132 42 82 132 42 82 132 42 82 132 42 82 132 42 82 132 42 82 132 42 82 132 232 196 78
232 196 78 42 82 132 42 82 132 42 82 132 42 82 132 42 82 132 42 82 132 42 82 132 42 82 132 42 82 132 42 82 132 42 82 132 42 82 132 42 82 132 42 82 132 42 82 132 42 82 132 42 82 132 42 82 132 42 82 132 42 82 132 42 82 132 42 82 132 42 82 132 42 82 132 42 82 132 42 82 132 42 82 132 42 82 132 42 82 132 42 82 132 232 196 78
232 196 78 82 28 38 82 28 38 82 28 38 118 46 54 118 46 54 118 46 54 118 46 54 82 28 38 82 28 38 82 28 38 82 28 38 118 46 54 118 46 54 118 46 54 118 46 54 82 28 38 82 28 38 82 28 38 82 28 38 118 46 54 118 46 54 118 46 54 118 46 54 82 28 38 82 28 38 82 28 38 82 28 38 118 46 54 118 46 54 118 46 54 232 196 78
232 196 78 82 28 38 82 28 38 82 28 38 118 46 54 118 46 54 118 46 54 118 46 54 82 28 38 82 28 38 82 28 38 82 28 38 118 46 54 118 46 54 118 46 54 118 46 54 82 28 38 82 28 38 82 28 38 82 28 38 118 46 54 118 46 54 118 46 54 118 46 54 82 28 38 82 28 38 82 28 38 82 28 38 118 46 54 118 46 54 118 46 54 232 196 78
232 196 78 82 28 38 82 28 38 82 28 38 118 46 54 118 46 54 118 46 54 118 46 54 82 28 38 82 28 38 82 28 38 82 28 38 118 46 54 118 46 54 118 46 54 118 46 54 82 28 38 82 28 38 82 28 38 82 28 38 118 46 54 118 46 54 118 46 54 118 46 54 82 28 38 82 28 38 82 28 38 82 28 38 118 46 54 118 46 54 118 46 54 232 196 78
232 196 78 82 28 38 82 28 38 82 28 38 118 46 54 118 46 54 118 46 54 118 46 54 82 28 38 82 28 38 82 28 38 82 28 38 118 46 54 118 46 54 118 46 54 118 46 54 82 28 38 82 28 38 82 28 38 82 28 38 118 46 54 118 46 54 118 46 54 118 46 54 82 28 38 82 28 38 82 28 38 82 28 38 118 46 54 118 46 54 118 46 54 232 196 78
232 196 78 82 28 38 82 28 38 82 28 38 118 46 54 118 46 54 118 46 54 118 46 54 82 28 38 82 28 38 82 28 38 82 28 38 118 46 54 118 46 54 118 46 54 118 46 54 82 28 38 82 28 38 82 28 38 82 28 38 118 46 54 118 46 54 118 46 54 118 46 54 82 28 38 82 28 38 82 28 38 82 28 38 118 46 54 118 46 54 118 46 54 232 196 78
232 196 78 118 46 54 118 46 54 118 46 54 82 28 38 82 28 38 82 28 38 82 28 38 118 46 54 118 46 54 118 46 54 118 46 54 82 28 38 82 28 38 82 28 38 82 28 38 118 46 54 118 46 54 118 46 54 118 46 54 82 28 38 82 28 38 82 28 38 82 28 38 118 46 54 118 46 54 118 46 54 118 46 54 82 28 38 82 28 38 82 28 38 232 196 78
232 196 78 118 46 54 118 46 54 118 46 54 82 28 38 82 28 38 82 28 38 82 28 38 118 46 54 118 46 54 118 46 54 118 46 54 82 28 38 82 28 38 82 28 38 82 28 38 118 46 54 118 46 54 118 46 54 118 46 54 82 28 38 82 28 38 82 28 38 82 28 38 118 46 54 118 46 54 118 46 54 118 46 54 82 28 38 82 28 38 82 28 38 232 196 78
232 196 78 118 46 54 118 46 54 118 46 54 82 28 38 82 28 38 82 28 38 82 28 38 118 46 54 118 46 54 118 46 54 118 46 54 82 28 38 82 28 38 82 28 38 82 28 38 118 46 54 118 46 54 118 46 54 118 46 54 82 28 38 82 28 38 82 28 38 82 28 38 118 46 54 118 46 54 118 46 54 118 46 54 82 28 38 82 28 38 82 28 38 232 196 78
232 196 78 118 46 54 118 46 54 118 46 54 82 28 38 82 28 38 82 28 38 82 28 38 118 46 54 118 46 54 118 46 54 118 46 54 82 28 38 82 28 38 82 28 38 82 28 38 118 46 54 118 46 54 118 46 54 118 46 54 82 28 38 82 28 38 82 28 38 82 28 38 118 46 54 118 46 54 118 46 54 118 46 54 82 28 38 82 28 38 82 28 38 232 196 78
232 196 78 118 46 54 118 46 54 118 46 54 82 28 38 82 28 38 82 28 38 82 28 38 118 46 54 118 46 54 118 46 54 118 46 54 82 28 38 82 28 38 82 28 38 82 28 38 118 46 54 118 46 54 118 46 54 118 46 54 82 28 38 82 28 38 82 28 38 82 28 38 118 46 54 118 46 54 118 46 54 118 46 54 82 28 38 82 28 38 82 28 38 232 196 78
232 196 78 118 46 54 118 46 54 118 46 54 82 28 38 82 28 38 82 28 38 82 28 38 118 46 54 118 46 54 118 46 54 118 46 54 82 28 38 82 28 38 82 28 38 82 28 38 118 46 54 118 46 54 118 46 54 118 46 54 82 28 38 82 28 38 82 28 38 82 28 38 118 46 54 118 46 54 118 46 54 118 46 54 82 28 38 82 28 38 82 28 38 232 196 78
232 196 78 82 28 38 82 28 38 82 28 38 118 46 54 118 46 54 118 46 54 118 46 54 82 28 38 82 28 38 82 28 38 82 28 38 118 46 54 118 46 54 118 46 54 118 46 54 82 28 38 82 28 38 82 28 38 82 28 38 118 46 54 118 46 54 118 46 54 118 46 54 82 28 38 82 28 38 82 28 38 82 28 38 118 46 54 118 46 54 118 46 54 232 196 78
232 196 78 82 28 38 82 28 38 82 28 38 118 46 54 118 46 54 118 46 54 118 46 54 82 28 38 82 28 38 82 28 38 82 28 38 118 46 54 118 46 54 118 46 54 118 46 54 82 28 38 82 28 38 82 28 38 82 28 38 118 46 54 118 46 54 118 46 54 118 46 54 82 28 38 82 28 38 82 28 38 82 28 38 118 46 54 118 46 54 118 46 54 232 196 78
232 196 78 82 28 38 82 28 38 82 28 38 118 46 54 118 46 54 118 46 54 118 46 54 82 28 38 82 28 38 82 28 38 82 28 38 118 46 54 118 46 54 118 46 54 118 46 54 82 28 38 82 28 38 82 28 38 82 28 38 118 46 54 118 46 54 118 46 54 118 46 54 82 28 38 82 28 38 82 28 38 82 28 38 118 46 54 118 46 54 118 46 54 232 196 78
232 196 78 82 28 38 82 28 38 82 28 38 118 46 54 118 46 54 118 46 54 118 46 54 82 28 38 82 28 38 82 28 38 82 28 38 118 46 54 118 46 54 118 46 54 118 46 54 82 28 38 82 28 38 82 28 38 82 28 38 118 46 54 118 46 54 118 46 54 118 46 54 82 28 38 82 28 38 82 28 38 82 28 38 118 46 54 118 46 54 118 46 54 232 196 78
232 196 78 82 28 38 82 28 38 82 28 38 118 46 54 118 46 54 118 46 54 118 46 54 82 28 38 82 28 38 82 28 38 82 28 38 118 46 54 118 46 54 118 46 54 118 46 54 82 28 38 82 28 38 82 28 38 82 28 38 118 46 54 118 46 54 118 46 54 118 46 54 82 28 38 82 28 38 82 28 38 82 28 38 118 46 54 118 46 54 118 46 54 232 196 78
232 196 78 82 28 38 82 28 38 82 28 38 118 46 54 118 46 54 118 46 54 118 46 54 82 28 38 82 28 38 82 28 38 82 28 38 118 46 54 118 46 54 118 46 54 118 46 54 82 28 38 82 28 38 82 28 38 82 28 38 118 46 54 118 46 54 118 46 54 118 46 54 82 28 38 82 28 38 82 28 38 82 28 38 118 46 54 118 46 54 118 46 54 232 196 78
232 196 78 118 46 54 118 46 54 118 46 54 82 28 38 82 28 38 82 28 38 82 28 38 118 46 54 118 46 54 118 46 54 118 46 54 82 28 38 82 28 38 82 28 38 82 28 38 118 46 54 118 46 54 118 46 54 118 46 54 82 28 38 82 28 38 82 28 38 82 28 38 118 46 54 118 46 54 118 46 54 118 46 54 82 28 38 82 28 38 82 28 38 232 196 78
232 196 78 118 46 54 118 46 54 118 46 54 82 28 38 82 28 38 82 28 38 82 28 38 118 46 54 118 46 54 118 46 54 118 46 54 82 28 38 82 28 38 82 28 38 82 28 38 118 46 54 118 46 54 118 46 54 118 46 54 82 28 38 82 28 38 82 28 38 82 28 38 118 46 54 118 46 54 118 46 54 118 46 54 82 28 38 82 28 38 82 28 38 232 196 78
232 196 78 118 46 54 118 46 54 118 46 54 82 28 38 82 28 38 82 28 38 82 28 38 118 46 54 118 46 54 118 46 54 118 46 54 82 28 38 82 28 38 82 28 38 82 28 38 118 46 54 118 46 54 118 46 54 118 46 54 82 28 38 82 28 38 82 28 38 82 28 38 118 46 54 118 46 54 118 46 54 118 46 54 82 28 38 82 28 38 82 28 38 232 196 78
232 196 78 118 46 54 118 46 54 118 46 54 82 28 38 82 28 38 82 28 38 82 28 38 118 46 54 118 46 54 118 46 54 118 46 54 82 28 38 82 28 38 82 28 38 82 28 38 118 46 54 118 46 54 118 46 54 118 46 54 82 28 38 82 28 38 82 28 38 82 28 38 118 46 54 118 46 54 118 46 54 118 46 54 82 28 38 82 28 38 82 28 38 232 196 78
232 196 78 118 46 54 118 46 54 118 46 54 82 28 38 82 28 38 82 28 38 82 28 38 118 46 54 118 46 54 118 46 54 118 46 54 82 28 38 82 28 38 82 28 38 82 28 38 118 46 54 118 46 54 118 46 54 118 46 54 82 28 38 82 28 38 82 28 38 82 28 38 118 46 54 118 46 54 118 46 54 118 46 54 82 28 38 82 28 38 82 28 38 232 196 78
232 196 78 118 46 54 118 46 54 118 46 54 82 28 38 82 28 38 82 28 38 82 28 38 118 46 54 118 46 54 118 46 54 118 46 54 82 28 38 82 28 38 82 28 38 82 28 38 118 46 54 118 46 54 118 46 54 118 46 54 82 28 38 82 28 38 82 28 38 82 28 38 118 46 54 118 46 54 118 46 54 118 46 54 82 28 38 82 28 38 82 28 38 232 196 78
232 196 78 82 28 38 82 28 38 82 28 38 118 46 54 118 46 54 118 46 54 118 46 54 82 28 38 82 28 38 82 28 38 82 28 38 118 46 54 118 46 54 118 46 54 118 46 54 82 28 38 82 28 38 82 28 38 82 28 38 118 46 54 118 46 54 118 46 54 118 46 54 82 28 38 82 28 38 82 28 38 82 28 38 118 46 54 118 46 54 118 46 54 232 196 78
232 196 78 82 28 38 82 28 38 82 28 38 118 46 54 118 46 54 118 46 54 118 46 54 82 28 38 82 28 38 82 28 38 82 28 38 118 46 54 118 46 54 118 46 54 118 46 54 82 28 38 82 28 38 82 28 38 82 28 38 118 46 54 118 46 54 118 46 54 118 46 54 82 28 38 82 28 38 82 28 38 82 28 38 118 46 54 118 46 54 118 46 54 232 196 78
232 196 78 82 28 38 82 28 38 82 28 38 118 46 54 118 46 54 118 46 54 118 46 54 82 28 38 82 28 38 82 28 38 82 28 38 118 46 54 118 46 54 118 46 54 118 46 54 82 28 38 82 28 38 82 28 38 82 28 38 118 46 54 118 46 54 118 46 54 118 46 54 82 28 38 82 28 38 82 28 38 82 28 38 118 46 54 118 46 54 118 46 54 232 196 78
232 196 78 82 28 38 82 28 38 82 28 38 118 46 54 118 46 54 118 46 54 118 46 54 82 28 38 82 28 38 82 28 38 82 28 38 118 46 54 118 46 54 118 46 54 118 46 54 82 28 38 82 28 38 82 28 38 82 28 38 118 46 54 118 46 54 118 46 54 118 46 54 82 28 38 82 28 38 82 28 38 82 28 38 118 46 54 118 46 54 118 46 54 232 196 78
232 196 78 82 28 38 82 28 38 82 28 38 118 46 54 118 46 54 118 46 54 118 46 54 82 28 38 82 28 38 82 28 38 82 28 38 118 46 54 118 46 54 118 46 54 118 46 54 82 28 38 82 28 38 82 28 38 82 28 38 118 46 54 118 46 54 118 46 54 118 46 54 82 28 38 82 28 38 82 28 38 82 28 38 118 46 54 118 46 54 118 46 54 232 196 78
232 196 78 82 28 38 82 28 38 82 28 38 118 46 54 118 46 54 118 46 54 118 46 54 82 28 38 82 28 38 82 28 38 82 28 38 118 46 54 118 46 54 118 46 54 118 46 54 82 28 38 82 28 38 82 28 38 82 28 38 118 46 54 118 46 54 118 46 54 118 46 54 82 28 38 82 28 38 82 28 38 82 28 38 118 46 54 118 46 54 118 46 54 232 196 78
232 196 78 118 46 54 118 46 54 118 46 54 82 28 38 82 28 38 82 28 38 82 28 38 118 46 54 118 46 54 118 46 54 118 46 54 82 28 38 82 28 38 82 28 38 82 28 38 118 46 54 118 46 54 118 46 54 118 46 54 82 28 38 82 28 38 82 28 38 82 28 38 118 46 54 118 46 54 118 46 54 118 46 54 82 28 38 82 28 38 82 28 38 232 196 78
232 196 78 118 46 54 118 46 54 118 46 54 82 28 38 82 28 38 82 28 38 82 28 38 118 46 54 118 46 54 118 46 54 118 46 54 82 28 38 82 28 38 82 28 38 82 28 38 118 46 54 118 46 54 118 46 54 118 46 54 82 28 38 82 28 38 82 28 38 82 28 38 118 46 54 118 46 54 118 46 54 118 46 54 82 28 38 82 28 38 82 28 38 232 196 78
232 196 78 118 46 54 118 46 54 118 46 54 82 28 38 82 28 38 82 28 38 82 28 38 118 46 54 118 46 54 118 46 54 118 46 54 82 28 38 82 28 38 82 28 38 82 28 38 118 46 54 118 46 54 118 46 54 118 46 54 82 28 38 82 28 38 82 28 38 82 28 38 118 46 54 118 46 54 118 46 54 118 46 54 82 28 38 82 28 38 82 28 38 232 196 78
232 196 78 118 46 54 118 46 54 118 46 54 82 28 38 82 28 38 82 28 38 82 28 38 118 46 54 118 46 54 118 46 54 118 46 54 82 28 38 82 28 38 82 28 38 82 28 38 118 46 54 118 46 54 118 46 54 118 46 54 82 28 38 82 28 38 82 28 38 82 28 38 118 46 54 118 46 54 118 46 54 118 46 54 82 28 38 82 28 38 82 28 38 232 196 78
232 196 78 118 46 54 118 46 54 118 46 54 82 28 38 82 28 38 82 28 38 82 28 38 118 46 54 118 46 54 118 46 54 118 46 54 82 28 38 82 28 38 82 28 38 82 28 38 118 46 54 118 46 54 118 46 54 118 46 54 82 28 38 82 28 38 82 28 38 82 28 38 118 46 54 118 46 54 118 46 54 118 46 54 82 28 38 82 28 38 82 28 38 232 196 78
232 196 78 232 196 78 232 196 78 232 196 78 232 196 78 232 196 78 232 196 78 232 196 78 232 196 78 232 196 78 232 196 78 232 196 78 232 196 78 232 196 78 232 196 78 232 196 78 232 196 78 232 196 78 232 196 78 232 196 78 232 196 78 232 196 78 232 196 78 232 196 78 232 196 78 232 196 78 232 196 78 232 196 78 232 196 78 232 196 78 232 196 78 232 196 78
